;FLAVOR:Marlin
;TIME:11461
;Filament used: 0m, 12.2344m
;Layer height: 0.3
;MINX:123.467
;MINY:23.37
;MINZ:0.3
;MAXX:176.418
;MAXY:133.925
;MAXZ:50.7
;Generated with Cura_SteamEngine 4.12.1
T1
M82 ;absolute extrusion mode
G21 ;metric values
G28 ;home all
G90 ;absolute positioning
M107 ;start with the fan off
G1 F2400 Z15.0 ;raise the nozzle 15mm
M109 S220 ;Set Extruder Temperature and Wait
M190 S60; Wait for bed temperature to reach target temp
T0 ;Switch to Extruder 1
G1 F3000 X5 Y10 Z0.2 ;move to prime start position
G92 E0 ;reset extrusion distance
G1 F600 X160 E5 ;prime nozzle in a line
G1 F5000 X180 ;quick wipe
G92 E0 ;reset extrusion distance
G92 E0

T1 ;switch to extruder 2
G92 E0 ;reset extruder distance
G1 F2000 E93 ;load filament
G92 E0 ;reset extruder distance
M104 S220
G92 E0
G1 F3000 E-5
;LAYER_COUNT:169
;LAYER:0
M107
G0 F3600 X138.022 Y37.931 Z0.3
;TYPE:SKIRT
G1 F3000 E0
G1 F1500 X138.223 Y37.484 E0.02445
G1 X138.494 Y37.077 E0.04885
G1 X138.84 Y36.702 E0.0743
G1 X139.213 Y36.385 E0.09872
G1 X139.633 Y36.133 E0.12316
G1 X140.088 Y35.953 E0.14757
G1 X140.86 Y35.825 E0.18661
G1 X141.484 Y35.813 E0.21775
G1 X158.742 Y35.812 E1.07876
G1 X159.446 Y35.822 E1.11388
G1 X159.933 Y35.869 E1.13829
G1 X160.406 Y35.995 E1.16271
G1 X160.852 Y36.195 E1.1871
G1 X161.26 Y36.466 E1.21153
G1 X161.636 Y36.813 E1.23706
G1 X161.953 Y37.186 E1.26148
G1 X162.205 Y37.606 E1.28592
G1 X162.385 Y38.061 E1.31033
G1 X162.513 Y38.825 E1.34898
G1 X162.525 Y39.408 E1.37807
G1 X162.525 Y43.488 E1.58162
G1 X162.523 Y43.628 E1.58861
G1 X162.518 Y45.977 E1.7058
G1 X162.525 Y46.676 E1.74067
G1 X162.525 Y56.961 E2.2538
G1 X162.565 Y59.768 E2.39385
G1 X162.68 Y62.495 E2.53002
G1 X162.874 Y65.219 E2.66627
G1 X163.143 Y67.931 E2.80223
G1 X163.493 Y70.67 E2.93999
G1 X163.919 Y73.382 E3.07696
G1 X164.424 Y76.096 E3.21468
G1 X164.992 Y78.738 E3.3495
G1 X165.649 Y81.419 E3.48722
G1 X166.381 Y84.079 E3.62486
G1 X167.182 Y86.695 E3.76135
G1 X168.061 Y89.3 E3.89851
G1 X169.011 Y91.878 E4.03559
G1 X170.031 Y94.416 E4.17205
G1 X171.128 Y96.938 E4.30926
G1 X172.284 Y99.403 E4.44509
G1 X173.525 Y101.868 E4.58278
G1 X175.037 Y104.655 E4.74097
G1 X175.623 Y105.696 E4.80057
G1 X175.862 Y106.24 E4.83021
G1 X176.086 Y106.929 E4.86635
G1 X176.241 Y107.431 E4.89257
G1 X176.397 Y108.111 E4.92737
G1 X176.418 Y108.486 E4.94611
G1 X176.41 Y109.631 E5.00324
G1 X176.397 Y110.12 E5.02764
G1 X176.369 Y110.766 E5.0599
G1 X176.311 Y111.299 E5.08665
G1 X176.278 Y111.516 E5.0976
G1 X176.118 Y112.504 E5.14753
G1 X175.994 Y113.198 E5.18271
G1 X175.869 Y113.671 E5.20711
G1 X175.567 Y114.289 E5.24143
G1 X175.262 Y114.765 E5.26964
G1 X173.814 Y117.086 E5.40612
G1 X172.499 Y119.331 E5.53592
G1 X171.356 Y121.339 E5.65119
G1 X170.508 Y122.771 E5.73422
G1 X170.169 Y123.324 E5.76658
G1 X169.97 Y123.609 E5.78393
G1 X169.346 Y124.403 E5.83431
G1 X168.322 Y125.658 E5.91512
G1 X167.902 Y126.159 E5.94773
G1 X167.659 Y126.416 E5.96538
G1 X166.922 Y127.109 E6.01585
G1 X165.717 Y128.205 E6.09711
G1 X165.246 Y128.624 E6.12857
G1 X164.96 Y128.85 E6.14675
G1 X164.14 Y129.417 E6.19649
G1 X162.777 Y130.328 E6.27828
G1 X162.239 Y130.677 E6.31027
G1 X161.935 Y130.85 E6.32772
G1 X161.032 Y131.295 E6.37795
G1 X159.604 Y131.967 E6.45669
G1 X158.956 Y132.262 E6.49221
G1 X158.626 Y132.39 E6.50987
G1 X157.728 Y132.676 E6.55688
G1 X156.081 Y133.17 E6.64267
G1 X155.501 Y133.336 E6.67277
G1 X155.154 Y133.414 E6.69051
G1 X154.207 Y133.566 E6.73836
G1 X152.537 Y133.807 E6.82254
G1 X151.911 Y133.888 E6.85403
G1 X151.563 Y133.913 E6.87144
G1 X150.536 Y133.925 E6.92268
G1 X148.969 Y133.914 E7.00086
G1 X148.268 Y133.9 E7.03584
G1 X147.921 Y133.873 E7.05321
G1 X146.954 Y133.74 E7.1019
G1 X145.33 Y133.487 E7.1839
G1 X144.674 Y133.376 E7.2171
G1 X144.326 Y133.295 E7.23492
G1 X143.426 Y133.029 E7.28174
G1 X141.805 Y132.522 E7.36648
G1 X141.215 Y132.329 E7.39745
G1 X140.885 Y132.199 E7.41514
G1 X139.942 Y131.761 E7.46702
G1 X138.498 Y131.058 E7.54714
G1 X137.922 Y130.769 E7.57929
G1 X137.613 Y130.591 E7.59708
G1 X136.807 Y130.058 E7.64529
G1 X135.436 Y129.117 E7.72825
G1 X134.903 Y128.74 E7.76083
G1 X134.631 Y128.523 E7.77818
G1 X133.895 Y127.862 E7.82754
G1 X132.701 Y126.75 E7.90894
G1 X132.222 Y126.291 E7.94204
G1 X131.984 Y126.035 E7.95948
G1 X131.355 Y125.271 E8.00885
G1 X130.31 Y123.958 E8.09257
G1 X129.938 Y123.477 E8.12291
G1 X129.739 Y123.187 E8.14045
G1 X129.218 Y122.318 E8.191
G1 X128.484 Y121.047 E8.26423
G1 X127.078 Y118.689 E8.40119
G1 X125.597 Y116.359 E8.53893
G1 X124.27 Y114.386 E8.65756
G1 X123.874 Y113.744 E8.69519
G1 X123.702 Y113.286 E8.7196
G1 X123.593 Y112.649 E8.75184
G1 X123.528 Y111.599 E8.80433
G1 X123.499 Y110.945 E8.83699
G1 X123.468 Y109.916 E8.88835
G1 X123.467 Y108.402 E8.96388
G1 X123.477 Y107.718 E8.99801
G1 X123.524 Y107.231 E9.02242
G1 X123.65 Y106.758 E9.04684
G1 X123.88 Y106.26 E9.07421
G1 X124.366 Y105.421 E9.12258
G1 X124.876 Y104.563 E9.17238
G1 X126.213 Y102.164 E9.3094
G1 X127.48 Y99.736 E9.44603
G1 X128.689 Y97.244 E9.58422
G1 X129.809 Y94.763 E9.72002
G1 X130.859 Y92.25 E9.8559
G1 X131.866 Y89.635 E9.9957
G1 X132.771 Y87.064 E10.13168
G1 X133.601 Y84.476 E10.26728
G1 X134.364 Y81.849 E10.40375
G1 X135.056 Y79.183 E10.54117
G1 X135.682 Y76.462 E10.68047
G1 X136.212 Y73.821 E10.81485
G1 X136.679 Y71.071 E10.95402
G1 X137.058 Y68.4 E11.08861
G1 X137.368 Y65.658 E11.22628
G1 X137.599 Y62.937 E11.36252
G1 X137.753 Y60.202 E11.49918
G1 X137.839 Y56.119 E11.70293
G1 X137.839 Y46.961 E12.15983
G1 X137.846 Y44.833 E12.26599
G1 X137.839 Y43.896 E12.31274
G1 X137.839 Y39.573 E12.52842
G1 X137.849 Y38.891 E12.56244
G1 X137.892 Y38.446 E12.58475
G0 F1350 X137.896 Y38.404
G0 X138.022 Y37.931
G0 F3600 X138.421 Y38.005
G1 F1500 X138.62 Y37.596 E12.60744
G1 X139.011 Y37.097 E12.63907
G1 X139.472 Y36.692 E12.66968
G1 X139.867 Y36.465 E12.69241
G1 X140.295 Y36.31 E12.71512
G1 X140.873 Y36.224 E12.74428
G1 X141.488 Y36.213 E12.77496
G1 X158.736 Y36.212 E13.63547
G1 X159.44 Y36.222 E13.6706
G1 X159.893 Y36.269 E13.69332
G1 X160.331 Y36.393 E13.71603
G1 X160.741 Y36.593 E13.73879
G1 X161.241 Y36.984 E13.77045
G1 X161.646 Y37.445 E13.80107
G1 X161.873 Y37.84 E13.8238
G1 X162.028 Y38.268 E13.84651
G1 X162.113 Y38.839 E13.87531
G1 X162.125 Y39.414 E13.904
G1 X162.125 Y43.482 E14.10696
G1 X162.123 Y43.622 E14.11394
G1 X162.118 Y45.976 E14.23138
G1 X162.125 Y46.68 E14.26651
G1 X162.125 Y56.966 E14.77968
G1 X162.164 Y59.755 E14.91883
G1 X162.283 Y62.539 E15.05786
G1 X162.475 Y65.25 E15.19345
G1 X162.746 Y67.988 E15.33071
G1 X163.099 Y70.746 E15.46943
G1 X163.523 Y73.445 E15.60574
G1 X164.026 Y76.147 E15.74286
G1 X164.606 Y78.845 E15.88054
G1 X165.261 Y81.515 E16.01769
G1 X165.998 Y84.197 E16.15646
G1 X166.796 Y86.803 E16.29243
G1 X167.689 Y89.45 E16.4318
G1 X168.629 Y91.998 E16.5673
G1 X169.669 Y94.589 E16.70659
G1 X170.757 Y97.089 E16.84261
G1 X171.936 Y99.603 E16.98115
G1 X173.166 Y102.047 E17.11765
G1 X174.668 Y104.814 E17.27472
G1 X175.275 Y105.892 E17.33644
G1 X175.482 Y106.364 E17.36216
G1 X175.704 Y107.048 E17.39803
G1 X175.857 Y107.543 E17.42388
G1 X176.003 Y108.19 E17.45697
G1 X176.018 Y108.484 E17.47166
G1 X176.01 Y109.621 E17.52839
G1 X175.998 Y110.103 E17.55244
G1 X175.97 Y110.749 E17.5847
G1 X175.889 Y111.417 E17.61827
G1 X175.732 Y112.391 E17.66749
G1 X175.6 Y113.127 E17.7048
G1 X175.481 Y113.567 E17.72754
G1 X175.23 Y114.073 E17.75572
G1 X174.925 Y114.549 E17.78392
G1 X173.456 Y116.904 E17.9224
G1 X172.17 Y119.101 E18.0494
G1 X171.012 Y121.135 E18.16617
G1 X170.167 Y122.562 E18.24891
G1 X169.828 Y123.115 E18.28127
G1 X169.656 Y123.362 E18.29629
G1 X169.036 Y124.15 E18.34631
G1 X168.015 Y125.401 E18.42687
G1 X167.595 Y125.902 E18.45949
G1 X167.385 Y126.125 E18.47477
G1 X166.653 Y126.814 E18.52492
G1 X165.451 Y127.907 E18.60598
G1 X164.98 Y128.326 E18.63743
G1 X164.732 Y128.521 E18.65317
G1 X163.917 Y129.084 E18.70258
G1 X162.559 Y129.992 E18.78408
G1 X162.021 Y130.341 E18.81608
G1 X161.758 Y130.491 E18.83118
G1 X160.862 Y130.933 E18.88103
G1 X159.438 Y131.603 E18.95954
G1 X158.79 Y131.898 E18.99506
G1 X158.504 Y132.009 E19.01037
G1 X157.613 Y132.293 E19.05703
G1 X155.971 Y132.786 E19.14256
G1 X155.391 Y132.952 E19.17266
G1 X155.09 Y133.019 E19.18804
G1 X154.15 Y133.17 E19.23554
G1 X152.486 Y133.411 E19.31942
G1 X151.86 Y133.492 E19.35091
G1 X151.558 Y133.513 E19.36602
G1 X150.539 Y133.525 E19.41686
G1 X148.977 Y133.514 E19.49479
G1 X148.276 Y133.5 E19.52977
G1 X147.975 Y133.477 E19.54483
G1 X147.016 Y133.345 E19.59313
G1 X145.397 Y133.093 E19.67487
G1 X144.741 Y132.982 E19.70806
G1 X144.439 Y132.912 E19.72353
G1 X143.545 Y132.648 E19.77004
G1 X141.93 Y132.142 E19.85447
G1 X141.34 Y131.949 E19.88544
G1 X141.053 Y131.836 E19.90083
G1 X140.117 Y131.401 E19.95232
G1 X138.677 Y130.701 E20.0322
G1 X138.101 Y130.412 E20.06435
G1 X137.833 Y130.257 E20.0798
G1 X137.033 Y129.728 E20.12765
G1 X135.667 Y128.791 E20.21029
G1 X135.134 Y128.414 E20.24286
G1 X134.898 Y128.225 E20.25795
G1 X134.167 Y127.569 E20.30695
G1 X132.978 Y126.461 E20.38803
G1 X132.499 Y126.002 E20.42113
G1 X132.293 Y125.78 E20.43624
G1 X131.668 Y125.022 E20.48525
G1 X130.626 Y123.714 E20.56869
G1 X130.254 Y123.233 E20.59902
G1 X130.082 Y122.981 E20.61424
G1 X129.564 Y122.118 E20.66446
G1 X128.83 Y120.847 E20.73768
G1 X127.426 Y118.491 E20.87451
G1 X125.934 Y116.144 E21.01326
G1 X124.62 Y114.19 E21.13074
G1 X124.223 Y113.545 E21.16853
G1 X124.07 Y113.115 E21.1913
G1 X123.992 Y112.625 E21.21605
G1 X123.928 Y111.582 E21.26818
G1 X123.899 Y110.933 E21.3006
G1 X123.867 Y109.826 E21.35585
G1 X123.867 Y108.408 E21.42659
G1 X123.877 Y107.724 E21.46072
G1 X123.924 Y107.271 E21.48344
G1 X124.049 Y106.833 E21.50617
G1 X124.226 Y106.46 E21.52676
G1 X124.71 Y105.625 E21.57491
G1 X125.22 Y104.767 E21.62471
G1 X126.574 Y102.337 E21.76349
G1 X127.837 Y99.917 E21.89968
G1 X129.035 Y97.448 E22.0366
G1 X130.184 Y94.903 E22.17591
G1 X131.243 Y92.369 E22.31292
G1 X132.23 Y89.806 E22.44995
G1 X133.142 Y87.214 E22.58703
G1 X133.997 Y84.55 E22.72662
G1 X134.749 Y81.956 E22.86136
G1 X135.447 Y79.268 E22.99991
G1 X136.068 Y76.571 E23.13799
G1 X136.61 Y73.869 E23.27548
G1 X137.068 Y71.176 E23.41176
G1 X137.453 Y68.464 E23.54842
G1 X137.765 Y65.704 E23.68699
G1 X137.999 Y62.954 E23.82469
G1 X138.153 Y60.205 E23.96205
G1 X138.239 Y56.119 E24.16595
G1 X138.239 Y46.962 E24.62279
G1 X138.246 Y44.834 E24.72896
G1 X138.239 Y43.893 E24.77591
G1 X138.239 Y39.579 E24.99113
G1 X138.249 Y38.897 E25.02516
G1 X138.289 Y38.519 E25.04413
G0 F1350 X138.296 Y38.444
G0 X138.421 Y38.005
G0 F3600 X138.819 Y38.086
G1 F1500 X139.017 Y37.717 E25.06502
G1 X139.405 Y37.267 E25.09466
G1 X139.729 Y37.001 E25.11558
G1 X140.096 Y36.8 E25.13645
G1 X140.496 Y36.673 E25.15739
G1 X141.035 Y36.619 E25.18441
G1 X141.52 Y36.613 E25.20861
G1 X158.73 Y36.612 E26.06722
G1 X159.434 Y36.622 E26.10235
G1 X159.851 Y36.668 E26.12328
G1 X160.251 Y36.792 E26.14417
G1 X160.621 Y36.99 E26.16511
G1 X161.071 Y37.378 E26.19475
G1 X161.337 Y37.702 E26.21567
G1 X161.538 Y38.069 E26.23654
G1 X161.665 Y38.469 E26.25748
G1 X161.719 Y38.991 E26.28366
G1 X161.725 Y39.419 E26.30502
G1 X161.725 Y43.476 E26.50742
G1 X161.723 Y43.616 E26.51441
G1 X161.718 Y45.976 E26.63215
G1 X161.725 Y46.684 E26.66747
G1 X161.725 Y57.003 E27.18229
G1 X161.765 Y59.778 E27.32075
G1 X161.882 Y62.549 E27.45912
G1 X162.076 Y65.285 E27.59596
G1 X162.35 Y68.043 E27.73424
G1 X162.701 Y70.788 E27.8723
G1 X163.129 Y73.509 E28.00972
G1 X163.635 Y76.233 E28.14795
G1 X164.213 Y78.919 E28.28502
G1 X164.881 Y81.644 E28.42499
G1 X165.602 Y84.267 E28.56071
G1 X166.421 Y86.943 E28.70033
G1 X167.311 Y89.58 E28.83918
G1 X168.251 Y92.13 E28.97477
G1 X169.302 Y94.748 E29.11551
G1 X170.392 Y97.253 E29.25181
G1 X171.575 Y99.774 E29.39074
G1 X172.809 Y102.226 E29.52769
G1 X174.336 Y105.041 E29.68746
G1 X174.926 Y106.089 E29.74746
G1 X175.101 Y106.488 E29.7692
G1 X175.322 Y107.167 E29.80482
G1 X175.473 Y107.654 E29.83026
G1 X175.609 Y108.266 E29.86154
G1 X175.618 Y108.481 E29.87227
G1 X175.61 Y109.611 E29.92865
G1 X175.598 Y110.085 E29.95231
G1 X175.57 Y110.731 E29.98457
G1 X175.493 Y111.359 E30.01613
G1 X175.331 Y112.363 E30.06687
G1 X175.207 Y113.057 E30.10204
G1 X175.094 Y113.461 E30.12297
G1 X174.893 Y113.857 E30.14513
G1 X174.603 Y114.31 E30.17196
G1 X173.115 Y116.696 E30.31225
G1 X171.808 Y118.927 E30.44125
G1 X170.668 Y120.931 E30.55628
G1 X169.826 Y122.353 E30.63872
G1 X169.487 Y122.906 E30.67108
G1 X169.341 Y123.115 E30.6838
G1 X168.726 Y123.897 E30.73344
G1 X167.709 Y125.144 E30.81372
G1 X167.289 Y125.645 E30.84633
G1 X167.111 Y125.834 E30.85929
G1 X166.384 Y126.518 E30.90909
G1 X165.185 Y127.608 E30.98993
G1 X164.714 Y128.027 E31.02138
G1 X164.504 Y128.192 E31.0347
G1 X163.695 Y128.752 E31.08379
G1 X162.341 Y129.657 E31.16504
G1 X161.803 Y130.006 E31.19703
G1 X161.581 Y130.132 E31.20977
G1 X160.691 Y130.571 E31.25928
G1 X159.273 Y131.239 E31.33748
G1 X158.625 Y131.534 E31.373
G1 X158.383 Y131.628 E31.38595
G1 X157.498 Y131.91 E31.4323
G1 X155.861 Y132.401 E31.51756
G1 X155.281 Y132.567 E31.54766
G1 X155.027 Y132.624 E31.56065
G1 X154.093 Y132.774 E31.60784
G1 X152.434 Y133.014 E31.69147
G1 X151.808 Y133.095 E31.72296
G1 X151.553 Y133.113 E31.73571
G1 X150.542 Y133.125 E31.78616
G1 X148.985 Y133.115 E31.86384
G1 X148.284 Y133.101 E31.89882
G1 X148.029 Y133.081 E31.91158
G1 X147.077 Y132.95 E31.95952
G1 X145.464 Y132.698 E32.04097
G1 X144.808 Y132.587 E32.07416
G1 X144.552 Y132.528 E32.08727
G1 X143.664 Y132.266 E32.13346
G1 X142.054 Y131.762 E32.21763
G1 X141.464 Y131.569 E32.2486
G1 X141.222 Y131.473 E32.26159
G1 X140.292 Y131.042 E32.31273
G1 X138.856 Y130.343 E32.3924
G1 X138.28 Y130.054 E32.42456
G1 X138.054 Y129.923 E32.43759
G1 X137.259 Y129.398 E32.48512
G1 X135.898 Y128.464 E32.56747
G1 X135.365 Y128.087 E32.60004
G1 X135.165 Y127.928 E32.61279
G1 X134.44 Y127.276 E32.66143
G1 X133.255 Y126.172 E32.74224
G1 X132.776 Y125.713 E32.77533
G1 X132.601 Y125.526 E32.78811
G1 X131.981 Y124.773 E32.83677
G1 X130.943 Y123.469 E32.91993
G1 X130.571 Y122.988 E32.95026
G1 X130.425 Y122.775 E32.96315
G1 X129.911 Y121.918 E33.013
G1 X129.192 Y120.674 E33.08469
G1 X127.754 Y118.262 E33.22478
G1 X126.26 Y115.911 E33.36376
G1 X124.934 Y113.94 E33.48227
G1 X124.573 Y113.347 E33.51691
G1 X124.441 Y112.949 E33.53783
G1 X124.391 Y112.6 E33.55542
G1 X124.327 Y111.564 E33.6072
G1 X124.299 Y110.921 E33.63931
G1 X124.267 Y109.826 E33.69396
G1 X124.267 Y108.414 E33.76441
G1 X124.277 Y107.73 E33.79854
G1 X124.323 Y107.313 E33.81947
G1 X124.447 Y106.913 E33.84036
G1 X124.573 Y106.66 E33.85446
G1 X125.054 Y105.829 E33.90236
G1 X125.563 Y104.972 E33.95209
G1 X126.92 Y102.538 E34.09112
G1 X128.2 Y100.084 E34.22921
G1 X129.409 Y97.594 E34.3673
G1 X130.541 Y95.085 E34.50463
G1 X131.609 Y92.53 E34.64279
G1 X132.62 Y89.904 E34.78317
G1 X133.514 Y87.364 E34.91751
G1 X134.372 Y84.691 E35.05757
G1 X135.148 Y82.016 E35.19653
G1 X135.833 Y79.378 E35.3325
G1 X136.455 Y76.673 E35.47098
G1 X137.003 Y73.943 E35.6099
G1 X137.464 Y71.227 E35.74734
G1 X137.853 Y68.494 E35.88506
G1 X138.164 Y65.746 E36.02303
G1 X138.396 Y63.012 E36.15992
G1 X138.552 Y60.236 E36.29864
G1 X138.639 Y56.073 E36.50638
G1 X138.639 Y46.964 E36.96083
G1 X138.646 Y44.836 E37.06699
G1 X138.639 Y43.89 E37.11419
G1 X138.639 Y39.585 E37.32897
G1 X138.649 Y38.903 E37.363
G1 X138.683 Y38.599 E37.37826
G0 F1350 X138.695 Y38.486
G0 X138.819 Y38.086
G0 F3600 X141.039 Y39.013
;TYPE:SUPPORT
G1 F1500 X159.325 Y39.012 E38.29055
G1 X159.325 Y43.879 E38.53336
G1 X141.039 Y43.88 E39.44566
G1 X141.039 Y39.545 E39.66193
G0 F1350 X141.039 Y39.013
G0 F3600 X141.351 Y39.092
G1 F1500 X141.351 Y43.8 E39.89681
G0 F3600 X141.119 Y42.672
G1 F1500 X159.245 Y42.672 E40.80112
G0 F3600 X157.353 Y43.8
G1 F1500 X157.353 Y39.092 E41.03601
G0 F3600 X159.245 Y40.005
G1 F1500 X141.119 Y40.005 E41.94032
G0 F3600 X144.018 Y39.092
G1 F1500 X144.018 Y43.8 E42.1752
G0 F3600 X146.685 Y43.8
G1 F1500 X146.685 Y39.092 E42.41008
G0 F3600 X149.352 Y39.092
G1 F1500 X149.352 Y43.8 E42.64497
G0 F3600 X152.019 Y43.8
G1 F1500 X152.019 Y39.092 E42.87985
G0 F3600 X154.686 Y39.092
G1 F1500 X154.686 Y43.8 E43.11473
G1 F3000 E38.11473
