;FLAVOR:Marlin
;TIME:5107
;Filament used: 0m, 6.1682m
;Layer height: 0.3
;MINX:53.557
;MINY:20.088
;MINZ:0.3
;MAXX:138.203
;MAXY:104.736
;MAXZ:5.7
;Generated with Cura_SteamEngine 4.12.1
T1
M82 ;absolute extrusion mode
G21 ;metric values
G28 ;home all
G90 ;absolute positioning
M107 ;start with the fan off
G1 F2400 Z15.0 ;raise the nozzle 15mm
M109 S220 ;Set Extruder Temperature and Wait
M190 S60; Wait for bed temperature to reach target temp
T0 ;Switch to Extruder 1
G1 F3000 X5 Y10 Z0.2 ;move to prime start position
G92 E0 ;reset extrusion distance
G1 F600 X160 E5 ;prime nozzle in a line
G1 F5000 X180 ;quick wipe
G92 E0 ;reset extrusion distance
G92 E0

T1 ;switch to extruder 2
G92 E0 ;reset extruder distance
G1 F2000 E93 ;load filament
G92 E0 ;reset extruder distance
M104 S220
G92 E0
G1 F3000 E-5
;LAYER_COUNT:19
;LAYER:0
M107
G0 F3600 X60.029 Y38.831 Z0.3
;TYPE:SKIRT
G1 F3000 E0
G1 F1500 X60.243 Y38.509 E0.01929
G1 X62.617 Y35.303 E0.21831
G1 X62.863 Y35.004 E0.23763
G1 X65.557 Y32.049 E0.43713
G1 X65.833 Y31.776 E0.4565
G1 X68.804 Y29.121 E0.65528
G1 X69.107 Y28.876 E0.67472
G1 X72.34 Y26.535 E0.87386
G1 X72.662 Y26.326 E0.89301
G1 X76.108 Y24.327 E1.09177
G1 X76.455 Y24.149 E1.11122
G1 X80.099 Y22.508 E1.31061
G1 X80.462 Y22.367 E1.33004
G1 X84.257 Y21.107 E1.52953
G1 X84.626 Y21.004 E1.54865
G1 X88.362 Y20.17 E1.73962
G1 X88.907 Y20.09 E1.7671
G1 X89.458 Y20.088 E1.79459
G1 X90.004 Y20.167 E1.82212
G1 X90.532 Y20.324 E1.8496
G1 X91.032 Y20.555 E1.87708
G1 X91.576 Y20.921 E1.90979
G1 X91.726 Y21.042 E1.9194
G1 X92.128 Y21.418 E1.94687
G1 X92.473 Y21.849 E1.97441
G1 X92.751 Y22.325 E2.00191
G1 X92.917 Y22.736 E2.02402
G1 X95.921 Y22.612 E2.17402
G1 X96.438 Y22.62 E2.19982
G1 X99.243 Y22.767 E2.33995
G1 X99.357 Y22.466 E2.35601
G1 X99.625 Y21.985 E2.38348
G1 X99.959 Y21.547 E2.41096
G1 X100.426 Y21.104 E2.44307
G1 X100.577 Y20.983 E2.45273
G1 X101.031 Y20.67 E2.48024
G1 X101.525 Y20.427 E2.50771
G1 X102.049 Y20.257 E2.53519
G1 X102.592 Y20.165 E2.56267
G1 X103.143 Y20.153 E2.59016
G1 X103.817 Y20.248 E2.62412
G1 X107.559 Y21.122 E2.81583
G1 X107.93 Y21.228 E2.83508
G1 X111.697 Y22.523 E3.03382
G1 X112.057 Y22.668 E3.05318
G1 X115.692 Y24.349 E3.25298
G1 X116.036 Y24.53 E3.27238
G1 X119.462 Y26.562 E3.4711
G1 X119.784 Y26.776 E3.49039
G1 X122.99 Y29.149 E3.68939
G1 X123.29 Y29.395 E3.70874
G1 X126.245 Y32.09 E3.90827
G1 X126.517 Y32.365 E3.92757
G1 X129.172 Y35.335 E4.12632
G1 X129.417 Y35.639 E4.1458
G1 X131.758 Y38.872 E4.34494
G1 X131.967 Y39.194 E4.36409
G1 X133.965 Y42.638 E4.56273
G1 X134.143 Y42.984 E4.58214
G1 X135.784 Y46.627 E4.78148
G1 X135.925 Y46.991 E4.80096
G1 X137.186 Y50.789 E5.00061
G1 X137.289 Y51.159 E5.01977
G1 X138.122 Y54.895 E5.21074
G1 X138.203 Y55.44 E5.23823
G1 X138.203 Y55.991 E5.26572
G1 X138.125 Y56.536 E5.29318
G1 X137.968 Y57.065 E5.32071
G1 X137.736 Y57.565 E5.34821
G1 X137.371 Y58.108 E5.38086
G1 X137.25 Y58.258 E5.39047
G1 X136.874 Y58.66 E5.41793
G1 X136.443 Y59.005 E5.44547
G1 X135.967 Y59.283 E5.47298
G1 X135.556 Y59.449 E5.49509
G1 X135.681 Y62.452 E5.64504
G1 X135.679 Y62.81 E5.6629
G1 X135.523 Y65.773 E5.81093
G1 X135.827 Y65.889 E5.82716
G1 X136.308 Y66.157 E5.85463
G1 X136.746 Y66.491 E5.88211
G1 X137.189 Y66.958 E5.91423
G1 X137.31 Y67.109 E5.92388
G1 X137.623 Y67.563 E5.95139
G1 X137.866 Y68.057 E5.97886
G1 X138.036 Y68.581 E6.00634
G1 X138.128 Y69.124 E6.03382
G1 X138.14 Y69.675 E6.06132
G1 X138.045 Y70.349 E6.09527
G1 X137.171 Y74.092 E6.28704
G1 X137.065 Y74.462 E6.30624
G1 X135.773 Y78.224 E6.50469
G1 X135.628 Y78.586 E6.52414
G1 X133.944 Y82.225 E6.72419
G1 X133.763 Y82.568 E6.74354
G1 X131.731 Y85.993 E6.94222
G1 X131.517 Y86.315 E6.96151
G1 X129.143 Y89.522 E7.16058
G1 X128.897 Y89.821 E7.17989
G1 X126.203 Y92.776 E7.37939
G1 X125.928 Y93.049 E7.39872
G1 X122.958 Y95.704 E7.59747
G1 X122.654 Y95.948 E7.61692
G1 X119.421 Y98.29 E7.81609
G1 X119.097 Y98.501 E7.83538
G1 X115.644 Y100.501 E8.03446
G1 X115.3 Y100.678 E8.05376
G1 X111.662 Y102.317 E8.25283
G1 X111.299 Y102.458 E8.27226
G1 X107.504 Y103.719 E8.47177
G1 X107.133 Y103.822 E8.49098
G1 X103.398 Y104.655 E8.6819
G1 X102.853 Y104.736 E8.70938
G1 X102.302 Y104.736 E8.73687
G1 X101.757 Y104.658 E8.76434
G1 X101.229 Y104.501 E8.79182
G1 X100.729 Y104.269 E8.81932
G1 X100.185 Y103.904 E8.85201
G1 X100.035 Y103.783 E8.86162
G1 X99.633 Y103.407 E8.88908
G1 X99.288 Y102.976 E8.91663
G1 X99.01 Y102.5 E8.94413
G1 X98.844 Y102.089 E8.96624
G1 X95.842 Y102.214 E9.11614
G1 X95.483 Y102.212 E9.13405
G1 X92.52 Y102.055 E9.28208
G1 X92.404 Y102.359 E9.29832
G1 X92.136 Y102.84 E9.32579
G1 X91.802 Y103.278 E9.35327
G1 X91.335 Y103.721 E9.38538
G1 X91.184 Y103.842 E9.39504
G1 X90.73 Y104.155 E9.42255
G1 X90.236 Y104.398 E9.45001
G1 X89.712 Y104.568 E9.4775
G1 X89.169 Y104.66 E9.50497
G1 X88.618 Y104.672 E9.53247
G1 X87.945 Y104.578 E9.56637
G1 X84.203 Y103.705 E9.75807
G1 X83.831 Y103.598 E9.77739
G1 X80.063 Y102.303 E9.97616
G1 X79.703 Y102.158 E9.99553
G1 X76.069 Y100.477 E10.19529
G1 X75.725 Y100.296 E10.21468
G1 X72.299 Y98.263 E10.41343
G1 X71.977 Y98.049 E10.43272
G1 X68.771 Y95.676 E10.63172
G1 X68.472 Y95.43 E10.65103
G1 X65.516 Y92.735 E10.8506
G1 X65.242 Y92.459 E10.87
G1 X62.588 Y89.488 E11.06875
G1 X62.345 Y89.186 E11.08809
G1 X60.003 Y85.954 E11.28722
G1 X59.792 Y85.629 E11.30655
G1 X57.791 Y82.175 E11.5057
G1 X57.614 Y81.831 E11.525
G1 X55.976 Y78.195 E11.72396
G1 X55.835 Y77.832 E11.74339
G1 X54.574 Y74.037 E11.9429
G1 X54.471 Y73.666 E11.96211
G1 X53.638 Y69.93 E12.15308
G1 X53.557 Y69.385 E12.18057
G1 X53.557 Y68.834 E12.20806
G1 X53.635 Y68.289 E12.23552
G1 X53.792 Y67.76 E12.26305
G1 X54.024 Y67.26 E12.29055
G1 X54.389 Y66.717 E12.32319
G1 X54.51 Y66.567 E12.33281
G1 X54.886 Y66.165 E12.36027
G1 X55.317 Y65.82 E12.38781
G1 X55.793 Y65.542 E12.41532
G1 X56.204 Y65.376 E12.43743
G1 X56.079 Y62.374 E12.58733
G1 X56.081 Y62.016 E12.60519
G1 X56.237 Y59.052 E12.75327
G1 X55.933 Y58.936 E12.7695
G1 X55.452 Y58.668 E12.79697
G1 X55.014 Y58.334 E12.82445
G1 X54.571 Y57.867 E12.85657
G1 X54.45 Y57.716 E12.86622
G1 X54.137 Y57.262 E12.89373
G1 X53.894 Y56.768 E12.9212
G1 X53.724 Y56.244 E12.94868
G1 X53.632 Y55.701 E12.97616
G1 X53.62 Y55.15 E13.00366
G1 X53.715 Y54.476 E13.03761
G1 X54.589 Y50.734 E13.22933
G1 X54.695 Y50.363 E13.24858
G1 X55.988 Y46.6 E13.44709
G1 X56.133 Y46.24 E13.46645
G1 X57.816 Y42.601 E13.66648
G1 X57.997 Y42.257 E13.68587
G1 X59.758 Y39.288 E13.85809
G0 F1350 X60.029 Y38.831
G0 F3600 X60.373 Y39.036
G1 F1500 X60.565 Y38.747 E13.8754
G1 X62.939 Y35.541 E14.07443
G1 X63.158 Y35.273 E14.09169
G1 X65.852 Y32.318 E14.29119
G1 X66.099 Y32.074 E14.30851
G1 X69.07 Y29.419 E14.5073
G1 X69.342 Y29.2 E14.52472
G1 X72.575 Y26.859 E14.72386
G1 X72.863 Y26.672 E14.74099
G1 X76.309 Y24.673 E14.93974
G1 X76.619 Y24.514 E14.95713
G1 X80.263 Y22.873 E15.15651
G1 X80.588 Y22.746 E15.17392
G1 X84.383 Y21.486 E15.37341
G1 X84.713 Y21.395 E15.39049
G1 X88.449 Y20.561 E15.58147
G1 X88.965 Y20.486 E15.60748
G1 X89.486 Y20.492 E15.63348
G1 X90 Y20.577 E15.65947
G1 X90.495 Y20.74 E15.68547
G1 X90.96 Y20.976 E15.71149
G1 X91.475 Y21.354 E15.74336
G1 X91.854 Y21.711 E15.76933
G1 X92.174 Y22.122 E15.79532
G1 X92.428 Y22.577 E15.82132
G1 X92.609 Y23.066 E15.84733
G1 X92.626 Y23.149 E15.85156
G1 X95.937 Y23.012 E16.01689
G1 X96.417 Y23.02 E16.04084
G1 X99.528 Y23.183 E16.19626
G1 X99.561 Y23.042 E16.20348
G1 X99.756 Y22.559 E16.22947
G1 X100.022 Y22.111 E16.25546
G1 X100.354 Y21.709 E16.28147
G1 X100.827 Y21.295 E16.31283
G1 X101.257 Y21.001 E16.33882
G1 X101.728 Y20.776 E16.36486
G1 X102.227 Y20.626 E16.39086
G1 X102.743 Y20.554 E16.41685
G1 X103.264 Y20.562 E16.44285
G1 X103.726 Y20.637 E16.4662
G1 X107.468 Y21.511 E16.65791
G1 X107.8 Y21.607 E16.67516
G1 X111.567 Y22.902 E16.87389
G1 X111.889 Y23.031 E16.89119
G1 X115.524 Y24.712 E17.091
G1 X115.831 Y24.874 E17.10831
G1 X119.257 Y26.906 E17.30704
G1 X119.546 Y27.097 E17.32432
G1 X122.752 Y29.47 E17.52332
G1 X123.02 Y29.691 E17.54065
G1 X125.975 Y32.386 E17.74018
G1 X126.219 Y32.632 E17.75747
G1 X128.874 Y35.602 E17.95621
G1 X129.093 Y35.874 E17.97364
G1 X131.434 Y39.107 E18.17278
G1 X131.621 Y39.395 E18.18991
G1 X133.619 Y42.839 E18.38855
G1 X133.778 Y43.149 E18.40593
G1 X135.419 Y46.792 E18.60527
G1 X135.546 Y47.117 E18.62268
G1 X136.807 Y50.915 E18.82233
G1 X136.899 Y51.246 E18.83947
G1 X137.732 Y54.982 E19.03044
G1 X137.806 Y55.498 E19.05645
G1 X137.8 Y56.019 E19.08244
G1 X137.715 Y56.533 E19.10843
G1 X137.552 Y57.028 E19.13443
G1 X137.316 Y57.493 E19.16045
G1 X136.938 Y58.007 E19.19228
G1 X136.581 Y58.386 E19.21826
G1 X136.17 Y58.706 E19.24424
G1 X135.715 Y58.96 E19.27024
G1 X135.226 Y59.141 E19.29625
G1 X135.143 Y59.158 E19.30048
G1 X135.281 Y62.468 E19.46576
G1 X135.279 Y62.789 E19.48178
G1 X135.107 Y66.059 E19.64514
G1 X135.251 Y66.093 E19.65252
G1 X135.734 Y66.288 E19.67851
G1 X136.182 Y66.554 E19.7045
G1 X136.584 Y66.886 E19.73052
G1 X136.998 Y67.359 E19.76188
G1 X137.292 Y67.789 E19.78786
G1 X137.517 Y68.26 E19.81391
G1 X137.667 Y68.759 E19.8399
G1 X137.739 Y69.275 E19.86589
G1 X137.731 Y69.796 E19.89189
G1 X137.656 Y70.258 E19.91524
G1 X136.782 Y74.001 E20.107
G1 X136.687 Y74.332 E20.12418
G1 X135.395 Y78.094 E20.32263
G1 X135.265 Y78.418 E20.34005
G1 X133.581 Y82.057 E20.5401
G1 X133.419 Y82.364 E20.55741
G1 X131.387 Y85.789 E20.7561
G1 X131.196 Y86.077 E20.77334
G1 X128.822 Y89.284 E20.9724
G1 X128.602 Y89.552 E20.9897
G1 X125.908 Y92.507 E21.1892
G1 X125.661 Y92.751 E21.20652
G1 X122.691 Y95.406 E21.40527
G1 X122.42 Y95.624 E21.42262
G1 X119.187 Y97.966 E21.62179
G1 X118.896 Y98.155 E21.6391
G1 X115.443 Y100.155 E21.83818
G1 X115.136 Y100.313 E21.85541
G1 X111.498 Y101.952 E22.05448
G1 X111.173 Y102.079 E22.07189
G1 X107.378 Y103.34 E22.2714
G1 X107.046 Y103.431 E22.28857
G1 X103.311 Y104.264 E22.47949
G1 X102.795 Y104.339 E22.5055
G1 X102.274 Y104.333 E22.5315
G1 X101.76 Y104.248 E22.55749
G1 X101.265 Y104.085 E22.58349
G1 X100.8 Y103.849 E22.60951
G1 X100.286 Y103.471 E22.64134
G1 X99.907 Y103.114 E22.66731
G1 X99.587 Y102.703 E22.6933
G1 X99.333 Y102.248 E22.7193
G1 X99.152 Y101.759 E22.74531
G1 X99.135 Y101.676 E22.74954
G1 X95.826 Y101.814 E22.91477
G1 X95.504 Y101.812 E22.93083
G1 X92.234 Y101.639 E23.0942
G1 X92.2 Y101.783 E23.10158
G1 X92.005 Y102.266 E23.12757
G1 X91.739 Y102.714 E23.15357
G1 X91.407 Y103.116 E23.17958
G1 X90.934 Y103.53 E23.21094
G1 X90.504 Y103.824 E23.23692
G1 X90.033 Y104.049 E23.26297
G1 X89.534 Y104.199 E23.28896
G1 X89.018 Y104.271 E23.31496
G1 X88.497 Y104.263 E23.34095
G1 X88.036 Y104.188 E23.36425
G1 X84.294 Y103.315 E23.55596
G1 X83.961 Y103.219 E23.57325
G1 X80.193 Y101.924 E23.77202
G1 X79.871 Y101.795 E23.78933
G1 X76.237 Y100.114 E23.98909
G1 X75.929 Y99.952 E24.00645
G1 X72.503 Y97.919 E24.2052
G1 X72.215 Y97.728 E24.22244
G1 X69.009 Y95.355 E24.42144
G1 X68.741 Y95.135 E24.43874
G1 X65.785 Y92.44 E24.6383
G1 X65.54 Y92.192 E24.6557
G1 X62.886 Y89.221 E24.85445
G1 X62.669 Y88.951 E24.87173
G1 X60.327 Y85.719 E25.07086
G1 X60.138 Y85.428 E25.08817
G1 X58.137 Y81.974 E25.28732
G1 X57.979 Y81.667 E25.30455
G1 X56.341 Y78.031 E25.5035
G1 X56.214 Y77.706 E25.52091
G1 X54.953 Y73.911 E25.72042
G1 X54.861 Y73.579 E25.73761
G1 X54.028 Y69.843 E25.92858
G1 X53.954 Y69.327 E25.95459
G1 X53.96 Y68.806 E25.98058
G1 X54.045 Y68.292 E26.00657
G1 X54.208 Y67.797 E26.03257
G1 X54.444 Y67.332 E26.05859
G1 X54.822 Y66.818 E26.09042
G1 X55.179 Y66.439 E26.1164
G1 X55.59 Y66.119 E26.14238
G1 X56.045 Y65.865 E26.16838
G1 X56.534 Y65.684 E26.19439
G1 X56.617 Y65.667 E26.19862
G1 X56.479 Y62.358 E26.36385
G1 X56.481 Y62.037 E26.37987
G1 X56.653 Y58.766 E26.54328
G1 X56.509 Y58.732 E26.55066
G1 X56.026 Y58.537 E26.57665
G1 X55.578 Y58.271 E26.60264
G1 X55.176 Y57.939 E26.62866
G1 X54.762 Y57.466 E26.66002
G1 X54.468 Y57.036 E26.686
G1 X54.243 Y56.565 E26.71205
G1 X54.093 Y56.066 E26.73804
G1 X54.021 Y55.55 E26.76403
G1 X54.029 Y55.029 E26.79003
G1 X54.104 Y54.567 E26.81338
G1 X54.978 Y50.825 E27.00509
G1 X55.074 Y50.493 E27.02234
G1 X56.367 Y46.73 E27.22085
G1 X56.496 Y46.408 E27.23815
G1 X58.179 Y42.769 E27.43818
G1 X58.341 Y42.462 E27.4555
G1 X60.102 Y39.493 E27.62772
G0 F1350 X60.373 Y39.036
G0 F3600 X60.717 Y39.24
G1 F1500 X60.886 Y38.985 E27.64298
G1 X63.26 Y35.779 E27.84201
G1 X63.454 Y35.543 E27.85725
G1 X66.148 Y32.588 E28.05674
G1 X66.366 Y32.372 E28.07205
G1 X69.337 Y29.717 E28.27084
G1 X69.577 Y29.524 E28.2862
G1 X72.81 Y27.183 E28.48534
G1 X73.064 Y27.018 E28.50045
G1 X76.51 Y25.019 E28.69921
G1 X76.783 Y24.879 E28.71452
G1 X80.427 Y23.238 E28.9139
G1 X80.714 Y23.126 E28.92927
G1 X84.509 Y21.866 E29.12877
G1 X84.8 Y21.785 E29.14384
G1 X88.536 Y20.951 E29.33481
G1 X89.021 Y20.884 E29.35924
G1 X89.511 Y20.896 E29.38369
G1 X89.991 Y20.988 E29.40808
G1 X90.451 Y21.157 E29.43253
G1 X91.074 Y21.544 E29.46912
G1 X91.578 Y22.002 E29.50309
G1 X91.873 Y22.393 E29.52753
G1 X92.101 Y22.826 E29.55194
G1 X92.255 Y23.291 E29.57638
G1 X92.289 Y23.577 E29.59075
G1 X92.571 Y23.552 E29.60487
G1 X95.954 Y23.412 E29.7738
G1 X96.396 Y23.419 E29.79585
G1 X99.53 Y23.583 E29.95242
G1 X99.839 Y23.612 E29.9679
G1 X99.961 Y23.106 E29.99387
G1 X100.155 Y22.657 E30.01827
G1 X100.42 Y22.245 E30.04271
G1 X100.926 Y21.728 E30.07881
G1 X101.483 Y21.333 E30.11287
G1 X101.928 Y21.129 E30.1373
G1 X102.4 Y20.999 E30.16172
G1 X102.886 Y20.949 E30.1861
G1 X103.635 Y21.027 E30.22366
G1 X107.377 Y21.901 E30.41538
G1 X107.67 Y21.985 E30.43059
G1 X111.437 Y23.28 E30.62932
G1 X111.721 Y23.394 E30.64458
G1 X115.356 Y25.075 E30.84439
G1 X115.627 Y25.218 E30.85968
G1 X119.053 Y27.25 E31.0584
G1 X119.308 Y27.419 E31.07366
G1 X122.514 Y29.792 E31.27266
G1 X122.751 Y29.986 E31.28794
G1 X125.706 Y32.681 E31.48747
G1 X125.921 Y32.899 E31.50275
G1 X128.576 Y35.869 E31.70149
G1 X128.769 Y36.109 E31.71686
G1 X131.11 Y39.342 E31.916
G1 X131.275 Y39.596 E31.93111
G1 X133.273 Y43.04 E32.12975
G1 X133.413 Y43.313 E32.14506
G1 X135.054 Y46.956 E32.3444
G1 X135.166 Y47.243 E32.35977
G1 X136.427 Y51.041 E32.55942
G1 X136.508 Y51.333 E32.57454
G1 X137.341 Y55.069 E32.76551
G1 X137.408 Y55.554 E32.78993
G1 X137.396 Y56.043 E32.81434
G1 X137.304 Y56.524 E32.83877
G1 X137.135 Y56.984 E32.86322
G1 X136.748 Y57.606 E32.89977
G1 X136.29 Y58.11 E32.93374
G1 X135.899 Y58.405 E32.95818
G1 X135.466 Y58.633 E32.98259
G1 X135.001 Y58.787 E33.00703
G1 X134.716 Y58.821 E33.02135
G1 X134.74 Y59.1 E33.03532
G1 X134.881 Y62.485 E33.20435
G1 X134.88 Y62.768 E33.21846
G1 X134.702 Y66.149 E33.38738
G1 X134.68 Y66.371 E33.39851
G1 X135.187 Y66.493 E33.42452
G1 X135.636 Y66.687 E33.44893
G1 X136.048 Y66.952 E33.47337
G1 X136.565 Y67.458 E33.50946
G1 X136.96 Y68.015 E33.54352
G1 X137.164 Y68.46 E33.56795
G1 X137.294 Y68.932 E33.59237
G1 X137.344 Y69.418 E33.61675
G1 X137.266 Y70.167 E33.65432
G1 X136.392 Y73.91 E33.84608
G1 X136.308 Y74.202 E33.86124
G1 X135.016 Y77.964 E34.05968
G1 X134.902 Y78.25 E34.07504
G1 X133.218 Y81.889 E34.27509
G1 X133.075 Y82.16 E34.29038
G1 X131.043 Y85.585 E34.48906
G1 X130.874 Y85.839 E34.50428
G1 X128.5 Y89.046 E34.70335
G1 X128.306 Y89.282 E34.71859
G1 X125.612 Y92.237 E34.91809
G1 X125.394 Y92.453 E34.9334
G1 X122.424 Y95.108 E35.13215
G1 X122.185 Y95.301 E35.14747
G1 X118.952 Y97.643 E35.34664
G1 X118.696 Y97.809 E35.36186
G1 X115.243 Y99.809 E35.56094
G1 X114.971 Y99.948 E35.57618
G1 X111.333 Y101.587 E35.77525
G1 X111.047 Y101.699 E35.79058
G1 X107.252 Y102.96 E35.99009
G1 X106.959 Y103.041 E36.00526
G1 X103.224 Y103.874 E36.19617
G1 X102.739 Y103.941 E36.2206
G1 X102.25 Y103.929 E36.245
G1 X101.769 Y103.837 E36.26944
G1 X101.31 Y103.668 E36.29384
G1 X100.687 Y103.281 E36.33043
G1 X100.183 Y102.823 E36.3644
G1 X99.888 Y102.432 E36.38884
G1 X99.66 Y101.999 E36.41325
G1 X99.506 Y101.534 E36.43769
G1 X99.472 Y101.248 E36.45206
G1 X99.191 Y101.273 E36.46614
G1 X95.809 Y101.414 E36.63501
G1 X95.525 Y101.413 E36.64918
G1 X92.143 Y101.234 E36.81815
G1 X91.922 Y101.212 E36.82923
G1 X91.8 Y101.719 E36.85524
G1 X91.606 Y102.168 E36.87964
G1 X91.341 Y102.58 E36.90408
G1 X90.835 Y103.097 E36.94017
G1 X90.278 Y103.492 E36.97424
G1 X89.833 Y103.696 E36.99866
