;FLAVOR:Marlin
;TIME:5754
;Filament used: 0m, 6.3782m
;Layer height: 0.3
;MINX:129.469
;MINY:32.868
;MINZ:0.3
;MAXX:170.531
;MAXY:73.987
;MAXZ:53.4
;Generated with Cura_SteamEngine 4.12.1
T1
M82 ;absolute extrusion mode
G21 ;metric values
G28 ;home all
G90 ;absolute positioning
M107 ;start with the fan off
G1 F2400 Z15.0 ;raise the nozzle 15mm
M109 S220 ;Set Extruder Temperature and Wait
M190 S60; Wait for bed temperature to reach target temp
T0 ;Switch to Extruder 1
G1 F3000 X5 Y10 Z0.2 ;move to prime start position
G92 E0 ;reset extrusion distance
G1 F600 X160 E5 ;prime nozzle in a line
G1 F5000 X180 ;quick wipe
G92 E0 ;reset extrusion distance
G92 E0

T1 ;switch to extruder 2
G92 E0 ;reset extruder distance
G1 F2000 E93 ;load filament
G92 E0 ;reset extruder distance
M104 S220
G92 E0
G1 F3000 E-5
;LAYER_COUNT:178
;LAYER:0
M107
G0 F3600 X130.517 Y46.878 Z0.3
;TYPE:SKIRT
G1 F3000 E0
G1 F1500 X131.283 Y44.917 E0.10503
G1 X131.552 Y44.365 E0.13567
G1 X131.834 Y43.888 E0.16331
G1 X132.014 Y43.522 E0.18366
G1 X132.534 Y42.589 E0.23695
G1 X132.781 Y42.202 E0.25986
G1 X134.046 Y40.465 E0.36706
G1 X134.343 Y40.106 E0.39031
G1 X135.746 Y38.606 E0.49278
G1 X136.102 Y38.272 E0.51713
G1 X137.765 Y36.899 E0.62472
G1 X138.154 Y36.616 E0.64872
G1 X139.862 Y35.537 E0.74951
G1 X140.266 Y35.316 E0.77249
G1 X142.198 Y34.401 E0.87914
G1 X142.654 Y34.22 E0.90361
G1 X144.7 Y33.558 E1.0109
G1 X145.163 Y33.439 E1.03475
G1 X147.149 Y33.063 E1.13559
G1 X147.617 Y33.005 E1.15912
G1 X149.791 Y32.868 E1.26779
G1 X150.367 Y32.871 E1.29653
G1 X152.393 Y33 E1.39781
G1 X152.854 Y33.059 E1.421
G1 X154.706 Y33.415 E1.51509
G1 X155.412 Y33.592 E1.5514
G1 X157.149 Y34.159 E1.64256
G1 X157.882 Y34.444 E1.6818
G1 X159.678 Y35.285 E1.78074
G1 X160.109 Y35.521 E1.80525
G1 X161.867 Y36.641 E1.90925
G1 X162.251 Y36.921 E1.93296
G1 X163.944 Y38.325 E2.04269
G1 X164.277 Y38.637 E2.06545
G1 X165.499 Y39.927 E2.1541
G1 X166.021 Y40.541 E2.19431
G1 X167.17 Y42.132 E2.29222
G1 X167.406 Y42.503 E2.31416
G1 X168.489 Y44.441 E2.42492
G1 X168.704 Y44.893 E2.44989
G1 X169.504 Y46.908 E2.55805
G1 X169.654 Y47.37 E2.58228
G1 X170.076 Y49.026 E2.66754
G1 X170.247 Y49.843 E2.70919
G1 X170.443 Y51.296 E2.78233
G1 X170.461 Y51.453 E2.79022
G1 X170.515 Y52.035 E2.81938
G1 X170.531 Y52.388 E2.83701
G1 X170.53 Y54.404 E2.93759
G1 X170.502 Y54.865 E2.96063
G1 X170.234 Y57.046 E3.07026
G1 X170.142 Y57.531 E3.09488
G1 X169.607 Y59.608 E3.20189
G1 X169.465 Y60.046 E3.22486
G1 X168.726 Y61.933 E3.32597
G1 X168.501 Y62.409 E3.35223
G1 X167.514 Y64.165 E3.45273
G1 X167.302 Y64.499 E3.47247
G1 X166.027 Y66.3 E3.58256
G1 X165.689 Y66.713 E3.60918
G1 X164.199 Y68.291 E3.71746
G1 X163.801 Y68.656 E3.7444
G1 X162.426 Y69.749 E3.83203
G1 X162.184 Y69.958 E3.84798
G1 X161.742 Y70.286 E3.87544
G1 X160.082 Y71.341 E3.97357
G1 X159.658 Y71.574 E3.99771
G1 X157.816 Y72.438 E4.09921
G1 X157.242 Y72.66 E4.12992
G1 X155.352 Y73.27 E4.229
G1 X154.904 Y73.385 E4.25208
G1 X152.753 Y73.798 E4.36135
G1 X152.274 Y73.859 E4.38544
G1 X150.334 Y73.981 E4.48242
G1 X149.749 Y73.987 E4.51161
G1 X149.446 Y73.977 E4.52673
G1 X147.995 Y73.891 E4.59925
G1 X147.431 Y73.83 E4.62755
G1 X147.172 Y73.789 E4.64063
G1 X145.248 Y73.416 E4.73841
G1 X144.602 Y73.253 E4.77165
G1 X142.703 Y72.636 E4.87127
G1 X142.145 Y72.413 E4.90124
G1 X142.05 Y72.371 E4.90643
G1 X140.403 Y71.608 E4.99699
G1 X139.8 Y71.274 E5.03138
G1 X138.116 Y70.191 E5.13127
G1 X137.758 Y69.931 E5.15334
G1 X136.107 Y68.574 E5.25996
G1 X135.746 Y68.235 E5.28467
G1 X134.302 Y66.693 E5.39006
G1 X133.997 Y66.324 E5.41395
G1 X132.769 Y64.627 E5.51845
G1 X132.522 Y64.237 E5.54148
G1 X131.497 Y62.382 E5.64722
G1 X131.292 Y61.947 E5.67121
G1 X130.528 Y60.024 E5.77444
G1 X130.377 Y59.56 E5.79879
G1 X129.878 Y57.604 E5.8995
G1 X129.789 Y57.137 E5.92322
G1 X129.498 Y54.813 E6.04007
G1 X129.469 Y54.341 E6.06366
G1 X129.469 Y52.465 E6.15725
G1 X129.489 Y52.078 E6.17659
G1 X129.562 Y51.372 E6.212
G1 X129.765 Y49.77 E6.29256
G1 X129.86 Y49.282 E6.31736
G1 X130.359 Y47.385 E6.41522
G0 F1350 X130.382 Y47.295
G0 X130.517 Y46.878
G0 F3600 X130.89 Y47.024
G1 F1500 X131.656 Y45.063 E6.52026
G1 X131.897 Y44.569 E6.54768
G1 X132.188 Y44.077 E6.5762
G1 X132.363 Y43.717 E6.59617
G1 X132.883 Y42.784 E6.64946
G1 X133.105 Y42.437 E6.67001
G1 X134.37 Y40.7 E6.77721
G1 X134.635 Y40.379 E6.79798
G1 X136.038 Y38.879 E6.90045
G1 X136.356 Y38.58 E6.92223
G1 X138.019 Y37.207 E7.02982
G1 X138.368 Y36.955 E7.05129
G1 X140.076 Y35.876 E7.15208
G1 X140.437 Y35.677 E7.17265
G1 X142.369 Y34.762 E7.2793
G1 X142.777 Y34.6 E7.3012
G1 X144.823 Y33.938 E7.40849
G1 X145.238 Y33.832 E7.42986
G1 X147.224 Y33.456 E7.5307
G1 X147.642 Y33.404 E7.55171
G1 X149.816 Y33.267 E7.66039
G1 X150.342 Y33.27 E7.68663
G1 X152.366 Y33.399 E7.78782
G1 X152.779 Y33.452 E7.80859
G1 X154.631 Y33.808 E7.90268
G1 X155.288 Y33.972 E7.93646
G1 X157.025 Y34.539 E8.02762
G1 X157.713 Y34.806 E8.06444
G1 X159.509 Y35.647 E8.16338
G1 X159.894 Y35.858 E8.18528
G1 X161.652 Y36.978 E8.28928
G1 X161.995 Y37.229 E8.31048
G1 X163.688 Y38.633 E8.42021
G1 X163.986 Y38.912 E8.44058
G1 X165.208 Y40.202 E8.52923
G1 X165.696 Y40.775 E8.56678
G1 X166.845 Y42.366 E8.66469
G1 X167.057 Y42.698 E8.68434
G1 X168.14 Y44.636 E8.7951
G1 X168.332 Y45.04 E8.81741
G1 X169.132 Y47.055 E8.92558
G1 X169.266 Y47.469 E8.94729
G1 X169.686 Y49.116 E9.03209
G1 X169.85 Y49.896 E9.07185
G1 X170.046 Y51.349 E9.145
G1 X170.062 Y51.49 E9.15208
G1 X170.116 Y52.072 E9.18124
G1 X170.131 Y52.388 E9.19702
G1 X170.13 Y54.404 E9.2976
G1 X170.105 Y54.817 E9.31824
G1 X169.837 Y56.998 E9.42787
G1 X169.755 Y57.431 E9.44986
G1 X169.22 Y59.508 E9.55686
G1 X169.093 Y59.9 E9.57742
G1 X168.354 Y61.787 E9.67852
G1 X168.152 Y62.213 E9.70205
G1 X167.165 Y63.969 E9.80254
G1 X166.976 Y64.268 E9.82019
G1 X165.701 Y66.069 E9.93028
G1 X165.398 Y66.438 E9.9541
G1 X163.908 Y68.016 E10.06238
G1 X163.552 Y68.343 E10.08649
G1 X162.172 Y69.44 E10.17445
G1 X161.528 Y69.949 E10.2154
G1 X159.868 Y71.004 E10.31353
G1 X159.488 Y71.212 E10.33514
G1 X157.646 Y72.076 E10.43664
G1 X157.11 Y72.282 E10.46529
G1 X155.23 Y72.889 E10.56385
G1 X154.828 Y72.992 E10.58456
G1 X152.677 Y73.405 E10.69383
G1 X152.249 Y73.459 E10.71535
G1 X150.309 Y73.581 E10.81233
G1 X149.758 Y73.587 E10.83982
G1 X149.47 Y73.578 E10.8542
G1 X148.019 Y73.492 E10.92672
G1 X147.48 Y73.433 E10.95377
G1 X147.248 Y73.396 E10.96549
G1 X145.324 Y73.023 E11.06326
G1 X144.725 Y72.873 E11.09407
G1 X142.826 Y72.256 E11.19369
G1 X142.303 Y72.046 E11.2218
G1 X140.571 Y71.245 E11.31701
G1 X140.016 Y70.938 E11.34865
G1 X138.332 Y69.855 E11.44854
G1 X138.012 Y69.622 E11.46829
G1 X136.361 Y68.265 E11.57491
G1 X136.038 Y67.962 E11.597
G1 X134.594 Y66.42 E11.7024
G1 X134.322 Y66.089 E11.72377
G1 X133.094 Y64.392 E11.82828
G1 X132.872 Y64.043 E11.84892
G1 X131.847 Y62.188 E11.95465
G1 X131.663 Y61.799 E11.97612
G1 X130.899 Y59.876 E12.07935
G1 X130.765 Y59.461 E12.10111
G1 X130.266 Y57.505 E12.20182
G1 X130.186 Y57.087 E12.22305
G1 X129.895 Y54.763 E12.3399
G1 X129.869 Y54.341 E12.361
G1 X129.869 Y52.465 E12.45459
G1 X129.887 Y52.119 E12.47188
G1 X129.959 Y51.423 E12.50679
G1 X130.162 Y49.821 E12.58735
G1 X130.247 Y49.384 E12.60956
G1 X130.734 Y47.532 E12.7051
G0 F1350 X130.769 Y47.397
G0 X130.89 Y47.024
G0 F3600 X131.263 Y47.169
G1 F1500 X132.029 Y45.208 E12.81013
G1 X132.241 Y44.773 E12.83427
G1 X132.543 Y44.263 E12.86384
G1 X132.713 Y43.911 E12.88335
G1 X133.233 Y42.978 E12.93663
G1 X133.428 Y42.673 E12.9547
G1 X134.693 Y40.936 E13.0619
G1 X134.927 Y40.653 E13.08022
G1 X136.33 Y39.153 E13.18269
G1 X136.611 Y38.889 E13.20192
G1 X138.274 Y37.516 E13.30951
G1 X138.582 Y37.293 E13.32849
G1 X140.29 Y36.214 E13.42928
G1 X140.608 Y36.039 E13.44739
G1 X142.54 Y35.124 E13.55404
G1 X142.9 Y34.981 E13.57336
G1 X144.946 Y34.319 E13.68065
G1 X145.312 Y34.225 E13.6995
G1 X147.298 Y33.849 E13.80034
G1 X147.667 Y33.803 E13.8189
G1 X149.841 Y33.666 E13.92757
G1 X150.317 Y33.669 E13.95132
G1 X152.339 Y33.798 E14.0524
G1 X152.703 Y33.845 E14.07071
G1 X154.555 Y34.201 E14.1648
G1 X155.164 Y34.352 E14.1961
G1 X156.901 Y34.919 E14.28726
G1 X157.543 Y35.168 E14.32162
G1 X159.339 Y36.009 E14.42056
G1 X159.679 Y36.196 E14.43992
G1 X161.437 Y37.316 E14.54391
G1 X161.74 Y37.537 E14.56262
G1 X163.433 Y38.941 E14.67235
G1 X163.696 Y39.187 E14.69032
G1 X164.987 Y40.552 E14.78405
G1 X165.372 Y41.01 E14.8139
G1 X166.521 Y42.601 E14.91181
G1 X166.708 Y42.894 E14.92915
G1 X167.791 Y44.832 E15.03991
G1 X167.96 Y45.188 E15.05957
G1 X168.76 Y47.203 E15.16774
G1 X168.879 Y47.568 E15.18689
G1 X169.296 Y49.205 E15.27117
G1 X169.454 Y49.95 E15.30916
G1 X169.65 Y51.403 E15.38231
G1 X169.664 Y51.527 E15.38854
G1 X169.718 Y52.109 E15.4177
G1 X169.731 Y52.387 E15.43158
G1 X169.73 Y54.403 E15.53216
G1 X169.708 Y54.768 E15.5504
G1 X169.44 Y56.949 E15.66003
G1 X169.367 Y57.331 E15.67943
G1 X168.832 Y59.408 E15.78644
G1 X168.72 Y59.754 E15.80458
G1 X167.981 Y61.641 E15.90569
G1 X167.803 Y62.017 E15.92644
G1 X166.816 Y63.773 E16.02694
G1 X166.65 Y64.036 E16.04246
G1 X165.375 Y65.837 E16.15255
G1 X165.107 Y66.164 E16.17364
G1 X163.617 Y67.742 E16.28192
G1 X163.303 Y68.03 E16.30317
G1 X161.918 Y69.131 E16.39144
G1 X161.313 Y69.611 E16.42997
G1 X159.653 Y70.666 E16.5281
G1 X159.318 Y70.85 E16.54717
G1 X157.476 Y71.714 E16.64867
G1 X156.979 Y71.904 E16.67522
G1 X155.107 Y72.508 E16.77335
G1 X154.753 Y72.599 E16.79159
G1 X152.602 Y73.012 E16.90086
G1 X152.224 Y73.06 E16.91987
G1 X150.284 Y73.182 E17.01685
G1 X149.768 Y73.187 E17.0426
G1 X149.494 Y73.179 E17.05627
G1 X148.043 Y73.093 E17.12879
G1 X147.529 Y73.036 E17.15459
G1 X147.324 Y73.003 E17.16495
G1 X145.4 Y72.63 E17.26273
G1 X144.849 Y72.492 E17.29106
G1 X142.95 Y71.875 E17.39068
G1 X142.461 Y71.679 E17.41696
G1 X140.739 Y70.882 E17.51163
G1 X140.232 Y70.601 E17.54055
G1 X138.548 Y69.518 E17.64044
G1 X138.266 Y69.313 E17.65783
G1 X136.615 Y67.956 E17.76445
G1 X136.33 Y67.689 E17.78394
G1 X134.886 Y66.147 E17.88933
G1 X134.646 Y65.855 E17.90819
G1 X133.418 Y64.158 E18.0127
G1 X133.222 Y63.85 E18.03091
G1 X132.197 Y61.995 E18.13665
G1 X132.035 Y61.652 E18.15557
G1 X131.271 Y59.729 E18.2588
G1 X131.152 Y59.363 E18.278
G1 X130.653 Y57.407 E18.37871
G1 X130.583 Y57.038 E18.39745
G1 X130.292 Y54.714 E18.5143
G1 X130.269 Y54.341 E18.53295
G1 X130.269 Y52.465 E18.62654
G1 X130.285 Y52.159 E18.64183
G1 X130.356 Y51.473 E18.67624
G1 X130.559 Y49.871 E18.7568
G1 X130.633 Y49.486 E18.77636
G1 X131.108 Y47.677 E18.86967
G0 F1350 X131.155 Y47.499
G0 X131.263 Y47.169
G0 F3600 X131.635 Y47.315
G1 F1500 X132.401 Y45.354 E18.9747
G1 X132.585 Y44.976 E18.99568
G1 X132.901 Y44.442 E19.02663
G1 X133.062 Y44.106 E19.04522
G1 X133.582 Y43.173 E19.09851
G1 X133.751 Y42.908 E19.11419
G1 X135.016 Y41.171 E19.2214
G1 X135.219 Y40.926 E19.23727
G1 X136.622 Y39.426 E19.33974
G1 X136.866 Y39.197 E19.35643
G1 X138.529 Y37.824 E19.46402
G1 X138.795 Y37.631 E19.48042
G1 X140.503 Y36.552 E19.58121
G1 X140.779 Y36.4 E19.59693
G1 X142.711 Y35.485 E19.70358
G1 X143.024 Y35.361 E19.72038
G1 X145.07 Y34.699 E19.82766
G1 X145.386 Y34.618 E19.84394
G1 X147.372 Y34.242 E19.94478
G1 X147.692 Y34.202 E19.96087
G1 X149.866 Y34.065 E20.06955
G1 X150.291 Y34.068 E20.09075
G1 X152.312 Y34.197 E20.19178
G1 X152.628 Y34.238 E20.20768
G1 X154.48 Y34.594 E20.30177
G1 X155.04 Y34.732 E20.33054
G1 X156.777 Y35.299 E20.4217
G1 X157.374 Y35.53 E20.45364
G1 X159.17 Y36.371 E20.55258
G1 X159.464 Y36.533 E20.56933
G1 X161.222 Y37.653 E20.67332
G1 X161.485 Y37.845 E20.68957
G1 X163.178 Y39.249 E20.7993
G1 X163.406 Y39.462 E20.81486
G1 X164.628 Y40.752 E20.90351
G1 X165.048 Y41.244 E20.93579
G1 X166.197 Y42.835 E21.0337
G1 X166.359 Y43.089 E21.04873
G1 X167.442 Y45.027 E21.15949
G1 X167.589 Y45.336 E21.17656
G1 X168.389 Y47.351 E21.28472
G1 X168.491 Y47.667 E21.30129
G1 X168.906 Y49.294 E21.38506
G1 X169.058 Y50.003 E21.42123
G1 X169.254 Y51.456 E21.49438
G1 X169.266 Y51.564 E21.4998
G1 X169.32 Y52.146 E21.52896
G1 X169.331 Y52.387 E21.541
G1 X169.33 Y54.403 E21.64158
G1 X169.311 Y54.719 E21.65737
G1 X169.043 Y56.9 E21.767
G1 X168.98 Y57.232 E21.78386
G1 X168.445 Y59.309 E21.89086
G1 X168.348 Y59.608 E21.90655
G1 X167.609 Y61.495 E22.00765
G1 X167.455 Y61.821 E22.02564
G1 X166.468 Y63.577 E22.12614
G1 X166.323 Y63.805 E22.13962
G1 X165.048 Y65.606 E22.2497
G1 X164.816 Y65.889 E22.26796
G1 X163.326 Y67.467 E22.37624
G1 X163.054 Y67.717 E22.39467
G1 X161.664 Y68.822 E22.48326
G1 X161.099 Y69.273 E22.51933
G1 X159.439 Y70.328 E22.61746
G1 X159.148 Y70.488 E22.63402
G1 X157.306 Y71.352 E22.73553
G1 X156.787 Y71.547 E22.76319
G1 X154.984 Y72.128 E22.8577
G1 X154.677 Y72.206 E22.8735
G1 X152.526 Y72.619 E22.98277
G1 X152.199 Y72.661 E22.99922
G1 X150.259 Y72.783 E23.0962
G1 X149.609 Y72.783 E23.12863
G1 X148.066 Y72.693 E23.20574
G1 X147.4 Y72.61 E23.23922
G1 X145.374 Y72.216 E23.34219
G1 X144.973 Y72.112 E23.36286
G1 X143.074 Y71.495 E23.46248
G1 X142.554 Y71.282 E23.49051
G1 X140.907 Y70.519 E23.58107
G1 X140.449 Y70.265 E23.6072
G1 X138.765 Y69.182 E23.70709
G1 X138.52 Y69.004 E23.7222
G1 X136.869 Y67.647 E23.82882
G1 X136.622 Y67.415 E23.84572
G1 X135.178 Y65.873 E23.95112
G1 X134.97 Y65.62 E23.96746
G1 X133.742 Y63.923 E24.07197
G1 X133.572 Y63.656 E24.08776
G1 X132.547 Y61.801 E24.19349
G1 X132.407 Y61.504 E24.20987
G1 X131.643 Y59.581 E24.31311
G1 X131.54 Y59.264 E24.32974
G1 X131.041 Y57.308 E24.43045
G1 X130.98 Y56.988 E24.4467
G1 X130.689 Y54.664 E24.56355
G1 X130.669 Y54.341 E24.57969
G1 X130.669 Y52.465 E24.67329
G1 X130.683 Y52.2 E24.68653
G1 X130.753 Y51.523 E24.72048
G1 X130.956 Y49.921 E24.80105
G1 X131.02 Y49.587 E24.81801
G1 X131.483 Y47.825 E24.9089
G0 F1350 X131.542 Y47.6
G0 X131.635 Y47.315
G0 F3600 X132.008 Y47.461
G1 F1500 X132.774 Y45.5 E25.01394
G1 X132.929 Y45.18 E25.03168
G1 X133.258 Y44.624 E25.06391
G1 X133.411 Y44.301 E25.08174
G1 X133.931 Y43.368 E25.13503
G1 X134.075 Y43.144 E25.14831
G1 X135.34 Y41.407 E25.25552
G1 X135.511 Y41.199 E25.26895
G1 X136.914 Y39.699 E25.37142
G1 X137.12 Y39.505 E25.38554
G1 X138.783 Y38.132 E25.49313
G1 X139.009 Y37.969 E25.50703
G1 X140.717 Y36.89 E25.60782
G1 X140.95 Y36.762 E25.62109
G1 X142.882 Y35.847 E25.72774
G1 X143.147 Y35.742 E25.74196
G1 X145.193 Y35.08 E25.84924
G1 X145.461 Y35.011 E25.86305
G1 X147.447 Y34.635 E25.96389
G1 X147.718 Y34.601 E25.97752
G1 X149.892 Y34.464 E26.08619
G1 X150.266 Y34.467 E26.10485
G1 X152.285 Y34.596 E26.20579
G1 X152.552 Y34.631 E26.21922
G1 X154.404 Y34.987 E26.31331
G1 X154.916 Y35.113 E26.33962
G1 X156.653 Y35.68 E26.43078
G1 X157.204 Y35.893 E26.46025
G1 X159 Y36.734 E26.55919
G1 X159.249 Y36.871 E26.57337
G1 X161.007 Y37.991 E26.67736
G1 X161.229 Y38.153 E26.69107
G1 X162.922 Y39.557 E26.8008
G1 X163.115 Y39.737 E26.81397
G1 X164.388 Y41.082 E26.90636
G1 X164.724 Y41.478 E26.93227
G1 X165.873 Y43.069 E27.03018
G1 X166.009 Y43.284 E27.04287
G1 X167.092 Y45.222 E27.15363
G1 X167.217 Y45.483 E27.16807
G1 X168.017 Y47.498 E27.27623
G1 X168.104 Y47.766 E27.29029
G1 X168.516 Y49.384 E27.37359
G1 X168.661 Y50.057 E27.40793
G1 X168.868 Y51.601 E27.48565
G1 X168.922 Y52.183 E27.51481
G1 X168.931 Y52.387 E27.525
G1 X168.93 Y54.403 E27.62558
G1 X168.914 Y54.67 E27.63893
G1 X168.646 Y56.851 E27.74855
G1 X168.592 Y57.132 E27.76283
G1 X168.057 Y59.209 E27.86983
G1 X167.976 Y59.462 E27.88309
G1 X167.237 Y61.349 E27.98419
G1 X167.106 Y61.625 E27.99943
G1 X166.119 Y63.381 E28.09993
G1 X165.997 Y63.574 E28.11132
G1 X164.722 Y65.375 E28.22141
G1 X164.526 Y65.614 E28.23683
G1 X163.036 Y67.192 E28.34511
G1 X162.805 Y67.404 E28.36075
G1 X161.41 Y68.513 E28.44966
G1 X160.884 Y68.936 E28.48334
G1 X159.224 Y69.991 E28.58147
G1 X158.978 Y70.126 E28.59547
G1 X157.136 Y70.99 E28.69697
G1 X156.665 Y71.166 E28.72206
G1 X154.862 Y71.747 E28.81656
G1 X154.602 Y71.814 E28.82996
G1 X152.451 Y72.227 E28.93923
G1 X152.174 Y72.262 E28.95316
G1 X150.234 Y72.384 E29.05014
G1 X149.619 Y72.383 E29.08082
G1 X149.541 Y72.38 E29.08472
G1 X148.09 Y72.294 E29.15723
G1 X147.476 Y72.218 E29.1881
G1 X145.552 Y71.845 E29.28588
G1 X145.096 Y71.731 E29.30933
G1 X143.197 Y71.114 E29.40894
G1 X142.722 Y70.919 E29.43456
