;FLAVOR:Marlin
;TIME:4612
;Filament used: 0m, 5.01138m
;Layer height: 0.3
;MINX:45.041
;MINY:31.894
;MINZ:0.3
;MAXX:78.449
;MAXY:65.29
;MAXZ:53.1
;Generated with Cura_SteamEngine 4.12.1
T1
M82 ;absolute extrusion mode
G21 ;metric values
G28 ;home all
G90 ;absolute positioning
M107 ;start with the fan off
G1 F2400 Z15.0 ;raise the nozzle 15mm
M109 S220 ;Set Extruder Temperature and Wait
M190 S60; Wait for bed temperature to reach target temp
T0 ;Switch to Extruder 1
G1 F3000 X5 Y10 Z0.2 ;move to prime start position
G92 E0 ;reset extrusion distance
G1 F600 X160 E5 ;prime nozzle in a line
G1 F5000 X180 ;quick wipe
G92 E0 ;reset extrusion distance
G92 E0

T1 ;switch to extruder 2
G92 E0 ;reset extruder distance
G1 F2000 E93 ;load filament
G92 E0 ;reset extruder distance
M104 S220
G92 E0
G1 F3000 E-5
;LAYER_COUNT:177
;LAYER:0
M107
G0 F3600 X48.891 Y37.916 Z0.3
;TYPE:SKIRT
G1 F3000 E0
G1 F1500 X49.119 Y37.622 E0.01856
G1 X49.626 Y37.067 E0.05606
G1 X50.66 Y36.073 E0.12762
G1 X50.92 Y35.835 E0.14521
G1 X51.48 Y35.39 E0.18089
G1 X52.898 Y34.4 E0.26717
G1 X53.65 Y33.955 E0.31077
G1 X54.918 Y33.329 E0.38132
G1 X55.521 Y33.066 E0.41414
G1 X55.983 Y32.896 E0.4387
G1 X57.4 Y32.444 E0.5129
G1 X58.316 Y32.232 E0.55981
G1 X59.563 Y32.048 E0.6227
G1 X59.899 Y31.987 E0.63973
G1 X60.575 Y31.905 E0.67371
G1 X60.935 Y31.894 E0.69167
G1 X62.64 Y31.895 E0.77674
G1 X63.509 Y31.961 E0.82022
G1 X64.93 Y32.177 E0.89193
G1 X65.685 Y32.337 E0.93043
G1 X66.048 Y32.437 E0.94921
G1 X67.438 Y32.87 E1.02185
G1 X68.069 Y33.108 E1.05549
G1 X68.394 Y33.258 E1.07335
G1 X69.861 Y33.981 E1.15495
G1 X70.657 Y34.456 E1.20119
G1 X72.106 Y35.486 E1.28989
G1 X72.76 Y36.026 E1.3322
G1 X73.846 Y37.067 E1.40725
G1 X74.226 Y37.454 E1.43431
G1 X74.491 Y37.776 E1.45512
G1 X75.434 Y39.007 E1.53248
G1 X75.754 Y39.468 E1.56048
G1 X75.941 Y39.785 E1.57884
G1 X76.792 Y41.327 E1.66671
G1 X77.168 Y42.155 E1.71208
G1 X77.732 Y43.713 E1.79474
G1 X77.971 Y44.579 E1.83956
G1 X78.262 Y46.074 E1.91555
G1 X78.356 Y46.74 E1.9491
G1 X78.386 Y47.132 E1.96872
G1 X78.441 Y48.381 E2.03109
G1 X78.449 Y49.059 E2.06492
G1 X78.412 Y49.736 E2.09875
G1 X78.295 Y50.766 E2.15046
G1 X78.206 Y51.431 E2.18394
G1 X78.049 Y52.203 E2.22324
G1 X77.594 Y53.854 E2.30868
G1 X77.292 Y54.692 E2.35312
G1 X76.692 Y56.026 E2.42609
G1 X76.483 Y56.455 E2.4499
G1 X76.162 Y57.018 E2.48223
G1 X75.351 Y58.273 E2.55678
G1 X75.011 Y58.748 E2.58593
G1 X74.734 Y59.084 E2.60765
G1 X73.67 Y60.277 E2.6874
G1 X73.195 Y60.755 E2.72102
G1 X72.88 Y61.034 E2.74202
G1 X71.701 Y62.003 E2.81815
G1 X70.984 Y62.506 E2.86185
G1 X69.586 Y63.338 E2.94301
G1 X68.812 Y63.724 E2.98616
G1 X67.367 Y64.314 E3.06403
G1 X66.804 Y64.511 E3.09379
G1 X66.125 Y64.701 E3.12897
G1 X64.818 Y65.012 E3.19599
G1 X63.911 Y65.154 E3.2418
G1 X62.105 Y65.29 E3.33215
G1 X61.212 Y65.288 E3.3767
G1 X59.693 Y65.168 E3.45272
G1 X59.112 Y65.092 E3.48196
G1 X58.758 Y65.022 E3.49996
G1 X57.215 Y64.666 E3.57896
G1 X56.659 Y64.51 E3.60777
G1 X56.2 Y64.347 E3.63207
G1 X54.718 Y63.749 E3.7118
G1 X53.898 Y63.34 E3.75752
G1 X53.008 Y62.805 E3.80933
G1 X52.489 Y62.5 E3.83936
G1 X51.727 Y61.966 E3.88578
G1 X50.462 Y60.919 E3.96771
G1 X49.82 Y60.298 E4.01227
G1 X48.68 Y59.012 E4.09801
G1 X48.144 Y58.306 E4.14223
G1 X47.259 Y56.932 E4.22377
G1 X46.839 Y56.155 E4.26783
G1 X46.178 Y54.674 E4.34875
G1 X45.879 Y53.837 E4.39309
G1 X45.406 Y52.104 E4.48271
G1 X45.237 Y51.226 E4.52732
G1 X45.073 Y49.769 E4.60047
G1 X45.041 Y48.916 E4.64305
G1 X45.109 Y46.984 E4.7395
G1 X45.219 Y46.044 E4.78672
G1 X45.507 Y44.613 E4.85954
G1 X45.641 Y44.076 E4.88716
G1 X45.766 Y43.688 E4.90749
G1 X46.339 Y42.105 E4.99148
G1 X46.572 Y41.55 E5.02151
G1 X46.754 Y41.189 E5.04168
G1 X47.455 Y39.91 E5.11445
G1 X47.637 Y39.599 E5.13243
G1 X47.993 Y39.082 E5.16374
G1 X48.567 Y38.337 E5.21066
G0 F1350 X48.891 Y37.916
G0 F3600 X49.208 Y38.16
G1 F1500 X49.432 Y37.872 E5.22887
G1 X49.904 Y37.355 E5.26379
G1 X50.938 Y36.361 E5.33535
G1 X51.188 Y36.132 E5.35226
G1 X51.709 Y35.718 E5.38546
G1 X53.127 Y34.728 E5.47174
G1 X53.828 Y34.314 E5.51236
G1 X55.096 Y33.688 E5.58291
G1 X55.675 Y33.435 E5.61443
G1 X56.105 Y33.277 E5.63729
G1 X57.522 Y32.825 E5.71149
G1 X58.374 Y32.628 E5.75512
G1 X59.602 Y32.447 E5.81705
G1 X59.97 Y32.38 E5.83571
G1 X60.935 Y32.294 E5.88404
G1 X62.64 Y32.295 E5.96911
G1 X63.449 Y32.356 E6.00958
G1 X64.87 Y32.572 E6.08129
G1 X65.591 Y32.726 E6.11807
G1 X65.929 Y32.819 E6.13556
G1 X67.319 Y33.252 E6.2082
G1 X67.906 Y33.473 E6.23949
G1 X68.217 Y33.616 E6.25657
G1 X69.684 Y34.339 E6.33816
G1 X70.426 Y34.782 E6.38128
G1 X71.875 Y35.812 E6.46997
G1 X72.483 Y36.315 E6.50934
G1 X73.569 Y37.356 E6.58439
G1 X73.942 Y37.737 E6.61099
G1 X74.174 Y38.019 E6.62921
G1 X75.117 Y39.25 E6.70657
G1 X75.414 Y39.68 E6.73265
G1 X75.591 Y39.978 E6.74994
G1 X76.442 Y41.52 E6.83781
G1 X76.792 Y42.291 E6.88005
G1 X77.356 Y43.849 E6.96272
G1 X77.579 Y44.655 E7.00444
G1 X77.87 Y46.15 E7.08042
G1 X77.958 Y46.785 E7.11241
G1 X77.987 Y47.149 E7.13062
G1 X78.042 Y48.398 E7.193
G1 X78.049 Y49.061 E7.22608
G1 X78.015 Y49.691 E7.25755
G1 X77.898 Y50.713 E7.30887
G1 X77.809 Y51.378 E7.34235
G1 X77.663 Y52.097 E7.37895
G1 X77.208 Y53.748 E7.46439
G1 X76.927 Y54.528 E7.50575
G1 X76.327 Y55.862 E7.57873
G1 X76.125 Y56.276 E7.60171
G1 X75.826 Y56.801 E7.63185
G1 X75.015 Y58.056 E7.7064
G1 X74.693 Y58.505 E7.73396
G1 X74.435 Y58.817 E7.75416
G1 X73.371 Y60.01 E7.83391
G1 X72.919 Y60.465 E7.86591
G1 X72.626 Y60.725 E7.88546
G1 X71.447 Y61.694 E7.96159
G1 X70.78 Y62.162 E8.00224
G1 X69.382 Y62.994 E8.08341
G1 X68.661 Y63.353 E8.12359
G1 X67.216 Y63.943 E8.20146
G1 X66.692 Y64.127 E8.22917
G1 X66.032 Y64.312 E8.26336
G1 X64.725 Y64.623 E8.33039
G1 X63.88 Y64.755 E8.37306
G1 X62.074 Y64.891 E8.46342
G1 X61.244 Y64.889 E8.50483
G1 X59.725 Y64.769 E8.58084
G1 X59.184 Y64.699 E8.60806
G1 X58.848 Y64.632 E8.62515
G1 X57.305 Y64.276 E8.70416
G1 X56.777 Y64.128 E8.73151
G1 X56.349 Y63.976 E8.75417
G1 X54.867 Y63.378 E8.8339
G1 X54.104 Y62.997 E8.87645
G1 X53.193 Y62.449 E8.92949
G1 X52.692 Y62.155 E8.95847
G1 X51.982 Y61.658 E9.00171
G1 X50.717 Y60.611 E9.08363
G1 X50.119 Y60.033 E9.12513
G1 X48.979 Y58.747 E9.21086
G1 X48.48 Y58.089 E9.25206
G1 X47.595 Y56.715 E9.3336
G1 X47.204 Y55.992 E9.37461
G1 X46.543 Y54.511 E9.45552
G1 X46.265 Y53.732 E9.49679
G1 X45.792 Y51.999 E9.58641
G1 X45.635 Y51.181 E9.62796
G1 X45.471 Y49.724 E9.70111
G1 X45.44 Y48.93 E9.74076
G1 X45.508 Y46.998 E9.8372
G1 X45.611 Y46.123 E9.88116
G1 X45.899 Y44.692 E9.95398
G1 X46.026 Y44.186 E9.98001
G1 X46.142 Y43.824 E9.99898
G1 X46.715 Y42.241 E10.08297
G1 X46.936 Y41.717 E10.11134
G1 X47.105 Y41.382 E10.13006
G1 X47.806 Y40.103 E10.20282
G1 X47.979 Y39.808 E10.21989
G1 X48.31 Y39.326 E10.24906
G1 X48.884 Y38.581 E10.29598
G0 F1350 X49.208 Y38.16
G0 F3600 X49.525 Y38.404
G1 F1500 X49.744 Y38.122 E10.31379
G1 X50.181 Y37.643 E10.34614
G1 X51.215 Y36.649 E10.4177
G1 X51.455 Y36.43 E10.43391
G1 X51.938 Y36.046 E10.46469
G1 X53.356 Y35.056 E10.55097
G1 X54.005 Y34.673 E10.58857
G1 X55.273 Y34.047 E10.65912
G1 X55.828 Y33.805 E10.68932
G1 X56.227 Y33.658 E10.71054
G1 X57.644 Y33.206 E10.78474
G1 X58.432 Y33.024 E10.82509
G1 X59.67 Y32.841 E10.88753
G1 X60.041 Y32.774 E10.90633
G1 X60.935 Y32.694 E10.95111
G1 X62.64 Y32.695 E11.03618
G1 X63.388 Y32.752 E11.0736
G1 X64.809 Y32.968 E11.14531
G1 X65.497 Y33.115 E11.18041
G1 X65.81 Y33.201 E11.19661
G1 X67.2 Y33.634 E11.26924
G1 X67.744 Y33.839 E11.29824
G1 X68.04 Y33.975 E11.31449
G1 X69.507 Y34.698 E11.39609
G1 X70.194 Y35.108 E11.436
G1 X71.643 Y36.138 E11.5247
G1 X72.206 Y36.603 E11.56113
G1 X73.292 Y37.644 E11.63618
G1 X73.287 Y37.649 E11.63653
G1 X73.856 Y38.262 E11.67826
G1 X74.799 Y39.493 E11.75562
G1 X75.107 Y39.944 E11.78287
G1 X75.241 Y40.171 E11.79602
G1 X76.092 Y41.713 E11.88389
G1 X76.415 Y42.427 E11.92299
G1 X76.979 Y43.985 E12.00565
G1 X77.186 Y44.732 E12.04432
G1 X77.477 Y46.227 E12.12031
G1 X77.561 Y46.83 E12.15068
G1 X77.587 Y47.167 E12.16755
G1 X77.642 Y48.416 E12.22992
G1 X77.649 Y49.063 E12.2622
G1 X77.617 Y49.646 E12.29133
G1 X77.502 Y50.66 E12.34224
G1 X77.413 Y51.325 E12.37572
G1 X77.277 Y51.99 E12.40958
G1 X76.822 Y53.641 E12.49502
G1 X76.562 Y54.364 E12.53335
G1 X75.962 Y55.698 E12.60633
G1 X75.767 Y56.098 E12.62853
G1 X75.49 Y56.584 E12.65644
G1 X74.679 Y57.839 E12.73099
G1 X74.376 Y58.262 E12.75694
G1 X74.137 Y58.551 E12.77565
G1 X73.073 Y59.744 E12.85541
G1 X72.643 Y60.175 E12.88578
G1 X72.372 Y60.416 E12.90387
G1 X71.193 Y61.385 E12.98001
G1 X70.575 Y61.819 E13.01769
G1 X69.177 Y62.651 E13.09885
G1 X68.51 Y62.983 E13.13602
G1 X67.065 Y63.573 E13.21389
G1 X66.579 Y63.743 E13.23958
G1 X65.939 Y63.923 E13.27275
G1 X64.632 Y64.234 E13.33977
G1 X63.85 Y64.356 E13.37926
G1 X62.044 Y64.492 E13.46962
G1 X61.275 Y64.49 E13.50798
G1 X59.756 Y64.37 E13.584
G1 X59.256 Y64.305 E13.60916
G1 X58.938 Y64.242 E13.62533
G1 X57.395 Y63.886 E13.70433
G1 X56.895 Y63.746 E13.73024
G1 X56.499 Y63.605 E13.75121
G1 X55.017 Y63.007 E13.83094
G1 X54.311 Y62.655 E13.8703
G1 X53.4 Y62.107 E13.92334
G1 X52.894 Y61.81 E13.95261
G1 X52.237 Y61.35 E13.99262
G1 X50.972 Y60.303 E14.07454
G1 X50.418 Y59.768 E14.11297
G1 X49.278 Y58.482 E14.19871
G1 X48.816 Y57.872 E14.23688
G1 X47.931 Y56.498 E14.31842
G1 X47.569 Y55.829 E14.35637
G1 X46.908 Y54.348 E14.43728
G1 X46.65 Y53.627 E14.47549
G1 X46.177 Y51.894 E14.56511
G1 X46.032 Y51.136 E14.60361
G1 X45.868 Y49.679 E14.67676
G1 X45.84 Y48.944 E14.71346
G1 X45.908 Y47.012 E14.8099
G1 X46.003 Y46.201 E14.85064
G1 X46.291 Y44.77 E14.92347
G1 X46.519 Y43.96 E14.96545
G1 X47.092 Y42.377 E15.04944
G1 X47.299 Y41.885 E15.07607
G1 X47.455 Y41.574 E15.09343
G1 X48.156 Y40.295 E15.16619
G1 X48.32 Y40.016 E15.18234
G1 X48.627 Y39.57 E15.20935
G1 X49.201 Y38.825 E15.25627
G0 F1350 X49.525 Y38.404
G0 F3600 X49.842 Y38.648
G1 F1500 X50.056 Y38.372 E15.2737
G1 X50.458 Y37.932 E15.30343
G1 X51.492 Y36.938 E15.37499
G1 X51.723 Y36.727 E15.3906
G1 X52.167 Y36.374 E15.41889
G1 X53.585 Y35.384 E15.50517
G1 X54.182 Y35.031 E15.53978
G1 X55.45 Y34.405 E15.61033
G1 X55.981 Y34.174 E15.63922
G1 X56.348 Y34.04 E15.65871
G1 X57.765 Y33.588 E15.73291
G1 X58.491 Y33.419 E15.7701
G1 X59.77 Y33.23 E15.8346
G1 X60.113 Y33.168 E15.85199
G1 X60.935 Y33.094 E15.89317
G1 X62.64 Y33.095 E15.97823
G1 X63.328 Y33.147 E16.01265
G1 X64.749 Y33.363 E16.08436
G1 X65.403 Y33.504 E16.11774
G1 X65.691 Y33.583 E16.13264
G1 X67.081 Y34.016 E16.20527
G1 X67.581 Y34.204 E16.23192
G1 X67.864 Y34.334 E16.24746
G1 X69.331 Y35.057 E16.32906
G1 X69.962 Y35.434 E16.36573
G1 X71.411 Y36.464 E16.45442
G1 X71.929 Y36.892 E16.48794
G1 X73.015 Y37.933 E16.563
G1 X73.011 Y37.937 E16.56328
G1 X73.539 Y38.506 E16.60201
G1 X74.482 Y39.737 E16.67937
G1 X74.768 Y40.156 E16.70468
G1 X74.89 Y40.364 E16.71671
G1 X75.741 Y41.906 E16.80458
G1 X76.039 Y42.563 E16.84057
G1 X76.603 Y44.121 E16.92324
G1 X76.793 Y44.808 E16.9588
G1 X77.084 Y46.303 E17.03478
G1 X77.163 Y46.874 E17.06354
G1 X77.188 Y47.185 E17.07911
G1 X77.243 Y48.434 E17.14148
G1 X77.249 Y49.065 E17.17296
G1 X77.22 Y49.601 E17.19974
G1 X77.105 Y50.607 E17.25026
G1 X77.016 Y51.272 E17.28373
G1 X76.892 Y51.884 E17.31488
G1 X76.437 Y53.535 E17.40032
G1 X76.197 Y54.2 E17.4356
G1 X75.597 Y55.534 E17.50857
G1 X75.409 Y55.92 E17.52999
G1 X75.155 Y56.367 E17.55564
G1 X74.344 Y57.622 E17.63019
G1 X73.838 Y58.285 E17.6718
G1 X72.774 Y59.478 E17.75155
G1 X72.368 Y59.886 E17.78027
G1 X72.118 Y60.107 E17.79691
G1 X70.939 Y61.076 E17.87305
G1 X70.371 Y61.475 E17.90768
G1 X68.973 Y62.307 E17.98885
G1 X68.359 Y62.613 E18.02307
G1 X66.914 Y63.203 E18.10094
G1 X66.074 Y63.474 E18.14498
G1 X65.847 Y63.534 E18.15669
G1 X64.54 Y63.845 E18.22372
G1 X63.82 Y63.957 E18.26007
G1 X62.014 Y64.093 E18.35043
G1 X61.307 Y64.092 E18.3857
G1 X59.788 Y63.972 E18.46172
G1 X59.239 Y63.896 E18.48937
G1 X59.028 Y63.852 E18.50012
G1 X57.485 Y63.496 E18.57913
G1 X56.649 Y63.234 E18.62283
G1 X55.167 Y62.636 E18.70256
G1 X54.517 Y62.312 E18.7388
G1 X53.648 Y61.789 E18.7894
G1 X53.096 Y61.465 E18.82133
G1 X52.492 Y61.042 E18.85812
G1 X51.227 Y59.995 E18.94004
G1 X50.718 Y59.502 E18.9754
G1 X49.578 Y58.216 E19.06114
G1 X49.153 Y57.656 E19.09621
G1 X48.268 Y56.282 E19.17775
G1 X47.934 Y55.666 E19.21271
G1 X47.273 Y54.185 E19.29362
G1 X47.036 Y53.521 E19.32879
G1 X46.563 Y51.788 E19.41841
G1 X46.43 Y51.092 E19.45377
G1 X46.266 Y49.635 E19.52692
G1 X46.24 Y48.958 E19.56072
G1 X46.308 Y47.026 E19.65716
G1 X46.395 Y46.28 E19.69463
G1 X46.683 Y44.849 E19.76746
G1 X46.895 Y44.096 E19.80649
G1 X47.468 Y42.513 E19.89048
G1 X47.662 Y42.052 E19.91543
G1 X47.806 Y41.766 E19.93141
G1 X48.507 Y40.487 E20.00417
G1 X48.944 Y39.814 E20.0442
G1 X49.518 Y39.069 E20.09112
G0 F1350 X49.842 Y38.648
G0 F3600 X50.158 Y38.892
G1 F1500 X50.368 Y38.622 E20.10819
G1 X50.735 Y38.22 E20.13535
G1 X51.769 Y37.226 E20.2069
G1 X51.99 Y37.024 E20.22184
G1 X52.396 Y36.702 E20.24769
G1 X53.814 Y35.712 E20.33397
G1 X54.359 Y35.39 E20.36556
G1 X55.627 Y34.764 E20.43611
G1 X56.135 Y34.543 E20.46374
G1 X56.47 Y34.421 E20.48153
G1 X57.887 Y33.969 E20.55573
G1 X58.549 Y33.815 E20.58964
G1 X59.808 Y33.629 E20.65314
G1 X60.184 Y33.561 E20.6722
G1 X60.934 Y33.494 E20.70977
G1 X62.639 Y33.495 E20.79483
G1 X63.268 Y33.543 E20.8263
G1 X64.689 Y33.759 E20.89801
G1 X65.309 Y33.892 E20.92965
G1 X65.572 Y33.965 E20.94326
G1 X66.962 Y34.398 E21.0159
G1 X67.536 Y34.622 E21.04664
G1 X67.687 Y34.693 E21.05496
G1 X69.154 Y35.416 E21.13656
G1 X69.73 Y35.76 E21.17003
G1 X71.179 Y36.79 E21.25872
G1 X71.652 Y37.181 E21.28934
G1 X72.738 Y38.222 E21.36439
G1 X73.221 Y38.749 E21.40006
G1 X74.164 Y39.98 E21.47742
G1 X74.54 Y40.558 E21.51182
G1 X75.391 Y42.1 E21.59969
G1 X75.663 Y42.699 E21.63251
G1 X76.227 Y44.257 E21.71518
G1 X76.401 Y44.885 E21.74769
G1 X76.692 Y46.38 E21.82367
G1 X76.766 Y46.919 E21.85082
G1 X76.788 Y47.202 E21.86498
G1 X76.843 Y48.451 E21.92735
G1 X76.849 Y49.066 E21.95803
G1 X76.822 Y49.556 E21.98252
G1 X76.709 Y50.554 E22.03263
G1 X76.62 Y51.219 E22.0661
G1 X76.506 Y51.778 E22.09456
G1 X76.051 Y53.429 E22.18
G1 X75.832 Y54.036 E22.2122
G1 X75.232 Y55.37 E22.28517
G1 X74.819 Y56.15 E22.3292
G1 X74.008 Y57.405 E22.40375
G1 X73.539 Y58.019 E22.4423
G1 X72.475 Y59.212 E22.52205
G1 X72.092 Y59.596 E22.54911
G1 X71.864 Y59.798 E22.56431
G1 X70.685 Y60.767 E22.64044
G1 X70.166 Y61.131 E22.67207
G1 X68.768 Y61.963 E22.75323
G1 X68.208 Y62.242 E22.78445
G1 X66.763 Y62.832 E22.86232
G1 X65.962 Y63.09 E22.9043
G1 X65.754 Y63.145 E22.91503
G1 X64.447 Y63.456 E22.98206
G1 X63.79 Y63.558 E23.01523
G1 X61.984 Y63.694 E23.10559
G1 X61.338 Y63.693 E23.13782
G1 X59.819 Y63.573 E23.21384
G1 X59.311 Y63.502 E23.23943
G1 X59.118 Y63.462 E23.24926
G1 X57.575 Y63.106 E23.32826
G1 X56.798 Y62.863 E23.36888
G1 X55.316 Y62.265 E23.44861
G1 X54.723 Y61.969 E23.48168
G1 X53.812 Y61.421 E23.53471
G1 X53.299 Y61.12 E23.56439
G1 X52.747 Y60.734 E23.59799
G1 X51.482 Y59.687 E23.67992
G1 X51.017 Y59.237 E23.7122
G1 X49.877 Y57.951 E23.79794
G1 X49.489 Y57.439 E23.82999
G1 X48.604 Y56.065 E23.91153
G1 X48.3 Y55.503 E23.9434
G1 X47.639 Y54.022 E24.02432
G1 X47.422 Y53.416 E24.05643
G1 X46.949 Y51.683 E24.14605
G1 X46.827 Y51.047 E24.17836
G1 X46.663 Y49.59 E24.25151
G1 X46.64 Y48.972 E24.28236
G1 X46.708 Y47.04 E24.37881
G1 X46.788 Y46.359 E24.41302
G1 X47.076 Y44.928 E24.48584
G1 X47.271 Y44.232 E24.52191
G1 X47.844 Y42.649 E24.6059
G1 X48.157 Y41.958 E24.64374
G1 X48.858 Y40.679 E24.71651
G1 X49.26 Y40.058 E24.75341
G1 X49.834 Y39.313 E24.80033
G0 F1350 X50.158 Y38.892
G0 F3600 X50.476 Y39.137
G1 F1500 X51.013 Y38.509 E24.84156
G1 X52.138 Y37.429 E24.91936
G1 X52.625 Y37.03 E24.95077
G1 X54.043 Y36.04 E25.03705
G1 X54.536 Y35.749 E25.06561
G1 X55.804 Y35.123 E25.13616
G1 X56.288 Y34.913 E25.16248
G1 X56.591 Y34.802 E25.17858
G1 X58.008 Y34.35 E25.25279
G1 X58.608 Y34.211 E25.28351
G1 X59.872 Y34.024 E25.34726
G1 X60.255 Y33.955 E25.36668
G1 X60.934 Y33.894 E25.40069
G1 X62.639 Y33.895 E25.48575
G1 X63.208 Y33.938 E25.51422
G1 X64.629 Y34.154 E25.58593
G1 X65.215 Y34.281 E25.61584
G1 X65.453 Y34.347 E25.62817
G1 X66.843 Y34.78 E25.7008
G1 X67.373 Y34.988 E25.72921
