;FLAVOR:Marlin
;TIME:13170
;Filament used: 0m, 17.4359m
;Layer height: 0.3
;MINX:71.391
;MINY:22.441
;MINZ:0.3
;MAXX:142.467
;MAXY:93.489
;MAXZ:33
;Generated with Cura_SteamEngine 4.12.1
T1
M82 ;absolute extrusion mode
G21 ;metric values
G28 ;home all
G90 ;absolute positioning
M107 ;start with the fan off
G1 F2400 Z15.0 ;raise the nozzle 15mm
M109 S220 ;Set Extruder Temperature and Wait
M190 S60; Wait for bed temperature to reach target temp
T0 ;Switch to Extruder 1
G1 F3000 X5 Y10 Z0.2 ;move to prime start position
G92 E0 ;reset extrusion distance
G1 F600 X160 E5 ;prime nozzle in a line
G1 F5000 X180 ;quick wipe
G92 E0 ;reset extrusion distance
G92 E0

T1 ;switch to extruder 2
G92 E0 ;reset extruder distance
G1 F2000 E93 ;load filament
G92 E0 ;reset extruder distance
M104 S220
G92 E0
G1 F3000 E-5
;LAYER_COUNT:110
;LAYER:0
M107
G0 F3600 X97.41 Y53.121 Z0.3
;TYPE:SKIRT
G1 F3000 E0
G1 F1500 X96.786 Y54.628 E0.08137
G1 X96.412 Y56.218 E0.16287
G1 X96.271 Y57.999 E0.252
G1 X96.399 Y59.628 E0.33352
G1 X96.788 Y61.251 E0.41678
G1 X97.419 Y62.774 E0.49903
G1 X98.294 Y64.209 E0.58288
G1 X99.389 Y65.49 E0.66696
G1 X100.668 Y66.589 E0.75109
G1 X102.103 Y67.468 E0.83505
G1 X103.62 Y68.093 E0.9169
G1 X105.229 Y68.476 E0.99942
G1 X106.934 Y68.607 E1.08473
G1 X108.61 Y68.471 E1.16862
G1 X110.231 Y68.09 E1.2517
G1 X111.779 Y67.448 E1.3353
G1 X113.162 Y66.596 E1.41635
G1 X114.486 Y65.466 E1.50319
G1 X115.554 Y64.22 E1.58506
G1 X116.419 Y62.804 E1.66784
G1 X117.09 Y61.197 E1.75473
G1 X117.457 Y59.633 E1.83487
G1 X117.586 Y57.941 E1.91953
G1 X117.447 Y56.271 E2.00314
G1 X117.065 Y54.628 E2.08729
G1 X116.439 Y53.107 E2.16935
G1 X115.56 Y51.672 E2.25331
G1 X114.475 Y50.405 E2.33653
G1 X113.186 Y49.304 E2.4211
G1 X111.789 Y48.449 E2.50282
G1 X110.193 Y47.782 E2.58912
G1 X108.644 Y47.417 E2.66851
G1 X106.977 Y47.287 E2.75193
G1 X105.226 Y47.429 E2.83958
G1 X103.612 Y47.813 E2.92235
G1 X102.077 Y48.448 E3.00522
G1 X100.67 Y49.304 E3.08739
G1 X99.393 Y50.39 E3.17102
G1 X98.299 Y51.678 E3.25533
G1 X97.689 Y52.668 E3.31334
G0 F1350 X97.41 Y53.121
G0 F3600 X97.055 Y52.936
G1 F1500 X96.404 Y54.507 E3.39819
G1 X96.015 Y56.159 E3.48286
G1 X95.87 Y57.993 E3.57464
G1 X96.003 Y59.696 E3.65986
G1 X96.405 Y61.372 E3.74585
G1 X97.062 Y62.956 E3.83141
G1 X97.972 Y64.447 E3.91855
G1 X99.108 Y65.776 E4.00578
G1 X100.428 Y66.911 E4.09263
G1 X101.921 Y67.825 E4.17997
G1 X103.495 Y68.474 E4.26491
G1 X105.17 Y68.873 E4.35081
G1 X106.929 Y69.008 E4.43883
G1 X108.679 Y68.866 E4.52642
G1 X110.353 Y68.473 E4.61221
G1 X111.962 Y67.805 E4.69912
G1 X113.4 Y66.92 E4.78336
G1 X114.765 Y65.754 E4.87293
G1 X115.879 Y64.456 E4.95826
G1 X116.776 Y62.987 E5.04414
G1 X117.471 Y61.322 E5.13415
G1 X117.854 Y59.69 E5.21778
G1 X117.988 Y57.944 E5.30515
G1 X117.844 Y56.214 E5.39176
G1 X117.446 Y54.503 E5.4794
G1 X116.797 Y52.926 E5.56448
G1 X115.884 Y51.436 E5.65166
G1 X114.758 Y50.122 E5.73799
G1 X113.425 Y48.981 E5.82553
G1 X111.969 Y48.091 E5.91067
G1 X110.317 Y47.401 E5.99998
G1 X108.703 Y47.02 E6.08272
G1 X106.975 Y46.886 E6.16919
G1 X105.165 Y47.032 E6.25978
G1 X103.491 Y47.43 E6.34563
G1 X101.891 Y48.092 E6.43201
G1 X100.436 Y48.978 E6.517
G1 X99.109 Y50.107 E6.60393
G1 X97.975 Y51.442 E6.69132
G1 X97.334 Y52.483 E6.75231
G0 F1350 X97.055 Y52.936
G0 F3600 X96.695 Y52.758
G1 F1500 X96.021 Y54.384 E6.84012
G1 X95.62 Y56.089 E6.92751
G1 X95.469 Y57.998 E7.02304
G1 X95.607 Y59.758 E7.11112
G1 X96.024 Y61.5 E7.20048
G1 X96.704 Y63.138 E7.28897
G1 X97.644 Y64.679 E7.37902
G1 X98.824 Y66.059 E7.46961
G1 X100.192 Y67.236 E7.55964
G1 X101.737 Y68.182 E7.65002
G1 X103.375 Y68.857 E7.73841
G1 X105.11 Y69.269 E7.82738
G1 X106.931 Y69.41 E7.9185
G1 X108.738 Y69.262 E8.00895
G1 X110.475 Y68.855 E8.09796
G1 X112.143 Y68.163 E8.18805
G1 X113.641 Y67.24 E8.27584
G1 X115.049 Y66.038 E8.3682
G1 X116.204 Y64.691 E8.45672
G1 X117.132 Y63.172 E8.54553
G1 X117.854 Y61.441 E8.6391
G1 X118.251 Y59.755 E8.72552
G1 X118.389 Y57.948 E8.81593
G1 X118.239 Y56.146 E8.90614
G1 X117.829 Y54.382 E8.99649
G1 X117.155 Y52.745 E9.08482
G1 X116.208 Y51.199 E9.17527
G1 X115.042 Y49.838 E9.26468
G1 X113.661 Y48.657 E9.35534
G1 X112.15 Y47.733 E9.4437
G1 X110.444 Y47.02 E9.53594
G1 X108.761 Y46.623 E9.62221
G1 X106.974 Y46.484 E9.71164
G1 X105.1 Y46.635 E9.80543
G1 X103.369 Y47.047 E9.89421
G1 X101.709 Y47.734 E9.98384
G1 X100.206 Y48.65 E10.07165
G1 X98.822 Y49.826 E10.16226
G1 X97.652 Y51.203 E10.25241
G1 X96.973 Y52.305 E10.31698
G0 F1350 X96.695 Y52.758
G0 F3600 X96.34 Y52.572
G1 F1500 X95.64 Y54.26 E10.40815
G1 X95.223 Y56.031 E10.49892
G1 X95.068 Y57.996 E10.59726
G1 X95.21 Y59.819 E10.68849
G1 X95.642 Y61.621 E10.78094
G1 X96.347 Y63.32 E10.87271
G1 X97.321 Y64.917 E10.96603
G1 X98.536 Y66.338 E11.05931
G1 X99.96 Y67.563 E11.15302
G1 X101.553 Y68.539 E11.24623
G1 X103.256 Y69.24 E11.33811
G1 X105.044 Y69.666 E11.42981
G1 X106.933 Y69.811 E11.52433
G1 X108.801 Y69.659 E11.61783
G1 X110.6 Y69.237 E11.71002
G1 X112.324 Y68.521 E11.80315
G1 X113.875 Y67.567 E11.894
G1 X115.328 Y66.325 E11.98936
G1 X116.531 Y64.923 E12.08153
G1 X117.489 Y63.355 E12.1732
G1 X118.236 Y61.565 E12.26997
G1 X118.648 Y59.814 E12.35971
G1 X118.79 Y57.941 E12.45343
G1 X118.636 Y56.083 E12.54644
G1 X118.212 Y54.261 E12.63977
G1 X117.514 Y52.565 E12.73127
G1 X116.532 Y50.963 E12.82501
G1 X115.328 Y49.557 E12.91736
G1 X113.893 Y48.331 E13.01153
G1 X112.333 Y47.376 E13.10278
G1 X110.563 Y46.636 E13.19849
G1 X108.826 Y46.227 E13.28752
G1 X106.979 Y46.083 E13.37995
G1 X105.033 Y46.24 E13.47735
G1 X103.249 Y46.665 E13.56885
G1 X101.528 Y47.377 E13.66177
G1 X99.967 Y48.327 E13.75293
G1 X98.538 Y49.543 E13.84654
G1 X97.326 Y50.969 E13.93991
G1 X96.618 Y52.119 E14.00729
G0 F1350 X96.34 Y52.572
G0 F3600 X95.982 Y52.388
G1 F1500 X95.26 Y54.132 E14.10146
G1 X94.826 Y55.974 E14.19587
G1 X94.667 Y57.998 E14.29716
G1 X94.813 Y59.88 E14.39134
G1 X95.261 Y61.747 E14.48712
G1 X95.989 Y63.501 E14.58187
G1 X96.995 Y65.152 E14.67833
G1 X98.252 Y66.621 E14.77478
G1 X99.724 Y67.888 E14.87168
G1 X101.374 Y68.898 E14.9682
G1 X103.13 Y69.621 E15.06294
G1 X104.983 Y70.062 E15.15797
G1 X106.928 Y70.212 E15.25529
G1 X108.866 Y70.054 E15.3523
G1 X110.721 Y69.619 E15.44736
G1 X112.512 Y68.876 E15.54409
G1 X114.105 Y67.895 E15.63743
G1 X115.618 Y66.603 E15.73669
G1 X116.855 Y65.161 E15.83147
G1 X117.848 Y63.535 E15.92653
G1 X118.615 Y61.696 E16.02594
G1 X119.043 Y59.877 E16.11916
G1 X119.191 Y57.934 E16.21638
G1 X119.033 Y56.027 E16.31185
G1 X118.593 Y54.135 E16.40876
G1 X117.872 Y52.384 E16.50323
G1 X116.857 Y50.727 E16.60018
G1 X115.611 Y49.273 E16.69571
G1 X114.13 Y48.006 E16.79295
G1 X112.517 Y47.019 E16.88729
G1 X110.687 Y46.255 E16.98623
G1 X108.885 Y45.83 E17.07859
G1 X106.978 Y45.682 E17.17402
G1 X104.972 Y45.844 E17.27443
G1 X103.123 Y46.284 E17.36925
G1 X101.347 Y47.018 E17.46512
G1 X99.733 Y48.001 E17.55941
G1 X98.254 Y49.259 E17.65627
G1 X97 Y50.735 E17.7529
G1 X96.261 Y51.935 E17.82321
G0 F1350 X95.982 Y52.388
G0 F3600 X95.624 Y52.208
G1 F1500 X94.875 Y54.016 E17.92085
G1 X94.43 Y55.909 E18.01786
G1 X94.266 Y57.991 E18.12206
G1 X94.418 Y59.947 E18.21994
G1 X94.879 Y61.868 E18.3185
G1 X95.633 Y63.686 E18.41669
G1 X96.671 Y65.388 E18.51615
G1 X97.967 Y66.904 E18.61565
G1 X99.488 Y68.212 E18.71573
G1 X101.192 Y69.256 E18.81543
G1 X103.005 Y70.003 E18.91326
G1 X104.918 Y70.458 E19.01136
G1 X106.936 Y70.613 E19.11234
G1 X108.929 Y70.451 E19.2121
G1 X110.839 Y70.003 E19.30997
G1 X112.693 Y69.234 E19.41011
G1 X114.346 Y68.216 E19.50696
G1 X115.901 Y66.888 E19.60898
G1 X117.179 Y65.398 E19.70692
G1 X118.205 Y63.718 E19.80513
G1 X118.999 Y61.815 E19.908
G1 X119.439 Y59.943 E20.00394
G1 X119.592 Y57.94 E20.10416
G1 X119.428 Y55.959 E20.20333
G1 X118.977 Y54.02 E20.30265
G1 X118.227 Y52.197 E20.401
G1 X117.181 Y50.49 E20.50088
G1 X115.895 Y48.989 E20.59949
G1 X114.362 Y47.678 E20.70013
G1 X112.705 Y46.665 E20.79702
G1 X110.812 Y45.874 E20.89937
G1 X108.95 Y45.434 E20.99483
G1 X106.97 Y45.281 E21.0939
G1 X104.913 Y45.447 E21.19686
G1 X102.995 Y45.903 E21.29522
G1 X101.166 Y46.66 E21.39397
G1 X99.498 Y47.675 E21.49139
G1 X97.97 Y48.975 E21.59148
G1 X96.68 Y50.494 E21.6909
G1 X95.903 Y51.756 E21.76484
G0 F1350 X95.624 Y52.208
G0 F3600 X95.267 Y52.025
G1 F1500 X94.494 Y53.889 E21.86551
G1 X94.035 Y55.844 E21.9657
G1 X93.865 Y57.996 E22.0734
G1 X94.021 Y60.006 E22.17398
G1 X94.498 Y61.996 E22.27607
G1 X95.273 Y63.865 E22.37702
G1 X96.345 Y65.622 E22.4797
G1 X97.686 Y67.19 E22.58264
G1 X99.248 Y68.534 E22.68544
G1 X101.013 Y69.615 E22.7887
G1 X102.879 Y70.384 E22.88939
G1 X104.857 Y70.854 E22.99082
G1 X106.938 Y71.015 E23.09495
G1 X108.986 Y70.848 E23.19747
G1 X110.967 Y70.383 E23.29899
G1 X112.876 Y69.591 E23.4021
G1 X114.58 Y68.542 E23.50193
G1 X116.184 Y67.172 E23.60717
G1 X117.501 Y65.636 E23.70811
G1 X118.563 Y63.897 E23.80977
G1 X119.38 Y61.94 E23.91557
G1 X119.836 Y59.999 E24.01505
G1 X119.994 Y57.937 E24.11822
G1 X119.825 Y55.902 E24.2201
G1 X119.358 Y53.895 E24.3229
G1 X118.585 Y52.016 E24.42427
G1 X117.505 Y50.254 E24.52737
G1 X116.178 Y48.705 E24.62913
G1 X114.6 Y47.356 E24.73271
G1 X112.885 Y46.306 E24.83303
G1 X110.938 Y45.493 E24.9383
G1 X109.007 Y45.037 E25.03728
G1 X106.969 Y44.879 E25.13927
G1 X104.852 Y45.05 E25.24523
G1 X102.875 Y45.521 E25.34662
G1 X100.985 Y46.303 E25.44867
G1 X99.264 Y47.351 E25.54919
G1 X97.683 Y48.695 E25.65272
G1 X96.353 Y50.26 E25.75518
G1 X95.545 Y51.572 E25.83206
G0 F1350 X95.267 Y52.025
G0 F3600 X94.91 Y51.842
G1 F1500 X94.111 Y53.772 E25.93627
G1 X93.638 Y55.78 E26.03919
G1 X93.463 Y57.996 E26.15009
G1 X93.625 Y60.071 E26.25393
G1 X94.116 Y62.117 E26.3589
G1 X94.916 Y64.046 E26.46309
G1 X96.022 Y65.86 E26.56908
G1 X97.401 Y67.473 E26.67496
G1 X99.012 Y68.859 E26.78098
G1 X100.827 Y69.969 E26.88712
G1 X102.761 Y70.767 E26.9915
G1 X104.797 Y71.251 E27.09591
G1 X106.934 Y71.416 E27.20284
G1 X109.051 Y71.243 E27.30881
G1 X111.091 Y70.765 E27.41335
G1 X113.057 Y69.949 E27.51954
G1 X114.822 Y68.862 E27.62296
G1 X116.464 Y67.46 E27.73068
G1 X117.829 Y65.868 E27.8353
G1 X118.918 Y64.085 E27.93953
G1 X119.764 Y62.059 E28.04907
G1 X120.233 Y60.065 E28.15127
G1 X120.395 Y57.941 E28.25754
G1 X120.22 Y55.834 E28.36302
G1 X119.741 Y53.774 E28.46854
G1 X118.942 Y51.834 E28.57321
G1 X117.829 Y50.018 E28.67947
G1 X116.462 Y48.421 E28.78435
G1 X114.836 Y47.032 E28.89104
G1 X113.066 Y45.948 E28.99459
G1 X111.059 Y45.11 E29.1031
G1 X109.073 Y44.641 E29.20491
G1 X106.974 Y44.478 E29.30994
G1 X104.787 Y44.655 E29.41941
G1 X102.747 Y45.14 E29.52402
G1 X100.804 Y45.944 E29.62893
G1 X99.03 Y47.025 E29.73257
G1 X97.399 Y48.411 E29.83935
G1 X96.031 Y50.022 E29.9448
G1 X95.189 Y51.389 E30.02489
G0 F1350 X94.91 Y51.842
G0 F3600 X94.552 Y51.661
G1 F1500 X93.73 Y53.645 E30.13204
G1 X93.241 Y55.722 E30.23849
G1 X93.062 Y57.996 E30.35229
G1 X93.228 Y60.132 E30.45918
G1 X93.735 Y62.243 E30.56749
G1 X94.559 Y64.231 E30.67486
G1 X95.694 Y66.092 E30.78361
G1 X97.117 Y67.756 E30.89284
G1 X98.776 Y69.183 E31.00201
G1 X100.645 Y70.327 E31.11134
G1 X102.636 Y71.148 E31.21879
G1 X104.738 Y71.648 E31.32658
G1 X106.935 Y71.817 E31.43651
G1 X109.115 Y71.64 E31.54563
G1 X111.213 Y71.147 E31.65315
G1 X113.238 Y70.307 E31.76253
G1 X115.055 Y69.188 E31.86899
G1 X116.75 Y67.741 E31.98018
G1 X118.151 Y66.107 E32.08756
G1 X119.276 Y64.265 E32.19524
G1 X120.145 Y62.183 E32.3078
G1 X120.63 Y60.123 E32.41338
G1 X120.796 Y57.934 E32.5229
G1 X120.616 Y55.771 E32.63119
G1 X120.124 Y53.653 E32.73967
G1 X119.302 Y51.655 E32.84746
G1 X118.154 Y49.782 E32.95706
G1 X116.745 Y48.137 E33.06512
G1 X115.073 Y46.707 E33.17488
G1 X113.249 Y45.591 E33.28156
G1 X111.183 Y44.729 E33.39325
G1 X109.131 Y44.244 E33.49844
G1 X106.973 Y44.077 E33.60643
G1 X104.727 Y44.258 E33.71884
G1 X102.621 Y44.759 E33.82685
G1 X100.623 Y45.586 E33.93473
G1 X98.795 Y46.699 E34.0415
G1 X97.115 Y48.127 E34.1515
G1 X95.707 Y49.785 E34.26002
G1 X94.83 Y51.208 E34.34342
G0 F1350 X94.552 Y51.661
G0 F3600 X94.197 Y51.473
G1 F1500 X93.348 Y53.522 E34.45407
G1 X92.844 Y55.665 E34.5639
G1 X92.66 Y57.996 E34.68056
G1 X92.832 Y60.193 E34.7905
G1 X93.352 Y62.364 E34.90188
G1 X94.202 Y64.412 E35.0125
G1 X95.371 Y66.33 E35.12457
G1 X96.832 Y68.038 E35.2367
G1 X98.54 Y69.507 E35.34909
G1 X100.466 Y70.686 E35.46176
G1 X102.511 Y71.529 E35.57211
G1 X104.677 Y72.045 E35.6832
G1 X106.937 Y72.219 E35.79628
G1 X109.171 Y72.037 E35.90811
G1 X111.336 Y71.529 E36.01905
G1 X113.426 Y70.662 E36.13194
G1 X115.289 Y69.515 E36.24109
G1 X117.033 Y68.025 E36.35553
G1 X118.476 Y66.343 E36.46609
G1 X119.633 Y64.448 E36.57686
G1 X120.526 Y62.309 E36.6925
G1 X121.027 Y60.177 E36.80177
G1 X121.198 Y57.934 E36.914
G1 X121.013 Y55.713 E37.02518
G1 X120.505 Y53.527 E37.13715
G1 X119.659 Y51.474 E37.24793
G1 X118.478 Y49.545 E37.36077
G1 X117.028 Y47.853 E37.47194
G1 X115.309 Y46.383 E37.58479
G1 X113.432 Y45.235 E37.69456
G1 X111.308 Y44.347 E37.80941
G1 X109.19 Y43.847 E37.91798
G1 X106.972 Y43.675 E38.02897
G1 X104.666 Y43.861 E38.14439
G1 X102.501 Y44.377 E38.25543
G1 X100.442 Y45.229 E38.3666
G1 X98.557 Y46.376 E38.47669
G1 X96.831 Y47.843 E38.5897
G1 X95.381 Y49.551 E38.70148
G1 X94.476 Y51.02 E38.78756
G0 F1350 X94.197 Y51.473
G1 F3000 E33.78756
G0 F3600 X91.462 Y46.237
G0 X91.337 Y46.13
G1 F3000 E38.78756
G1 F1500 X93.039 Y44.169 E38.9171
G1 X93.058 Y44.15 E38.91844
G1 X95.008 Y42.433 E39.04807
G1 X95.029 Y42.417 E39.04938
G1 X97.203 Y40.969 E39.1797
G1 X99.542 Y39.829 E39.30952
G1 X99.567 Y39.819 E39.31086
G1 X102.034 Y39.005 E39.44047
G1 X102.06 Y38.998 E39.44181
G1 X104.615 Y38.519 E39.5715
G1 X104.642 Y38.516 E39.57286
G1 X107.231 Y38.384 E39.70219
G1 X109.844 Y38.601 E39.833
G1 X109.87 Y38.605 E39.83431
G1 X112.436 Y39.173 E39.96543
G1 X114.873 Y40.067 E40.09494
G1 X114.897 Y40.078 E40.09625
G1 X117.189 Y41.288 E40.22556
G1 X117.212 Y41.302 E40.2269
G1 X119.329 Y42.813 E40.35666
G1 X119.35 Y42.83 E40.35801
G1 X121.24 Y44.604 E40.48733
G1 X122.898 Y46.641 E40.61837
G1 X122.914 Y46.663 E40.61972
G1 X124.267 Y48.878 E40.74922
G1 X125.32 Y51.275 E40.87983
G1 X125.329 Y51.3 E40.88116
G1 X126.054 Y53.823 E41.01213
G1 X126.432 Y56.396 E41.14187
G1 X126.434 Y56.423 E41.14322
G1 X126.462 Y59.038 E41.27369
G1 X126.143 Y61.631 E41.40403
G1 X125.482 Y64.155 E41.5342
G1 X125.474 Y64.18 E41.53551
G1 X124.484 Y66.582 E41.66513
G1 X124.472 Y66.606 E41.66647
G1 X123.167 Y68.858 E41.79632
G1 X123.152 Y68.881 E41.79769
G1 X121.568 Y70.925 E41.9267
G1 X121.55 Y70.945 E41.92804
G1 X119.695 Y72.771 E42.05791
G1 X119.675 Y72.788 E42.05921
G1 X117.593 Y74.347 E42.18898
G1 X117.57 Y74.362 E42.19035
G1 X115.306 Y75.626 E42.31971
G1 X115.282 Y75.637 E42.32103
G1 X112.871 Y76.585 E42.45028
G1 X112.846 Y76.593 E42.45159
G1 X110.322 Y77.212 E42.58124
G1 X110.295 Y77.217 E42.58261
G1 X107.713 Y77.494 E42.71217
G1 X107.686 Y77.495 E42.71352
G1 X105.086 Y77.422 E42.84328
G1 X102.501 Y77.002 E42.97394
G1 X102.475 Y76.996 E42.97527
G1 X99.965 Y76.229 E43.10621
G1 X97.605 Y75.145 E43.23578
G1 X97.581 Y75.132 E43.23714
G1 X95.392 Y73.746 E43.3664
G1 X95.37 Y73.73 E43.36776
G1 X93.381 Y72.059 E43.49736
G1 X93.362 Y72.041 E43.49867
G1 X91.614 Y70.119 E43.62828
G1 X91.597 Y70.098 E43.62963
G1 X90.118 Y67.954 E43.75957
G1 X88.936 Y65.626 E43.88983
G1 X88.925 Y65.602 E43.89115
G1 X88.07 Y63.148 E44.0208
G1 X88.063 Y63.122 E44.02214
G1 X87.542 Y60.574 E44.15189
G1 X87.538 Y60.547 E44.15325
G1 X87.363 Y57.937 E44.28376
G1 X87.363 Y43.151 E45.02144
G1 X86.363 Y42.853 E45.07349
G1 X84.764 Y45.299 E45.21929
G1 X83.423 Y48.015 E45.37041
G1 X83.401 Y48.066 E45.37318
G1 X82.387 Y50.953 E45.52584
G1 X82.376 Y50.995 E45.528
G1 X81.72 Y53.964 E45.6797
G1 X81.425 Y57.025 E45.83312
G1 X81.504 Y60.136 E45.98838
G1 X81.953 Y63.189 E46.14233
G1 X82.759 Y66.135 E46.29471
G1 X83.917 Y68.978 E46.44786
G1 X83.935 Y69.018 E46.45005
G1 X85.422 Y71.684 E46.60235
G1 X87.248 Y74.191 E46.75708
G1 X89.337 Y76.434 E46.91
G1 X91.709 Y78.431 E47.0647
G1 X94.266 Y80.101 E47.21706
G1 X94.314 Y80.129 E47.21984
G1 X97.026 Y81.464 E47.37064
G1 X97.06 Y81.479 E47.3725
G1 X99.962 Y82.494 E47.52588
G1 X100.006 Y82.506 E47.52815
G1 X102.975 Y83.159 E47.67982
G1 X106.041 Y83.45 E47.83347
