;FLAVOR:Marlin
;TIME:3861
;Filament used: 0m, 3.85206m
;Layer height: 0.3
;MINX:133.449
;MINY:35.522
;MINZ:0.3
;MAXX:166.551
;MAXY:63.616
;MAXZ:53.4
;Generated with Cura_SteamEngine 4.12.1
T1
M82 ;absolute extrusion mode
G21 ;metric values
G28 ;home all
G90 ;absolute positioning
M107 ;start with the fan off
G1 F2400 Z15.0 ;raise the nozzle 15mm
M109 S220 ;Set Extruder Temperature and Wait
M190 S60; Wait for bed temperature to reach target temp
T0 ;Switch to Extruder 1
G1 F3000 X5 Y10 Z0.2 ;move to prime start position
G92 E0 ;reset extrusion distance
G1 F600 X160 E5 ;prime nozzle in a line
G1 F5000 X180 ;quick wipe
G92 E0 ;reset extrusion distance
G92 E0

T1 ;switch to extruder 2
G92 E0 ;reset extruder distance
G1 F2000 E93 ;load filament
G92 E0 ;reset extruder distance
M104 S220
G92 E0
G1 F3000 E-5
;LAYER_COUNT:178
;LAYER:0
M107
G0 F3600 X136.5 Y45.64 Z0.3
;TYPE:SKIRT
G1 F3000 E0
G1 F1500 X136.708 Y45.031 E0.03211
G1 X136.833 Y44.687 E0.05037
G1 X137.069 Y44.064 E0.0836
G1 X137.328 Y43.502 E0.11448
G1 X137.378 Y43.403 E0.12001
G1 X137.636 Y42.918 E0.14742
G1 X137.759 Y42.695 E0.16012
G1 X138.107 Y42.079 E0.19542
G1 X138.558 Y41.417 E0.23538
G1 X138.9 Y40.964 E0.2637
G1 X139.316 Y40.433 E0.29735
G1 X139.82 Y39.885 E0.3345
G1 X140.284 Y39.432 E0.36685
G1 X140.828 Y38.921 E0.40409
G1 X141.213 Y38.601 E0.42906
G1 X141.927 Y38.079 E0.47319
G1 X142.606 Y37.61 E0.51436
G1 X143.108 Y37.315 E0.54341
G1 X143.202 Y37.265 E0.54872
G1 X143.79 Y36.968 E0.58159
G1 X144.394 Y36.677 E0.61504
G1 X144.898 Y36.469 E0.64224
G1 X145.544 Y36.251 E0.67625
G1 X145.875 Y36.147 E0.69356
G1 X146.503 Y35.957 E0.7263
G1 X146.9 Y35.862 E0.74666
G1 X147.88 Y35.69 E0.7963
G1 X147.995 Y35.672 E0.80211
G1 X148.536 Y35.596 E0.82936
G1 X149.043 Y35.547 E0.85478
G1 X149.865 Y35.522 E0.8958
G1 X150.567 Y35.53 E0.93083
G1 X151.221 Y35.572 E0.96352
G1 X151.432 Y35.594 E0.97411
G1 X152.287 Y35.711 E1.01716
G1 X152.839 Y35.805 E1.0451
G1 X153.446 Y35.942 E1.07614
G1 X154.404 Y36.231 E1.12607
G1 X155.016 Y36.435 E1.15825
G1 X155.385 Y36.583 E1.17808
G1 X156.214 Y36.972 E1.22377
G1 X156.764 Y37.249 E1.25449
G1 X157.293 Y37.542 E1.28466
G1 X157.875 Y37.932 E1.31962
G1 X158.711 Y38.534 E1.37101
G1 X159.032 Y38.797 E1.39172
G1 X159.706 Y39.423 E1.43761
G1 X160.328 Y40.038 E1.48125
G1 X160.598 Y40.34 E1.50146
G1 X161.185 Y41.078 E1.5485
G1 X161.252 Y41.165 E1.55398
G1 X161.644 Y41.694 E1.58683
G1 X161.945 Y42.166 E1.61476
G1 X162.334 Y42.86 E1.65445
G1 X162.711 Y43.572 E1.69465
G1 X162.943 Y44.094 E1.72314
G1 X163.147 Y44.641 E1.75227
G1 X163.214 Y44.829 E1.76223
G1 X163.454 Y45.525 E1.79896
G1 X163.555 Y45.878 E1.81728
G1 X163.77 Y46.826 E1.86577
G1 X163.874 Y47.349 E1.89238
G1 X163.972 Y47.96 E1.92325
G1 X164.01 Y48.525 E1.9515
G1 X164.033 Y49.219 E1.98614
G1 X164.046 Y49.846 E2.01743
G1 X164.031 Y50.354 E2.04279
G1 X163.957 Y51.142 E2.08227
G1 X163.881 Y51.762 E2.11344
G1 X163.754 Y52.461 E2.14888
G1 X163.554 Y53.228 E2.18843
G1 X163.335 Y53.989 E2.22793
G1 X163.168 Y54.482 E2.2539
G1 X162.865 Y55.189 E2.29228
G1 X162.5 Y55.975 E2.33551
G1 X162.266 Y56.42 E2.3606
G1 X162.013 Y56.838 E2.38497
G1 X161.455 Y57.686 E2.43562
G1 X161.061 Y58.236 E2.46937
G1 X160.895 Y58.438 E2.48241
G1 X160.486 Y58.903 E2.51331
G1 X159.984 Y59.452 E2.55042
G1 X159.579 Y59.844 E2.57854
G1 X158.962 Y60.363 E2.61877
G1 X158.646 Y60.619 E2.63906
G1 X158.143 Y61.012 E2.6709
G1 X157.776 Y61.265 E2.69314
G1 X157.232 Y61.598 E2.72496
G1 X156.564 Y61.983 E2.76343
G1 X155.977 Y62.275 E2.79614
G1 X155.203 Y62.605 E2.83812
G1 X154.529 Y62.864 E2.87414
G1 X154.162 Y62.981 E2.89336
G1 X153.218 Y63.224 E2.94199
G1 X153.006 Y63.275 E2.95287
G1 X152.326 Y63.43 E2.98766
G1 X151.849 Y63.503 E3.01174
G1 X150.979 Y63.574 E3.05529
G1 X150.208 Y63.616 E3.09381
G1 X149.463 Y63.6 E3.13099
G1 X148.5 Y63.528 E3.17917
G1 X147.667 Y63.421 E3.22107
G1 X146.744 Y63.217 E3.26823
G1 X146.113 Y63.06 E3.30067
G1 X145.541 Y62.885 E3.33051
G1 X145.009 Y62.686 E3.35885
G1 X144.723 Y62.573 E3.37419
G1 X144.22 Y62.363 E3.40138
G1 X143.593 Y62.063 E3.43606
G1 X143.398 Y61.96 E3.44706
G1 X142.903 Y61.677 E3.47551
G1 X142.154 Y61.222 E3.51923
G1 X141.646 Y60.862 E3.55029
G1 X141.048 Y60.365 E3.58909
G1 X140.738 Y60.099 E3.60947
G1 X140.21 Y59.633 E3.6446
G1 X139.841 Y59.265 E3.6706
G1 X139.481 Y58.868 E3.69734
G1 X139.06 Y58.384 E3.72934
G1 X138.716 Y57.935 E3.75756
G1 X138.165 Y57.113 E3.80693
G1 X137.867 Y56.637 E3.83495
G1 X137.611 Y56.179 E3.86113
G1 X137.524 Y56.008 E3.8707
G1 X137.194 Y55.308 E3.90931
G1 X137.1 Y55.098 E3.92079
G1 X136.834 Y54.487 E3.95403
G1 X136.642 Y53.948 E3.98258
G1 X136.43 Y53.192 E4.02175
G1 X136.28 Y52.595 E4.05246
G1 X136.217 Y52.284 E4.06829
G1 X136.077 Y51.376 E4.11413
G1 X136.056 Y51.215 E4.12223
G1 X135.98 Y50.496 E4.1583
G1 X135.961 Y50.095 E4.17833
G1 X135.975 Y49.003 E4.23281
G1 X135.998 Y48.449 E4.26047
G1 X136.015 Y48.233 E4.27128
G1 X136.074 Y47.693 E4.29838
G1 X136.106 Y47.467 E4.30977
G1 X136.225 Y46.797 E4.34372
G1 X136.347 Y46.208 E4.37373
G1 X136.362 Y46.153 E4.37657
G0 F1350 X136.5 Y45.64
G0 F3600 X136.944 Y45.568
G1 F1500 X137.192 Y44.869 E4.41358
G1 X137.444 Y44.205 E4.44901
G1 X137.687 Y43.678 E4.47796
G1 X137.967 Y43.147 E4.50791
G1 X138.107 Y42.891 E4.52247
G1 X138.455 Y42.275 E4.55777
G1 X138.882 Y41.65 E4.59553
G1 X139.214 Y41.211 E4.62299
G1 X139.63 Y40.68 E4.65664
G1 X140.107 Y40.164 E4.6917
G1 X140.563 Y39.719 E4.72349
G1 X141.102 Y39.213 E4.76037
G1 X141.449 Y38.924 E4.7829
G1 X142.231 Y38.354 E4.83118
G1 X142.833 Y37.939 E4.86766
G1 X143.3 Y37.666 E4.89465
G1 X143.383 Y37.622 E4.89933
G1 X143.964 Y37.328 E4.93182
G1 X144.568 Y37.037 E4.96527
G1 X145.044 Y36.842 E4.99093
G1 X145.669 Y36.631 E5.02384
G1 X145.991 Y36.53 E5.04068
G1 X146.619 Y36.34 E5.07341
G1 X146.969 Y36.256 E5.09137
G1 X147.949 Y36.084 E5.14101
G1 X148.592 Y35.992 E5.17342
G1 X149.224 Y35.936 E5.20507
G1 X149.869 Y35.922 E5.23726
G1 X150.562 Y35.93 E5.27183
G1 X151.191 Y35.971 E5.30328
G1 X151.378 Y35.991 E5.31266
G1 X152.322 Y36.121 E5.3602
G1 X153.068 Y36.259 E5.39805
G1 X153.331 Y36.326 E5.41159
G1 X154.278 Y36.611 E5.46093
G1 X154.89 Y36.815 E5.49312
G1 X155.215 Y36.945 E5.51058
G1 X156.126 Y37.374 E5.56082
G1 X156.651 Y37.641 E5.5902
G1 X157.221 Y37.97 E5.62304
G1 X157.648 Y38.262 E5.64884
G1 X158.477 Y38.859 E5.69981
G1 X158.76 Y39.091 E5.71807
G1 X159.353 Y39.64 E5.75839
G1 X160.046 Y40.323 E5.80693
G1 X160.285 Y40.589 E5.82477
G1 X160.872 Y41.327 E5.87182
G1 X161.276 Y41.868 E5.9055
G1 X161.601 Y42.371 E5.93538
G1 X161.983 Y43.053 E5.97438
G1 X162.358 Y43.759 E6.01426
G1 X162.568 Y44.234 E6.04017
G1 X162.771 Y44.776 E6.06905
G1 X162.836 Y44.959 E6.07873
G1 X163.076 Y45.655 E6.11546
G1 X163.165 Y45.967 E6.13165
G1 X163.377 Y46.904 E6.17958
G1 X163.48 Y47.419 E6.20578
G1 X163.574 Y47.999 E6.2351
G1 X163.61 Y48.538 E6.26205
G1 X163.633 Y49.228 E6.29649
G1 X163.646 Y49.844 E6.32723
G1 X163.632 Y50.318 E6.35089
G1 X163.56 Y51.093 E6.38972
G1 X163.484 Y51.713 E6.42088
G1 X163.366 Y52.361 E6.45374
G1 X163.169 Y53.118 E6.49277
G1 X162.954 Y53.868 E6.53169
G1 X162.704 Y54.562 E6.56849
G1 X162.5 Y55.027 E6.59383
G1 X162.137 Y55.806 E6.6367
G1 X161.746 Y56.51 E6.67688
G1 X161.679 Y56.618 E6.68322
G1 X161.127 Y57.458 E6.73337
G1 X160.75 Y57.985 E6.7657
G1 X160.594 Y58.175 E6.77796
G1 X160.191 Y58.633 E6.8084
G1 X159.689 Y59.182 E6.84551
G1 X159.322 Y59.538 E6.87102
G1 X158.709 Y60.053 E6.91096
G1 X158.4 Y60.304 E6.93082
G1 X157.897 Y60.697 E6.96267
G1 X157.567 Y60.924 E6.98265
G1 X157.032 Y61.252 E7.01396
G1 X156.374 Y61.631 E7.05184
G1 X155.806 Y61.914 E7.0835
G1 X155.051 Y62.235 E7.12443
G1 X154.386 Y62.491 E7.15999
G1 X154.062 Y62.594 E7.17695
G1 X153.125 Y62.835 E7.22522
G1 X152.917 Y62.885 E7.23589
G1 X152.237 Y63.04 E7.27068
G1 X151.817 Y63.105 E7.29189
G1 X150.957 Y63.175 E7.33493
G1 X150.186 Y63.217 E7.37346
G1 X149.481 Y63.2 E7.40864
G1 X149.387 Y63.195 E7.41334
G1 X148.54 Y63.13 E7.45572
G1 X147.752 Y63.03 E7.49535
G1 X146.841 Y62.829 E7.54189
G1 X146.21 Y62.672 E7.57433
G1 X145.676 Y62.509 E7.60218
G1 X145.153 Y62.313 E7.63005
G1 X144.877 Y62.203 E7.64487
G1 X144.374 Y61.993 E7.67207
G1 X143.769 Y61.703 E7.70554
G1 X143.597 Y61.612 E7.71525
G1 X143.032 Y61.288 E7.74774
G1 X142.361 Y60.88 E7.78692
G1 X141.902 Y60.554 E7.81501
G1 X141.308 Y60.061 E7.85352
G1 X141.003 Y59.799 E7.87358
G1 X140.475 Y59.333 E7.90871
G1 X140.07 Y58.924 E7.93743
G1 X139.782 Y58.606 E7.95883
G1 X139.361 Y58.122 E7.99084
G1 X139.048 Y57.712 E8.01657
G1 X138.441 Y56.804 E8.07106
G1 X138.118 Y56.275 E8.10198
G1 X137.886 Y55.837 E8.12671
G1 X137.559 Y55.144 E8.16494
G1 X137.466 Y54.938 E8.17622
G1 X137.2 Y54.327 E8.20947
G1 X137.026 Y53.836 E8.23545
G1 X136.816 Y53.087 E8.27426
G1 X136.668 Y52.497 E8.30461
G1 X136.612 Y52.223 E8.31856
G1 X136.472 Y51.315 E8.3644
G1 X136.454 Y51.173 E8.37154
G1 X136.378 Y50.454 E8.40761
G1 X136.361 Y50.101 E8.42524
G1 X136.375 Y49.009 E8.47973
G1 X136.398 Y48.467 E8.50679
G1 X136.413 Y48.276 E8.51635
G1 X136.472 Y47.736 E8.54345
G1 X136.5 Y47.537 E8.55348
G1 X136.636 Y46.778 E8.59195
G1 X136.785 Y46.098 E8.62668
G1 X136.792 Y46.077 E8.62778
G0 F1350 X136.944 Y45.568
G0 F3600 X137.321 Y45.701
G1 F1500 X137.568 Y45.005 E8.66463
G1 X137.818 Y44.347 E8.69974
G1 X138.046 Y43.854 E8.72684
G1 X138.337 Y43.303 E8.75793
G1 X138.455 Y43.088 E8.77017
G1 X138.803 Y42.472 E8.80546
G1 X139.207 Y41.884 E8.84106
G1 X139.529 Y41.458 E8.8677
G1 X139.945 Y40.927 E8.90135
G1 X140.395 Y40.442 E8.93436
G1 X140.451 Y40.385 E8.93834
G1 X140.875 Y39.974 E8.96781
G1 X141.375 Y39.505 E9.00201
G1 X141.686 Y39.247 E9.02217
G1 X142.458 Y38.683 E9.06987
G1 X143.06 Y38.268 E9.10634
G1 X143.564 Y37.979 E9.13533
G1 X144.137 Y37.689 E9.16737
G1 X144.741 Y37.398 E9.20082
G1 X145.322 Y37.167 E9.23201
G1 X145.828 Y37 E9.25859
G1 X146.107 Y36.912 E9.27319
G1 X146.735 Y36.722 E9.30592
G1 X147.039 Y36.65 E9.32151
G1 X148.106 Y36.464 E9.37555
G1 X148.647 Y36.388 E9.4028
G1 X149.239 Y36.336 E9.43245
G1 X149.874 Y36.322 E9.46414
G1 X150.557 Y36.33 E9.49822
G1 X151.162 Y36.37 E9.52846
G1 X151.324 Y36.387 E9.53659
G1 X152.256 Y36.516 E9.58353
G1 X152.988 Y36.651 E9.62067
G1 X153.216 Y36.709 E9.63241
G1 X154.151 Y36.99 E9.68111
G1 X154.763 Y37.194 E9.7133
G1 X155.045 Y37.307 E9.72845
G1 X155.945 Y37.731 E9.77809
G1 X156.461 Y37.993 E9.80696
G1 X157.007 Y38.308 E9.83841
G1 X157.421 Y38.591 E9.86343
G1 X158.243 Y39.183 E9.91397
G1 X158.488 Y39.384 E9.92978
G1 X159.143 Y39.992 E9.97436
G1 X159.765 Y40.607 E10.018
G1 X159.972 Y40.838 E10.03348
G1 X160.559 Y41.576 E10.08052
G1 X160.991 Y42.156 E10.1166
G1 X161.288 Y42.627 E10.14438
G1 X161.632 Y43.245 E10.17967
G1 X162.004 Y43.947 E10.21931
G1 X162.194 Y44.375 E10.24267
G1 X162.394 Y44.91 E10.27116
G1 X162.458 Y45.089 E10.28065
G1 X162.698 Y45.785 E10.31738
G1 X162.775 Y46.056 E10.33143
G1 X162.985 Y46.983 E10.37885
G1 X163.086 Y47.489 E10.4046
G1 X163.176 Y48.039 E10.4324
G1 X163.211 Y48.552 E10.45805
G1 X163.233 Y49.237 E10.49225
G1 X163.246 Y49.842 E10.52244
G1 X163.234 Y50.281 E10.54435
G1 X163.163 Y51.044 E10.58258
G1 X163.087 Y51.664 E10.61374
G1 X162.979 Y52.26 E10.64396
G1 X162.785 Y53.008 E10.68251
G1 X162.572 Y53.748 E10.72093
G1 X162.333 Y54.411 E10.75609
G1 X162.112 Y54.912 E10.78341
G1 X161.774 Y55.637 E10.82332
G1 X161.403 Y56.305 E10.86144
G1 X161.344 Y56.399 E10.86698
G1 X160.798 Y57.229 E10.91654
G1 X160.439 Y57.733 E10.94741
G1 X160.293 Y57.911 E10.9589
G1 X159.896 Y58.364 E10.98895
G1 X159.394 Y58.913 E11.02606
G1 X159.064 Y59.232 E11.04896
G1 X158.456 Y59.743 E11.08859
G1 X158.154 Y59.989 E11.10802
G1 X157.651 Y60.382 E11.13986
G1 X157.357 Y60.584 E11.15766
G1 X156.832 Y60.906 E11.18839
G1 X156.184 Y61.279 E11.22569
G1 X155.635 Y61.552 E11.25628
G1 X154.899 Y61.865 E11.29618
G1 X154.243 Y62.117 E11.33124
G1 X153.962 Y62.207 E11.34596
G1 X153.032 Y62.446 E11.39387
G1 X152.828 Y62.495 E11.40433
G1 X152.148 Y62.65 E11.43913
G1 X151.784 Y62.706 E11.4575
G1 X150.935 Y62.775 E11.5
G1 X150.164 Y62.817 E11.53852
G1 X149.498 Y62.801 E11.57176
G1 X148.646 Y62.738 E11.61438
G1 X148.134 Y62.687 E11.64005
G1 X147.838 Y62.64 E11.655
G1 X146.937 Y62.441 E11.70104
G1 X146.306 Y62.284 E11.73348
G1 X145.812 Y62.132 E11.75926
G1 X145.297 Y61.94 E11.78669
G1 X145.031 Y61.834 E11.80097
G1 X144.528 Y61.624 E11.82816
G1 X143.944 Y61.344 E11.86048
G1 X143.796 Y61.265 E11.86885
G1 X143.24 Y60.947 E11.9008
G1 X142.569 Y60.539 E11.93998
G1 X142.157 Y60.247 E11.96517
G1 X141.568 Y59.757 E12.0034
G1 X141.268 Y59.499 E12.02314
G1 X140.74 Y59.033 E12.05827
G1 X140.366 Y58.656 E12.08477
G1 X140.084 Y58.343 E12.10579
G1 X139.663 Y57.859 E12.13779
G1 X139.38 Y57.49 E12.16099
G1 X138.829 Y56.668 E12.21036
G1 X138.546 Y56.215 E12.23701
G1 X138.247 Y55.666 E12.2682
G1 X137.923 Y54.98 E12.30605
G1 X137.833 Y54.779 E12.31703
G1 X137.567 Y54.168 E12.35028
G1 X137.331 Y53.453 E12.38785
G1 X137.189 Y52.933 E12.41474
G1 X137.055 Y52.4 E12.44216
G1 X137.007 Y52.162 E12.45427
G1 X136.867 Y51.254 E12.50011
G1 X136.851 Y51.131 E12.50629
G1 X136.775 Y50.412 E12.54236
G1 X136.761 Y50.106 E12.55765
G1 X136.775 Y49.014 E12.61213
G1 X136.798 Y48.485 E12.63855
G1 X136.81 Y48.32 E12.6468
G1 X136.869 Y47.78 E12.6739
G1 X136.894 Y47.607 E12.68262
G1 X137.028 Y46.86 E12.72049
G1 X137.17 Y46.211 E12.75363
G0 F1350 X137.171 Y46.205
G0 X137.321 Y45.701
G0 F3600 X137.699 Y45.833
G1 F1500 X137.945 Y45.142 E12.79023
G1 X138.192 Y44.489 E12.82506
G1 X138.406 Y44.03 E12.85032
G1 X138.688 Y43.495 E12.88049
G1 X138.804 Y43.285 E12.89246
G1 X139.152 Y42.669 E12.92776
G1 X139.532 Y42.117 E12.9612
G1 X139.844 Y41.704 E12.98702
G1 X140.26 Y41.173 E13.02067
G1 X140.682 Y40.72 E13.05156
G1 X141.149 Y40.265 E13.08409
G1 X141.649 Y39.796 E13.11829
G1 X141.922 Y39.57 E13.13597
G1 X142.685 Y39.013 E13.1831
G1 X143.287 Y38.598 E13.21958
G1 X143.745 Y38.336 E13.2459
G1 X144.311 Y38.049 E13.27756
G1 X144.915 Y37.758 E13.31101
G1 X145.447 Y37.547 E13.33957
G1 X145.949 Y37.381 E13.36595
G1 X146.223 Y37.295 E13.38027
G1 X146.851 Y37.105 E13.41301
G1 X147.108 Y37.044 E13.42618
G1 X148.162 Y36.86 E13.47956
G1 X148.703 Y36.784 E13.50682
G1 X149.255 Y36.736 E13.53446
G1 X149.878 Y36.722 E13.56555
G1 X150.551 Y36.73 E13.59913
G1 X151.133 Y36.769 E13.62823
G1 X151.269 Y36.783 E13.63505
G1 X152.19 Y36.91 E13.68144
G1 X152.909 Y37.043 E13.71792
G1 X153.101 Y37.092 E13.7278
G1 X154.025 Y37.37 E13.77594
G1 X154.637 Y37.574 E13.80813
G1 X154.876 Y37.669 E13.82096
G1 X155.764 Y38.087 E13.86992
G1 X156.271 Y38.345 E13.8983
G1 X156.793 Y38.646 E13.92837
G1 X157.231 Y38.947 E13.95488
G1 X158.009 Y39.508 E14.00273
G1 X158.217 Y39.678 E14.01614
G1 X158.862 Y40.277 E14.06005
G1 X159.484 Y40.892 E14.10369
G1 X159.659 Y41.087 E14.11676
G1 X160.289 Y41.881 E14.16733
G1 X160.665 Y42.387 E14.19878
G1 X160.94 Y42.824 E14.22454
G1 X161.282 Y43.437 E14.25956
G1 X161.651 Y44.134 E14.29891
G1 X161.819 Y44.515 E14.31968
G1 X162.018 Y45.045 E14.34793
G1 X162.32 Y45.916 E14.39392
G1 X162.385 Y46.145 E14.40579
G1 X162.593 Y47.062 E14.4527
G1 X162.692 Y47.559 E14.47799
G1 X162.778 Y48.079 E14.50428
G1 X162.811 Y48.565 E14.52859
G1 X162.833 Y49.246 E14.56258
G1 X162.846 Y49.84 E14.59222
G1 X162.836 Y50.244 E14.61238
G1 X162.766 Y50.996 E14.65006
G1 X162.69 Y51.616 E14.68123
G1 X162.592 Y52.16 E14.7088
G1 X162.4 Y52.898 E14.74685
G1 X162.191 Y53.628 E14.78473
G1 X161.963 Y54.26 E14.81825
G1 X161.75 Y54.743 E14.84459
G1 X161.412 Y55.468 E14.88449
G1 X161.059 Y56.1 E14.92061
G1 X161.01 Y56.18 E14.92529
G1 X160.47 Y57.001 E14.97432
G1 X160.128 Y57.482 E15.00376
G1 X159.992 Y57.648 E15.01447
G1 X159.601 Y58.094 E15.04406
G1 X159.099 Y58.643 E15.08117
G1 X158.807 Y58.926 E15.10146
G1 X158.203 Y59.433 E15.1408
G1 X157.907 Y59.674 E15.15984
G1 X157.404 Y60.067 E15.19169
G1 X157.148 Y60.243 E15.20719
G1 X156.683 Y60.529 E15.23443
G1 X155.994 Y60.927 E15.27412
G1 X155.463 Y61.191 E15.30371
G1 X154.747 Y61.495 E15.34252
G1 X154.1 Y61.744 E15.3771
G1 X153.862 Y61.819 E15.38955
G1 X152.938 Y62.057 E15.43716
G1 X152.739 Y62.105 E15.44737
G1 X152.059 Y62.26 E15.48216
G1 X151.751 Y62.308 E15.49772
G1 X150.914 Y62.376 E15.53961
G1 X150.143 Y62.418 E15.57813
