;FLAVOR:Marlin
;TIME:4360
;Filament used: 0m, 4.65313m
;Layer height: 0.3
;MINX:35.372
;MINY:34.26
;MINZ:0.3
;MAXX:66.368
;MAXY:63.154
;MAXZ:53.4
;Generated with Cura_SteamEngine 4.12.1
T1
M82 ;absolute extrusion mode
G21 ;metric values
G28 ;home all
G90 ;absolute positioning
M107 ;start with the fan off
G1 F2400 Z15.0 ;raise the nozzle 15mm
M109 S220 ;Set Extruder Temperature and Wait
M190 S60; Wait for bed temperature to reach target temp
T0 ;Switch to Extruder 1
G1 F3000 X5 Y10 Z0.2 ;move to prime start position
G92 E0 ;reset extrusion distance
G1 F600 X160 E5 ;prime nozzle in a line
G1 F5000 X180 ;quick wipe
G92 E0 ;reset extrusion distance
G92 E0

T1 ;switch to extruder 2
G92 E0 ;reset extruder distance
G1 F2000 E93 ;load filament
G92 E0 ;reset extruder distance
M104 S220
G92 E0
G1 F3000 E-5
;LAYER_COUNT:178
;LAYER:0
M107
G0 F3600 X41.364 Y38.816 Z0.3
;TYPE:SKIRT
G1 F3000 E0
G1 F1500 X42.469 Y37.748 E0.07667
G1 X42.921 Y37.375 E0.10591
G1 X43.908 Y36.68 E0.16613
G1 X44.353 Y36.372 E0.19313
G1 X44.828 Y36.093 E0.22061
G1 X44.904 Y36.063 E0.22469
G1 X46.177 Y35.424 E0.29575
G1 X46.758 Y35.19 E0.327
G1 X48.434 Y34.671 E0.41454
G1 X48.942 Y34.551 E0.44058
G1 X50.347 Y34.32 E0.51161
G1 X50.965 Y34.265 E0.54257
G1 X51.159 Y34.26 E0.55225
G1 X52.734 Y34.26 E0.63083
G1 X53.363 Y34.307 E0.6623
G1 X53.51 Y34.326 E0.66969
G1 X54.787 Y34.52 E0.73413
G1 X55.554 Y34.699 E0.77343
G1 X57.055 Y35.174 E0.85197
G1 X57.598 Y35.393 E0.88118
G1 X58.983 Y36.08 E0.95831
G1 X59.599 Y36.453 E0.99424
G1 X60.186 Y36.882 E1.03051
G1 X60.879 Y37.348 E1.07218
G1 X61.341 Y37.735 E1.10224
G1 X62.56 Y38.909 E1.18668
G1 X62.945 Y39.341 E1.21555
G1 X63.845 Y40.521 E1.28959
G1 X64.156 Y40.999 E1.31804
G1 X64.92 Y42.393 E1.39735
G1 X65.007 Y42.559 E1.4067
G1 X65.211 Y43.022 E1.43194
G1 X65.781 Y44.586 E1.51499
G1 X65.937 Y45.143 E1.54385
G1 X66.232 Y46.621 E1.61904
G1 X66.304 Y47.235 E1.64988
G1 X66.368 Y49.109 E1.74343
G1 X66.344 Y49.68 E1.77194
G1 X66.173 Y51.142 E1.84538
G1 X66.063 Y51.708 E1.87414
G1 X65.702 Y53.019 E1.94198
G1 X65.601 Y53.372 E1.9603
G1 X65.417 Y53.878 E1.98716
G1 X64.772 Y55.321 E2.06602
G1 X64.491 Y55.839 E2.09542
G1 X63.616 Y57.186 E2.17556
G1 X63.531 Y57.313 E2.18318
G1 X63.212 Y57.725 E2.20918
G1 X62.171 Y58.895 E2.28731
G1 X61.748 Y59.302 E2.31659
G1 X60.431 Y60.387 E2.40173
G1 X59.945 Y60.727 E2.43132
G1 X58.629 Y61.503 E2.50754
G1 X58.13 Y61.75 E2.53531
G1 X56.588 Y62.377 E2.61836
G1 X56.032 Y62.555 E2.64749
G1 X54.405 Y62.94 E2.7309
G1 X53.822 Y63.031 E2.76034
G1 X52.228 Y63.154 E2.8401
G1 X51.454 Y63.149 E2.87872
G1 X51.308 Y63.141 E2.88601
G1 X50.133 Y63.05 E2.94481
G1 X49.445 Y62.943 E2.97954
G1 X47.871 Y62.576 E3.06018
G1 X47.346 Y62.413 E3.0876
G1 X45.801 Y61.807 E3.1704
G1 X45.249 Y61.536 E3.20108
G1 X43.868 Y60.716 E3.28121
G1 X43.39 Y60.381 E3.31033
G1 X42.113 Y59.328 E3.39291
G1 X41.601 Y58.834 E3.4284
G1 X40.584 Y57.692 E3.50469
G1 X40.222 Y57.214 E3.53461
G1 X39.348 Y55.849 E3.61547
G1 X39.065 Y55.292 E3.64664
G1 X39.057 Y55.296 E3.64709
G1 X38.399 Y53.817 E3.72785
G1 X38.207 Y53.279 E3.75635
G1 X37.748 Y51.608 E3.8428
G1 X37.638 Y51.041 E3.87162
G1 X37.485 Y49.73 E3.93747
G1 X37.459 Y49.297 E3.95911
G1 X37.458 Y48.755 E3.98615
G1 X37.478 Y48.228 E4.01246
G1 X37.567 Y47.035 E4.07214
G1 X37.623 Y46.606 E4.09373
G1 X37.898 Y45.165 E4.16692
G1 X38.055 Y44.592 E4.19656
G1 X38.616 Y43.031 E4.27931
G1 X38.858 Y42.492 E4.30879
G1 X39.642 Y41.059 E4.39028
G1 X39.949 Y40.586 E4.41842
G1 X40.894 Y39.341 E4.4964
G1 X41.009 Y39.212 E4.50502
G0 F1350 X41.364 Y38.816
G0 F3600 X41.651 Y39.095
G1 F1500 X42.747 Y38.036 E4.58105
G1 X43.151 Y37.702 E4.60721
G1 X44.136 Y37.009 E4.66729
G1 X44.581 Y36.701 E4.69429
G1 X45.031 Y36.438 E4.72029
G1 X45.108 Y36.408 E4.72442
G1 X46.357 Y35.781 E4.79414
G1 X46.876 Y35.572 E4.82205
G1 X48.552 Y35.053 E4.90959
G1 X49.006 Y34.946 E4.93286
G1 X50.411 Y34.715 E5.0039
G1 X50.986 Y34.664 E5.0327
G1 X51.159 Y34.66 E5.04133
G1 X52.734 Y34.66 E5.11991
G1 X53.318 Y34.704 E5.14912
G1 X53.45 Y34.722 E5.15577
G1 X54.727 Y34.916 E5.22021
G1 X55.434 Y35.08 E5.25642
G1 X56.935 Y35.555 E5.33497
G1 X57.42 Y35.751 E5.36106
G1 X58.805 Y36.438 E5.43819
G1 X59.364 Y36.776 E5.47079
G1 X59.967 Y37.217 E5.50806
G1 X60.632 Y37.662 E5.54798
G1 X61.064 Y38.023 E5.57606
G1 X62.283 Y39.197 E5.6605
G1 X62.627 Y39.584 E5.68633
G1 X63.527 Y40.764 E5.76037
G1 X63.805 Y41.191 E5.78579
G1 X64.565 Y42.579 E5.86474
G1 X64.835 Y43.159 E5.89666
G1 X65.405 Y44.723 E5.97971
G1 X65.545 Y45.222 E6.00556
G1 X65.84 Y46.7 E6.08075
G1 X65.904 Y47.249 E6.10833
G1 X65.968 Y49.123 E6.20188
G1 X65.947 Y49.634 E6.22739
G1 X65.776 Y51.096 E6.30083
G1 X65.677 Y51.602 E6.32655
G1 X65.318 Y52.909 E6.39417
G1 X65.052 Y53.714 E6.43647
G1 X64.407 Y55.157 E6.51533
G1 X64.155 Y55.621 E6.54167
G1 X63.284 Y56.963 E6.62149
G1 X62.913 Y57.459 E6.65239
G1 X61.872 Y58.629 E6.73052
G1 X61.494 Y58.993 E6.7567
G1 X60.177 Y60.078 E6.84183
G1 X59.742 Y60.383 E6.86834
G1 X58.426 Y61.159 E6.94456
G1 X57.98 Y61.38 E6.96939
G1 X56.438 Y62.007 E7.05244
G1 X55.94 Y62.166 E7.07852
G1 X54.313 Y62.551 E7.16193
G1 X53.792 Y62.632 E7.18824
G1 X52.198 Y62.755 E7.268
G1 X51.469 Y62.749 E7.30437
G1 X51.338 Y62.742 E7.31092
G1 X50.163 Y62.651 E7.36971
G1 X49.536 Y62.553 E7.40137
G1 X47.962 Y62.186 E7.48201
G1 X47.492 Y62.04 E7.50656
G1 X45.947 Y61.434 E7.58936
G1 X45.453 Y61.192 E7.6168
G1 X44.072 Y60.372 E7.69693
G1 X43.645 Y60.072 E7.72297
G1 X42.368 Y59.019 E7.80554
G1 X41.9 Y58.568 E7.83797
G1 X40.883 Y57.426 E7.91426
G1 X40.559 Y56.998 E7.94104
G1 X39.685 Y55.633 E8.02191
G1 X39.429 Y55.13 E8.05006
G1 X39.423 Y55.133 E8.0504
G1 X38.765 Y53.654 E8.13116
G1 X38.592 Y53.173 E8.15666
G1 X38.133 Y51.502 E8.24312
G1 X38.035 Y50.995 E8.26888
G1 X37.882 Y49.684 E8.33473
G1 X37.859 Y49.296 E8.35412
G1 X37.858 Y48.754 E8.38116
G1 X37.876 Y48.258 E8.40592
G1 X37.965 Y47.065 E8.46561
G1 X38.016 Y46.681 E8.48493
G1 X38.291 Y45.24 E8.55812
G1 X38.431 Y44.727 E8.58465
G1 X38.992 Y43.166 E8.66741
G1 X39.209 Y42.684 E8.69378
G1 X39.993 Y41.251 E8.77527
G1 X40.268 Y40.827 E8.80048
G1 X41.213 Y39.582 E8.87846
G1 X41.295 Y39.491 E8.88458
G0 F1350 X41.651 Y39.095
G0 F3600 X41.938 Y39.374
G1 F1500 X42.007 Y39.305 E8.88944
G1 X43.024 Y38.324 E8.95994
G1 X43.381 Y38.029 E8.98304
G1 X44.364 Y37.338 E9.04299
G1 X44.809 Y37.03 E9.06999
G1 X45.301 Y36.759 E9.09801
G1 X46.536 Y36.139 E9.16696
G1 X46.995 Y35.954 E9.19165
G1 X48.671 Y35.435 E9.27918
G1 X49.071 Y35.341 E9.29968
G1 X50.476 Y35.11 E9.37072
G1 X51.006 Y35.064 E9.39726
G1 X51.159 Y35.06 E9.40489
G1 X52.734 Y35.06 E9.48347
G1 X53.273 Y35.102 E9.51044
G1 X53.39 Y35.117 E9.51633
G1 X54.667 Y35.311 E9.58077
G1 X55.313 Y35.462 E9.61387
G1 X56.814 Y35.937 E9.69241
G1 X57.242 Y36.109 E9.71543
G1 X58.627 Y36.796 E9.79256
G1 X59.128 Y37.099 E9.82177
G1 X59.745 Y37.549 E9.85987
G1 X60.385 Y37.977 E9.89828
G1 X60.786 Y38.311 E9.92432
G1 X62.005 Y39.485 E10.00875
G1 X62.309 Y39.827 E10.03158
G1 X63.209 Y41.007 E10.10562
G1 X63.454 Y41.383 E10.12801
G1 X64.211 Y42.764 E10.20658
G1 X64.46 Y43.296 E10.23588
G1 X65.03 Y44.86 E10.31893
G1 X65.153 Y45.3 E10.34172
G1 X65.448 Y46.778 E10.41692
G1 X65.504 Y47.263 E10.44127
G1 X65.568 Y49.137 E10.53482
G1 X65.55 Y49.588 E10.55734
G1 X65.379 Y51.05 E10.63078
G1 X65.292 Y51.496 E10.65345
G1 X64.933 Y52.799 E10.72088
G1 X64.687 Y53.551 E10.76035
G1 X64.042 Y54.994 E10.83921
G1 X63.819 Y55.403 E10.86245
G1 X62.951 Y56.741 E10.94202
G1 X62.614 Y57.193 E10.97015
G1 X61.573 Y58.363 E11.04828
G1 X61.24 Y58.684 E11.07135
G1 X59.923 Y59.769 E11.15649
G1 X59.539 Y60.038 E11.17988
G1 X58.223 Y60.814 E11.2561
G1 X57.829 Y61.009 E11.27803
G1 X56.287 Y61.636 E11.36108
G1 X55.848 Y61.776 E11.38406
G1 X54.221 Y62.161 E11.46748
G1 X53.761 Y62.233 E11.49071
G1 X52.167 Y62.356 E11.57047
G1 X51.485 Y62.35 E11.60449
G1 X51.369 Y62.343 E11.61029
G1 X50.194 Y62.252 E11.66909
G1 X49.627 Y62.164 E11.69771
G1 X48.053 Y61.797 E11.77835
G1 X47.639 Y61.668 E11.79998
G1 X46.094 Y61.062 E11.88278
G1 X45.657 Y60.849 E11.90703
G1 X44.276 Y60.029 E11.98716
G1 X43.899 Y59.764 E12.01015
G1 X42.622 Y58.711 E12.09273
G1 X42.199 Y58.302 E12.12208
G1 X41.182 Y57.16 E12.19838
G1 X40.896 Y56.783 E12.22198
G1 X40.022 Y55.418 E12.30285
G1 X39.793 Y54.968 E12.32804
G1 X39.788 Y54.97 E12.32831
G1 X39.13 Y53.491 E12.40907
G1 X38.978 Y53.067 E12.43154
G1 X38.519 Y51.396 E12.51799
G1 X38.432 Y50.949 E12.54071
G1 X38.279 Y49.638 E12.60656
G1 X38.259 Y49.296 E12.62365
G1 X38.258 Y48.754 E12.6507
G1 X38.275 Y48.288 E12.67396
G1 X38.364 Y47.095 E12.73364
G1 X38.409 Y46.756 E12.75071
G1 X38.684 Y45.315 E12.82389
G1 X38.808 Y44.862 E12.84733
G1 X39.369 Y43.301 E12.93008
G1 X39.56 Y42.876 E12.95333
G1 X40.344 Y41.443 E13.03482
G1 X40.586 Y41.069 E13.05704
G1 X41.531 Y39.824 E13.13502
G1 X41.581 Y39.769 E13.13873
G0 F1350 X41.938 Y39.374
G0 F3600 X42.225 Y39.653
G1 F1500 X42.285 Y39.593 E13.14297
G1 X43.302 Y38.612 E13.21346
G1 X43.611 Y38.356 E13.23348
G1 X44.591 Y37.667 E13.29325
G1 X45.036 Y37.359 E13.32025
G1 X45.485 Y37.114 E13.34577
G1 X46.716 Y36.496 E13.41449
G1 X47.113 Y36.336 E13.43584
G1 X48.789 Y35.817 E13.52337
G1 X49.136 Y35.735 E13.54116
G1 X50.541 Y35.504 E13.6122
G1 X51.159 Y35.46 E13.64311
G1 X52.734 Y35.46 E13.72169
G1 X53.33 Y35.512 E13.75154
G1 X54.607 Y35.706 E13.81598
G1 X55.192 Y35.843 E13.84595
G1 X56.693 Y36.318 E13.9245
G1 X57.064 Y36.468 E13.94446
G1 X58.449 Y37.155 E14.02159
G1 X58.892 Y37.422 E14.0474
G1 X59.517 Y37.879 E14.08603
G1 X59.939 Y38.15 E14.11105
G1 X60.509 Y38.599 E14.14725
G1 X61.728 Y39.773 E14.23168
G1 X61.991 Y40.069 E14.25144
G1 X62.891 Y41.249 E14.32548
G1 X63.104 Y41.576 E14.34495
G1 X63.857 Y42.95 E14.42311
G1 X64.084 Y43.433 E14.44974
G1 X64.654 Y44.997 E14.53279
G1 X64.761 Y45.378 E14.55253
G1 X65.056 Y46.856 E14.62772
G1 X65.104 Y47.276 E14.64881
G1 X65.168 Y49.15 E14.74236
G1 X65.152 Y49.541 E14.76189
G1 X64.981 Y51.003 E14.83532
G1 X64.906 Y51.39 E14.85499
G1 X64.549 Y52.689 E14.9222
G1 X64.322 Y53.388 E14.95887
G1 X63.677 Y54.831 E15.03772
G1 X63.484 Y55.185 E15.05784
G1 X62.619 Y56.518 E15.13712
G1 X62.315 Y56.927 E15.16254
G1 X61.274 Y58.097 E15.24067
G1 X60.985 Y58.376 E15.26071
G1 X59.668 Y59.461 E15.34584
G1 X59.336 Y59.694 E15.36608
G1 X58.02 Y60.47 E15.4423
G1 X57.678 Y60.639 E15.46133
G1 X56.136 Y61.266 E15.54438
G1 X55.756 Y61.387 E15.56428
G1 X54.129 Y61.772 E15.64769
G1 X53.73 Y61.834 E15.66783
G1 X52.136 Y61.957 E15.7476
G1 X51.5 Y61.95 E15.77933
G1 X51.4 Y61.944 E15.78433
G1 X50.225 Y61.853 E15.84312
G1 X49.718 Y61.774 E15.86872
G1 X48.144 Y61.407 E15.94935
G1 X47.785 Y61.295 E15.96812
G1 X46.24 Y60.689 E16.05091
G1 X45.862 Y60.505 E16.07189
G1 X44.481 Y59.685 E16.15202
G1 X44.154 Y59.455 E16.17196
G1 X42.877 Y58.402 E16.25454
G1 X42.497 Y58.036 E16.28086
G1 X41.48 Y56.894 E16.35715
G1 X41.232 Y56.567 E16.37763
G1 X40.358 Y55.202 E16.45849
G1 X40.153 Y54.808 E16.48065
G1 X39.495 Y53.329 E16.56141
G1 X39.364 Y52.961 E16.5809
G1 X38.905 Y51.29 E16.66735
G1 X38.83 Y50.902 E16.68707
G1 X38.677 Y49.591 E16.75292
G1 X38.659 Y49.295 E16.76771
G1 X38.658 Y48.753 E16.79475
G1 X38.674 Y48.318 E16.81647
G1 X38.763 Y47.125 E16.87616
G1 X38.802 Y46.831 E16.89095
G1 X39.077 Y45.39 E16.96414
G1 X39.184 Y44.998 E16.98441
G1 X39.745 Y43.437 E17.06717
G1 X39.911 Y43.068 E17.08736
G1 X40.695 Y41.635 E17.16885
G1 X40.905 Y41.311 E17.18811
G1 X41.85 Y40.066 E17.26609
G1 X41.867 Y40.047 E17.26736
G0 F1350 X42.225 Y39.653
G0 F3600 X42.512 Y39.931
G1 F1500 X43.58 Y38.9 E17.34142
G1 X43.841 Y38.684 E17.35832
G1 X44.819 Y37.996 E17.41798
G1 X45.264 Y37.688 E17.44498
G1 X45.674 Y37.467 E17.46822
G1 X46.895 Y36.854 E17.53638
G1 X47.231 Y36.718 E17.55446
G1 X48.907 Y36.199 E17.642
G1 X49.201 Y36.13 E17.65706
G1 X50.606 Y35.899 E17.7281
G1 X51.159 Y35.86 E17.75576
G1 X52.734 Y35.86 E17.83434
G1 X53.269 Y35.908 E17.86113
G1 X54.546 Y36.102 E17.92557
G1 X55.072 Y36.225 E17.95252
G1 X56.573 Y36.7 E18.03107
G1 X56.887 Y36.826 E18.04795
G1 X58.272 Y37.513 E18.12508
G1 X58.656 Y37.745 E18.14746
G1 X59.294 Y38.211 E18.18688
G1 X59.723 Y38.487 E18.21233
G1 X60.231 Y38.887 E18.24459
G1 X61.45 Y40.061 E18.32902
G1 X61.673 Y40.312 E18.34577
G1 X62.573 Y41.492 E18.41981
G1 X62.753 Y41.768 E18.43625
G1 X63.503 Y43.136 E18.51409
G1 X63.708 Y43.57 E18.53803
G1 X64.278 Y45.134 E18.62108
G1 X64.368 Y45.456 E18.63776
G1 X64.663 Y46.934 E18.71295
G1 X64.705 Y47.29 E18.73084
G1 X64.769 Y49.164 E18.82439
G1 X64.755 Y49.495 E18.84092
G1 X64.584 Y50.957 E18.91435
G1 X64.52 Y51.284 E18.93098
G1 X64.164 Y52.579 E18.99798
G1 X63.956 Y53.225 E19.03184
G1 X63.311 Y54.668 E19.11069
G1 X63.148 Y54.968 E19.12773
G1 X62.286 Y56.296 E19.20672
G1 X62.017 Y56.661 E19.22934
G1 X60.976 Y57.831 E19.30747
G1 X60.731 Y58.067 E19.32444
G1 X59.414 Y59.152 E19.40957
G1 X59.132 Y59.349 E19.42673
G1 X57.816 Y60.125 E19.50295
G1 X57.528 Y60.268 E19.519
G1 X55.986 Y60.895 E19.60204
G1 X55.664 Y60.998 E19.61891
G1 X54.037 Y61.383 E19.70232
G1 X53.699 Y61.435 E19.71938
G1 X52.105 Y61.558 E19.79915
G1 X51.516 Y61.55 E19.82853
G1 X51.431 Y61.545 E19.83278
G1 X50.256 Y61.454 E19.89158
G1 X49.808 Y61.385 E19.91419
G1 X48.234 Y61.018 E19.99483
G1 X47.931 Y60.923 E20.01067
G1 X46.386 Y60.317 E20.09347
G1 X46.066 Y60.161 E20.11123
G1 X44.685 Y59.341 E20.19136
G1 X44.408 Y59.146 E20.20826
G1 X43.131 Y58.093 E20.29083
G1 X42.796 Y57.77 E20.31405
G1 X41.779 Y56.628 E20.39034
G1 X41.569 Y56.351 E20.40768
G1 X40.695 Y54.986 E20.48855
G1 X40.519 Y54.645 E20.50769
G1 X39.861 Y53.166 E20.58845
G1 X39.75 Y52.855 E20.60493
G1 X39.291 Y51.184 E20.69138
G1 X39.227 Y50.856 E20.70805
G1 X39.074 Y49.545 E20.7739
G1 X39.059 Y49.294 E20.78645
G1 X39.058 Y48.752 E20.81349
G1 X39.073 Y48.347 E20.83371
G1 X39.162 Y47.154 E20.89339
G1 X39.195 Y46.906 E20.90587
G1 X39.47 Y45.465 E20.97906
G1 X39.561 Y45.133 E20.99624
G1 X40.122 Y43.572 E21.07899
G1 X40.262 Y43.26 E21.09605
G1 X41.046 Y41.827 E21.17755
G1 X41.224 Y41.553 E21.19385
G1 X42.156 Y40.326 E21.27072
G0 F1350 X42.169 Y40.308
G0 X42.512 Y39.931
G0 F3600 X42.84 Y40.168
G1 F1500 X43.857 Y39.187 E21.34122
G1 X44.071 Y39.011 E21.35504
G1 X45.047 Y38.325 E21.41456
G1 X45.492 Y38.017 E21.44156
G1 X45.752 Y37.875 E21.45634
G1 X47.075 Y37.211 E21.53019
G1 X47.35 Y37.101 E21.54497
G1 X49.026 Y36.582 E21.6325
G1 X49.266 Y36.525 E21.64481
G1 X50.671 Y36.294 E21.71584
G1 X51.159 Y36.26 E21.74025
G1 X52.734 Y36.26 E21.81882
G1 X53.209 Y36.303 E21.84262
G1 X54.486 Y36.497 E21.90706
G1 X54.951 Y36.606 E21.93089
G1 X56.452 Y37.081 E22.00943
G1 X56.709 Y37.184 E22.02325
G1 X58.094 Y37.871 E22.10038
G1 X58.42 Y38.068 E22.11938
G1 X59.06 Y38.536 E22.15894
G1 X59.507 Y38.823 E22.18544
G1 X59.954 Y39.176 E22.21386
G1 X61.173 Y40.35 E22.29829
G1 X61.355 Y40.554 E22.31193
G1 X62.255 Y41.734 E22.38597
G1 X62.402 Y41.96 E22.39942
G1 X63.148 Y43.321 E22.47685
G1 X63.332 Y43.707 E22.49818
G1 X63.902 Y45.271 E22.58123
G1 X63.976 Y45.535 E22.59491
G1 X64.271 Y47.013 E22.6701
G1 X64.305 Y47.304 E22.68472
G1 X64.369 Y49.178 E22.77827
G1 X64.358 Y49.448 E22.79175
G1 X64.187 Y50.91 E22.86519
G1 X64.135 Y51.178 E22.87881
G1 X63.78 Y52.469 E22.94561
G1 X63.591 Y53.062 E22.97666
G1 X62.946 Y54.505 E23.05551
G1 X62.813 Y54.75 E23.06942
G1 X61.954 Y56.073 E23.14812
G1 X61.718 Y56.395 E23.16804
G1 X60.677 Y57.565 E23.24617
G1 X60.477 Y57.758 E23.26003
G1 X59.16 Y58.843 E23.34517
G1 X58.929 Y59.005 E23.35924
G1 X57.613 Y59.781 E23.43546
G1 X57.377 Y59.897 E23.44858
G1 X55.835 Y60.524 E23.53163
G1 X55.571 Y60.609 E23.54547
G1 X53.944 Y60.994 E23.62888
G1 X53.668 Y61.037 E23.64281
G1 X52.074 Y61.16 E23.72258
G1 X51.531 Y61.151 E23.74967
G1 X50.287 Y61.056 E23.81191
G1 X49.899 Y60.995 E23.83151
G1 X48.325 Y60.628 E23.91214
G1 X48.077 Y60.551 E23.9251
G1 X46.532 Y59.945 E24.0079
G1 X46.27 Y59.817 E24.02244
G1 X44.889 Y58.997 E24.10257
G1 X44.663 Y58.838 E24.11636
G1 X43.386 Y57.785 E24.19893
G1 X43.095 Y57.504 E24.21912
G1 X42.078 Y56.362 E24.29541
G1 X41.906 Y56.136 E24.30958
G1 X41.032 Y54.771 E24.39044
G1 X40.884 Y54.483 E24.4066
G1 X40.226 Y53.004 E24.48736
G1 X40.135 Y52.749 E24.50086
G1 X39.676 Y51.078 E24.58732
G1 X39.624 Y50.81 E24.60094
