;FLAVOR:Marlin
;TIME:13131
;Filament used: 0m, 17.3997m
;Layer height: 0.3
;MINX:55.35
;MINY:7.748
;MINZ:0.3
;MAXX:126.425
;MAXY:78.796
;MAXZ:33
;Generated with Cura_SteamEngine 4.12.1
T1
M82 ;absolute extrusion mode
G21 ;metric values
G28 ;home all
G90 ;absolute positioning
M107 ;start with the fan off
G1 F2400 Z15.0 ;raise the nozzle 15mm
M109 S220 ;Set Extruder Temperature and Wait
M190 S60; Wait for bed temperature to reach target temp
T0 ;Switch to Extruder 1
G1 F3000 X5 Y10 Z0.2 ;move to prime start position
G92 E0 ;reset extrusion distance
G1 F600 X160 E5 ;prime nozzle in a line
G1 F5000 X180 ;quick wipe
G92 E0 ;reset extrusion distance
G92 E0

T1 ;switch to extruder 2
G92 E0 ;reset extruder distance
G1 F2000 E93 ;load filament
G92 E0 ;reset extruder distance
M104 S220
G92 E0
G1 F3000 E-5
;LAYER_COUNT:110
;LAYER:0
M107
G0 F3600 X81.273 Y38.338 Z0.3
;TYPE:SKIRT
G1 F3000 E0
G1 F1500 X80.619 Y39.924 E0.08559
G1 X80.239 Y41.547 E0.16875
G1 X80.099 Y43.246 E0.2538
G1 X80.229 Y44.957 E0.33941
G1 X80.62 Y46.594 E0.42338
G1 X81.246 Y48.114 E0.50539
G1 X82.158 Y49.603 E0.5925
G1 X83.26 Y50.887 E0.67692
G1 X84.545 Y51.99 E0.76141
G1 X86.014 Y52.89 E0.84736
G1 X87.526 Y53.52 E0.92908
G1 X89.163 Y53.908 E1.01301
G1 X90.888 Y54.043 E1.09933
G1 X92.614 Y53.908 E1.18571
G1 X94.243 Y53.522 E1.26923
G1 X95.765 Y52.887 E1.35151
G1 X97.225 Y51.992 E1.43694
G1 X98.521 Y50.881 E1.52211
G1 X99.625 Y49.593 E1.60674
G1 X100.535 Y48.11 E1.69355
G1 X101.146 Y46.618 E1.77398
G1 X101.548 Y44.952 E1.85948
G1 X101.676 Y43.251 E1.94459
G1 X101.536 Y41.554 E2.02954
G1 X101.152 Y39.904 E2.11406
G1 X100.51 Y38.349 E2.19799
G1 X99.637 Y36.923 E2.28141
G1 X98.518 Y35.621 E2.36706
G1 X97.214 Y34.506 E2.45265
G1 X95.781 Y33.628 E2.5365
G1 X94.262 Y32.997 E2.61856
G1 X92.589 Y32.6 E2.70434
G1 X90.878 Y32.463 E2.78998
G1 X89.178 Y32.596 E2.87505
G1 X87.525 Y32.992 E2.95985
G1 X85.995 Y33.629 E3.04254
G1 X84.557 Y34.507 E3.12659
G1 X83.267 Y35.611 E3.2113
G1 X82.132 Y36.935 E3.29831
G1 X81.55 Y37.885 E3.35389
G0 F1350 X81.273 Y38.338
G0 F3600 X80.914 Y38.158
G1 F1500 X80.238 Y39.796 E3.4423
G1 X79.843 Y41.484 E3.52879
G1 X79.698 Y43.248 E3.61709
G1 X79.832 Y45.018 E3.70565
G1 X80.239 Y46.718 E3.79286
G1 X80.888 Y48.296 E3.87798
G1 X81.832 Y49.836 E3.9681
G1 X82.977 Y51.171 E4.05584
G1 X84.312 Y52.316 E4.14359
G1 X85.83 Y53.247 E4.23243
G1 X87.402 Y53.901 E4.31738
G1 X89.097 Y54.303 E4.40429
G1 X90.888 Y54.443 E4.49391
G1 X92.679 Y54.303 E4.58354
G1 X94.367 Y53.903 E4.67008
G1 X95.949 Y53.244 E4.75558
G1 X97.465 Y52.314 E4.84432
G1 X98.802 Y51.168 E4.93217
G1 X99.949 Y49.83 E5.02009
G1 X100.892 Y48.294 E5.11001
G1 X101.528 Y46.74 E5.19378
G1 X101.945 Y45.014 E5.28237
G1 X102.078 Y43.248 E5.37073
G1 X101.933 Y41.491 E5.45868
G1 X101.536 Y39.79 E5.54583
G1 X100.864 Y38.163 E5.63365
G1 X99.961 Y36.687 E5.71998
G1 X98.801 Y35.337 E5.80878
G1 X97.451 Y34.182 E5.89741
G1 X95.966 Y33.272 E5.9843
G1 X94.383 Y32.615 E6.06981
G1 X92.649 Y32.203 E6.15873
G1 X90.885 Y32.062 E6.24702
G1 X89.109 Y32.201 E6.33589
G1 X87.403 Y32.61 E6.42342
G1 X85.816 Y33.27 E6.50917
G1 X84.318 Y34.185 E6.59674
G1 X82.983 Y35.328 E6.68442
G1 X81.808 Y36.699 E6.77451
G1 X81.191 Y37.705 E6.83338
G0 F1350 X80.914 Y38.158
G0 F3600 X80.556 Y37.977
G1 F1500 X79.855 Y39.676 E6.92508
G1 X79.447 Y41.421 E7.01448
G1 X79.296 Y43.247 E7.10589
G1 X79.436 Y45.079 E7.19756
G1 X79.856 Y46.835 E7.28764
G1 X80.533 Y48.482 E7.37648
G1 X81.51 Y50.076 E7.46975
G1 X82.692 Y51.455 E7.56037
G1 X84.072 Y52.638 E7.65105
G1 X85.647 Y53.604 E7.74323
G1 X87.277 Y54.282 E7.8313
G1 X89.038 Y54.7 E7.9216
G1 X90.888 Y54.845 E8.01418
G1 X92.74 Y54.7 E8.10686
G1 X94.496 Y54.284 E8.19689
G1 X96.127 Y53.604 E8.28505
G1 X97.702 Y52.638 E8.37723
G1 X99.085 Y51.452 E8.46813
G1 X100.275 Y50.063 E8.55938
G1 X101.249 Y48.478 E8.65219
G1 X101.911 Y46.862 E8.73932
G1 X102.34 Y45.083 E8.83061
G1 X102.478 Y43.245 E8.92257
G1 X102.328 Y41.429 E9.01348
G1 X101.916 Y39.661 E9.10405
G1 X101.224 Y37.983 E9.1946
G1 X100.283 Y36.447 E9.28447
G1 X99.088 Y35.055 E9.376
G1 X97.687 Y33.858 E9.46793
G1 X96.151 Y32.916 E9.55783
G1 X94.505 Y32.233 E9.64674
G1 X92.709 Y31.806 E9.73884
G1 X90.885 Y31.66 E9.83013
G1 X89.048 Y31.805 E9.92206
G1 X87.279 Y32.228 E10.01281
G1 X85.631 Y32.914 E10.10186
G1 X84.084 Y33.859 E10.1923
G1 X82.699 Y35.044 E10.28324
G1 X81.484 Y36.462 E10.3764
G1 X80.833 Y37.524 E10.43855
G0 F1350 X80.556 Y37.977
G0 F3600 X80.2 Y37.792
G1 F1500 X79.474 Y39.554 E10.53363
G1 X79.05 Y41.364 E10.62637
G1 X78.895 Y43.236 E10.72009
G1 X79.04 Y45.146 E10.81565
G1 X79.474 Y46.959 E10.90866
G1 X80.175 Y48.664 E11.00063
G1 X81.186 Y50.312 E11.09709
G1 X82.409 Y51.738 E11.19081
G1 X83.836 Y52.962 E11.28461
G1 X85.469 Y53.964 E11.38019
G1 X87.149 Y54.663 E11.47097
G1 X88.977 Y55.097 E11.56471
G1 X90.888 Y55.246 E11.66034
G1 X92.799 Y55.097 E11.75596
G1 X94.618 Y54.665 E11.84924
G1 X96.312 Y53.96 E11.94078
G1 X97.938 Y52.962 E12.03596
G1 X99.369 Y51.735 E12.13001
G1 X100.599 Y50.3 E12.2243
G1 X101.605 Y48.661 E12.32024
G1 X102.293 Y46.982 E12.41077
G1 X102.736 Y45.145 E12.50505
G1 X102.88 Y43.242 E12.60026
G1 X102.725 Y41.366 E12.69417
G1 X102.299 Y39.539 E12.78777
G1 X101.583 Y37.804 E12.88141
G1 X100.608 Y36.211 E12.97459
G1 X99.37 Y34.771 E13.06933
G1 X97.923 Y33.534 E13.1643
G1 X96.329 Y32.556 E13.2576
G1 X94.633 Y31.852 E13.34922
G1 X92.776 Y31.411 E13.44444
G1 X90.879 Y31.259 E13.53938
G1 X88.988 Y31.408 E13.63402
G1 X87.15 Y31.848 E13.72831
G1 X85.453 Y32.554 E13.82001
G1 X83.848 Y33.534 E13.91383
G1 X82.416 Y34.76 E14.00788
G1 X81.16 Y36.226 E14.10419
G1 X80.478 Y37.339 E14.16931
G0 F1350 X80.2 Y37.792
G0 F3600 X79.842 Y37.61
G1 F1500 X79.09 Y39.435 E14.26779
G1 X78.655 Y41.292 E14.36294
G1 X78.494 Y43.242 E14.46056
G1 X78.644 Y45.207 E14.55888
G1 X79.092 Y47.083 E14.6551
G1 X79.817 Y48.845 E14.75016
G1 X80.861 Y50.548 E14.84982
G1 X82.125 Y52.022 E14.94669
G1 X83.6 Y53.287 E15.04364
G1 X85.284 Y54.319 E15.14217
G1 X87.027 Y55.045 E15.23637
G1 X88.919 Y55.494 E15.33339
G1 X90.888 Y55.648 E15.43192
G1 X92.857 Y55.494 E15.53045
G1 X94.742 Y55.047 E15.62711
G1 X96.498 Y54.315 E15.72202
G1 X98.172 Y53.289 E15.81997
G1 X99.653 Y52.019 E15.91731
G1 X100.923 Y50.537 E16.01468
G1 X101.963 Y48.843 E16.11385
G1 X102.673 Y47.11 E16.20728
G1 X103.133 Y45.202 E16.3052
G1 X103.281 Y43.246 E16.40307
G1 X103.12 Y41.303 E16.50034
G1 X102.68 Y39.413 E16.59715
G1 X101.938 Y37.617 E16.6941
G1 X100.938 Y35.983 E16.78967
G1 X99.65 Y34.484 E16.88827
G1 X98.16 Y33.209 E16.98611
G1 X96.514 Y32.201 E17.08241
G1 X94.755 Y31.47 E17.17744
G1 X92.835 Y31.014 E17.27589
G1 X90.88 Y30.858 E17.37374
G1 X88.926 Y31.011 E17.47152
G1 X87.029 Y31.465 E17.56884
G1 X85.272 Y32.197 E17.6638
G1 X83.609 Y33.212 E17.761
G1 X82.132 Y34.476 E17.85798
G1 X80.835 Y35.99 E17.95744
G1 X80.12 Y37.157 E18.02572
G0 F1350 X79.842 Y37.61
G0 F3600 X79.483 Y37.431
G1 F1500 X78.709 Y39.307 E18.12697
G1 X78.258 Y41.236 E18.22581
G1 X78.093 Y43.239 E18.32607
G1 X78.247 Y45.268 E18.42759
G1 X78.71 Y47.206 E18.527
G1 X79.459 Y49.027 E18.62524
G1 X80.537 Y50.785 E18.72812
G1 X81.841 Y52.306 E18.82807
G1 X83.363 Y53.611 E18.9281
G1 X85.101 Y54.676 E19.02979
G1 X86.908 Y55.428 E19.12744
G1 X88.847 Y55.889 E19.22687
G1 X90.888 Y56.048 E19.329
G1 X92.931 Y55.888 E19.43124
G1 X94.86 Y55.431 E19.53014
G1 X96.681 Y54.672 E19.62857
G1 X98.409 Y53.613 E19.72968
G1 X99.936 Y52.303 E19.83006
G1 X101.248 Y50.773 E19.93061
G1 X102.321 Y49.024 E20.03298
G1 X103.055 Y47.232 E20.12959
G1 X103.53 Y45.265 E20.23055
G1 X103.682 Y43.243 E20.33171
G1 X103.517 Y41.24 E20.43198
G1 X103.064 Y39.297 E20.53151
G1 X102.296 Y37.436 E20.63196
G1 X101.258 Y35.74 E20.73116
G1 X99.937 Y34.202 E20.83231
G1 X98.396 Y32.885 E20.93344
G1 X96.692 Y31.841 E21.03314
G1 X94.88 Y31.088 E21.13104
G1 X92.9 Y30.618 E21.23256
G1 X90.881 Y30.456 E21.33362
G1 X88.865 Y30.615 E21.43451
G1 X86.905 Y31.084 E21.53505
G1 X85.084 Y31.842 E21.63346
G1 X83.374 Y32.886 E21.73341
G1 X81.852 Y34.189 E21.83337
G1 X80.511 Y35.754 E21.93619
G1 X79.761 Y36.978 E22.00781
G0 F1350 X79.483 Y37.431
G0 F3600 X79.125 Y37.249
G1 F1500 X78.326 Y39.187 E22.11239
G1 X77.861 Y41.173 E22.21416
G1 X77.691 Y43.234 E22.31733
G1 X77.85 Y45.329 E22.42215
G1 X78.329 Y47.332 E22.5249
G1 X79.1 Y49.206 E22.62599
G1 X80.21 Y51.017 E22.73197
G1 X81.558 Y52.589 E22.83528
G1 X83.131 Y53.938 E22.93866
G1 X84.923 Y55.036 E23.04352
G1 X86.779 Y55.809 E23.14382
G1 X88.786 Y56.285 E23.24673
G1 X90.888 Y56.449 E23.35192
G1 X92.99 Y56.285 E23.4571
G1 X94.99 Y55.811 E23.55965
G1 X96.859 Y55.032 E23.66067
G1 X98.645 Y53.937 E23.76519
G1 X100.22 Y52.586 E23.86871
G1 X101.574 Y51.007 E23.97248
G1 X102.677 Y49.21 E24.07768
G1 X103.438 Y47.352 E24.17785
G1 X103.927 Y45.328 E24.28173
G1 X104.084 Y43.24 E24.3862
G1 X103.913 Y41.179 E24.48937
G1 X103.446 Y39.173 E24.59213
G1 X102.655 Y37.256 E24.69559
G1 X101.582 Y35.504 E24.79809
G1 X100.219 Y33.918 E24.90242
G1 X98.632 Y32.561 E25.00659
G1 X96.877 Y31.485 E25.1093
G1 X95 Y30.705 E25.2107
G1 X92.967 Y30.223 E25.31494
G1 X90.882 Y30.056 E25.4193
G1 X88.798 Y30.219 E25.52359
G1 X86.776 Y30.703 E25.62731
G1 X84.909 Y31.481 E25.72822
G1 X83.139 Y32.562 E25.83169
G1 X81.565 Y33.909 E25.93505
G1 X80.187 Y35.517 E26.0407
G1 X79.403 Y36.796 E26.11555
G0 F1350 X79.125 Y37.249
G0 F3600 X78.766 Y37.07
G1 F1500 X77.946 Y39.059 E26.22288
G1 X77.466 Y41.11 E26.32797
G1 X77.29 Y43.24 E26.4346
G1 X77.454 Y45.39 E26.54217
G1 X77.948 Y47.456 E26.64815
G1 X78.742 Y49.387 E26.75232
G1 X79.888 Y51.257 E26.86174
G1 X81.274 Y52.873 E26.96795
G1 X82.891 Y54.26 E27.07423
G1 X84.74 Y55.393 E27.18242
G1 X86.655 Y56.19 E27.28591
G1 X88.727 Y56.682 E27.39215
G1 X90.888 Y56.851 E27.5003
G1 X93.049 Y56.682 E27.60844
G1 X95.114 Y56.192 E27.71432
G1 X97.043 Y55.389 E27.81856
G1 X98.881 Y54.261 E27.92615
G1 X100.504 Y52.87 E28.0328
G1 X101.898 Y51.243 E28.13969
G1 X103.038 Y49.387 E28.24835
G1 X103.818 Y47.482 E28.35105
G1 X104.323 Y45.389 E28.45847
G1 X104.485 Y43.243 E28.56584
G1 X104.309 Y41.114 E28.67242
G1 X103.827 Y39.048 E28.77826
G1 X103.012 Y37.075 E28.88476
G1 X101.906 Y35.268 E28.99046
G1 X100.503 Y33.634 E29.09791
G1 X98.869 Y32.236 E29.20519
G1 X97.062 Y31.129 E29.31091
G1 X95.122 Y30.324 E29.4157
G1 X93.026 Y29.826 E29.52318
G1 X90.882 Y29.654 E29.63049
G1 X88.737 Y29.823 E29.73784
G1 X86.653 Y30.322 E29.84475
G1 X84.721 Y31.126 E29.94915
G1 X82.907 Y32.234 E30.0552
G1 X81.281 Y33.625 E30.16195
G1 X79.862 Y35.281 E30.27075
G1 X79.043 Y36.617 E30.34893
G0 F1350 X78.766 Y37.07
G0 F3600 X78.412 Y36.883
G1 F1500 X77.561 Y38.945 E30.46022
G1 X77.07 Y41.045 E30.56782
G1 X76.889 Y43.236 E30.6775
G1 X77.057 Y45.451 E30.78833
G1 X77.566 Y47.579 E30.89749
G1 X78.384 Y49.569 E31.00483
G1 X79.564 Y51.494 E31.11747
G1 X80.99 Y53.157 E31.22677
G1 X82.654 Y54.584 E31.33613
G1 X84.555 Y55.749 E31.44737
G1 X86.532 Y56.572 E31.5542
G1 X88.668 Y57.079 E31.66373
G1 X90.888 Y57.252 E31.77482
G1 X93.109 Y57.079 E31.88596
G1 X95.235 Y56.575 E31.99497
G1 X97.228 Y55.745 E32.10268
G1 X99.118 Y54.585 E32.21331
G1 X100.787 Y53.154 E32.323
G1 X102.223 Y51.479 E32.43307
G1 X103.396 Y49.568 E32.54494
G1 X104.2 Y47.604 E32.65081
G1 X104.72 Y45.452 E32.76127
G1 X104.886 Y43.24 E32.87194
G1 X104.705 Y41.053 E32.98142
G1 X104.211 Y38.931 E33.09012
G1 X103.368 Y36.89 E33.20029
G1 X102.231 Y35.032 E33.30896
G1 X100.786 Y33.349 E33.41963
G1 X99.105 Y31.912 E33.52996
G1 X97.24 Y30.769 E33.63909
G1 X95.252 Y29.944 E33.74647
G1 X93.085 Y29.429 E33.8576
G1 X90.883 Y29.253 E33.9678
G1 X88.676 Y29.426 E34.07825
G1 X86.532 Y29.939 E34.18823
G1 X84.54 Y30.769 E34.2959
G1 X82.668 Y31.911 E34.4053
G1 X80.998 Y33.341 E34.51499
G1 X79.538 Y35.045 E34.62694
G1 X78.689 Y36.43 E34.70798
G0 F1350 X78.412 Y36.883
G0 F3600 X78.053 Y36.704
G1 F1500 X77.181 Y38.817 E34.82203
G1 X76.672 Y40.99 E34.93337
G1 X76.487 Y43.234 E35.04571
G1 X76.66 Y45.512 E35.15968
G1 X77.184 Y47.703 E35.27207
G1 X78.026 Y49.75 E35.3825
G1 X79.24 Y51.73 E35.49837
G1 X80.707 Y53.44 E35.61078
G1 X82.418 Y54.908 E35.72325
G1 X84.372 Y56.106 E35.8376
G1 X86.409 Y56.954 E35.94768
G1 X88.608 Y57.476 E36.06044
G1 X90.888 Y57.654 E36.17454
G1 X93.168 Y57.476 E36.28863
G1 X95.36 Y56.956 E36.40103
G1 X97.411 Y56.102 E36.51187
G1 X99.354 Y54.91 E36.62559
G1 X101.071 Y53.437 E36.73846
G1 X102.547 Y51.715 E36.85161
G1 X103.753 Y49.751 E36.96659
G1 X104.583 Y47.724 E37.07587
G1 X105.116 Y45.515 E37.18924
G1 X105.288 Y43.234 E37.30336
G1 X105.103 Y40.996 E37.4154
G1 X104.592 Y38.804 E37.52769
G1 X103.728 Y36.711 E37.64065
G1 X102.555 Y34.795 E37.75274
G1 X101.068 Y33.065 E37.86655
G1 X99.341 Y31.588 E37.97992
G1 X97.425 Y30.413 E38.09205
G1 X95.373 Y29.561 E38.2029
G1 X93.145 Y29.032 E38.31715
G1 X90.884 Y28.851 E38.43031
G1 X88.615 Y29.029 E38.54386
G1 X86.408 Y29.558 E38.65708
G1 X84.357 Y30.412 E38.76793
G1 X82.432 Y31.587 E38.88044
G1 X80.715 Y33.057 E38.99321
G1 X79.214 Y34.808 E39.10827
G1 X78.33 Y36.251 E39.1927
G0 F1350 X78.053 Y36.704
G1 F3000 E34.1927
G0 F3600 X75.421 Y31.544
G0 X75.296 Y31.437
G1 F3000 E39.1927
G1 F1500 X76.998 Y29.476 E39.32224
G1 X77.017 Y29.457 E39.32358
G1 X78.963 Y27.744 E39.45292
G1 X78.984 Y27.728 E39.45424
G1 X81.166 Y26.275 E39.58503
G1 X83.503 Y25.135 E39.71476
G1 X83.528 Y25.125 E39.7161
G1 X85.991 Y24.313 E39.84548
G1 X86.017 Y24.306 E39.84683
G1 X88.574 Y23.827 E39.97662
G1 X88.601 Y23.824 E39.97797
G1 X91.19 Y23.692 E40.1073
G1 X93.811 Y23.909 E40.23851
G1 X93.837 Y23.913 E40.23983
G1 X96.388 Y24.478 E40.37018
G1 X98.831 Y25.374 E40.5
G1 X98.855 Y25.385 E40.50132
G1 X101.148 Y26.595 E40.63067
G1 X101.171 Y26.609 E40.63201
G1 X103.288 Y28.121 E40.7618
G1 X103.309 Y28.138 E40.76315
G1 X105.202 Y29.915 E40.89268
G1 X106.853 Y31.944 E41.02319
G1 X106.869 Y31.966 E41.02454
G1 X108.226 Y34.186 E41.15435
G1 X109.279 Y36.582 E41.28492
G1 X109.288 Y36.607 E41.28625
G1 X110.013 Y39.13 E41.41722
G1 X110.391 Y41.704 E41.54701
G1 X110.393 Y41.731 E41.54836
G1 X110.421 Y44.345 E41.67878
G1 X110.102 Y46.938 E41.80912
G1 X109.441 Y49.462 E41.93929
G1 X109.433 Y49.487 E41.9406
G1 X108.443 Y51.89 E42.07026
G1 X108.431 Y51.914 E42.0716
G1 X107.128 Y54.162 E42.20123
G1 X107.113 Y54.185 E42.2026
G1 X105.523 Y56.235 E42.33204
G1 X103.654 Y58.077 E42.46296
G1 X103.634 Y58.095 E42.4643
G1 X101.53 Y59.67 E42.59542
G1 X99.268 Y60.933 E42.72467
G1 X96.83 Y61.893 E42.85539
G1 X96.805 Y61.901 E42.8567
G1 X94.28 Y62.52 E42.98641
G1 X94.253 Y62.525 E42.98778
G1 X91.673 Y62.801 E43.11723
G1 X91.646 Y62.802 E43.11857
G1 X89.044 Y62.73 E43.24844
G1 X86.459 Y62.309 E43.3791
G1 X86.433 Y62.303 E43.38043
G1 X83.923 Y61.536 E43.51138
G1 X81.567 Y60.455 E43.6407
G1 X81.543 Y60.442 E43.64206
G1 X79.348 Y59.05 E43.77173
G1 X79.326 Y59.034 E43.77309
G1 X77.34 Y57.367 E43.90245
G1 X77.321 Y57.349 E43.90376
G1 X75.57 Y55.424 E44.03358
G1 X75.553 Y55.403 E44.03493
G1 X74.081 Y53.268 E44.16431
G1 X72.893 Y50.931 E44.2951
G1 X72.882 Y50.906 E44.29646
G1 X72.029 Y48.455 E44.42594
G1 X72.022 Y48.429 E44.42728
G1 X71.501 Y45.881 E44.55703
G1 X71.497 Y45.854 E44.5584
G1 X71.322 Y43.244 E44.6889
G1 X71.322 Y28.458 E45.42658
G1 X70.322 Y28.16 E45.47864
G1 X68.722 Y30.606 E45.62446
G1 X67.382 Y33.321 E45.77551
G1 X67.36 Y33.372 E45.77828
G1 X66.346 Y36.26 E45.93098
G1 X66.335 Y36.302 E45.93315
G1 X65.679 Y39.271 E46.08485
G1 X65.384 Y42.332 E46.23827
G1 X65.463 Y45.444 E46.39358
G1 X65.912 Y48.496 E46.54748
G1 X66.718 Y51.442 E46.69986
G1 X67.876 Y54.285 E46.85301
G1 X67.894 Y54.325 E46.8552
G1 X69.381 Y56.992 E47.00754
G1 X71.207 Y59.499 E47.16228
G1 X73.296 Y61.741 E47.31516
G1 X75.668 Y63.738 E47.46985
G1 X78.225 Y65.408 E47.62222
G1 X78.273 Y65.436 E47.62499
G1 X80.985 Y66.771 E47.7758
G1 X81.019 Y66.786 E47.77765
G1 X83.921 Y67.802 E47.93105
G1 X83.965 Y67.814 E47.93333
G1 X86.934 Y68.467 E48.08499
G1 X90 Y68.757 E48.23864
G1 X93.111 Y68.675 E48.3939
G1 X96.135 Y68.226 E48.54642
G1 X99.113 Y67.41 E48.70047
G1 X101.953 Y66.247 E48.85358
G1 X101.98 Y66.235 E48.85505
G1 X104.67 Y64.731 E49.00881
G1 X107.144 Y62.923 E49.16169
G1 X107.175 Y62.896 E49.16374
G1 X109.403 Y60.814 E49.31587
G1 X109.434 Y60.78 E49.31817
