;FLAVOR:Marlin
;TIME:6866
;Filament used: 0m, 7.96739m
;Layer height: 0.3
;MINX:129.486
;MINY:32.933
;MINZ:0.3
;MAXX:170.553
;MAXY:74.012
;MAXZ:64.2
;Generated with Cura_SteamEngine 4.12.1
T1
M82 ;absolute extrusion mode
G21 ;metric values
G28 ;home all
G90 ;absolute positioning
M107 ;start with the fan off
G1 F2400 Z15.0 ;raise the nozzle 15mm
M109 S220 ;Set Extruder Temperature and Wait
M190 S60; Wait for bed temperature to reach target temp
T0 ;Switch to Extruder 1
G1 F3000 X5 Y10 Z0.2 ;move to prime start position
G92 E0 ;reset extrusion distance
G1 F600 X160 E5 ;prime nozzle in a line
G1 F5000 X180 ;quick wipe
G92 E0 ;reset extrusion distance
G92 E0

T1 ;switch to extruder 2
G92 E0 ;reset extruder distance
G1 F2000 E93 ;load filament
G92 E0 ;reset extruder distance
M104 S220
G92 E0
G1 F3000 E-5
;LAYER_COUNT:215
;LAYER:0
M107
G0 F3600 X130.468 Y47.043 Z0.3
;TYPE:SKIRT
G1 F3000 E0
G1 F1500 X131.265 Y44.979 E0.11038
G1 X131.485 Y44.508 E0.13632
G1 X132.53 Y42.62 E0.24398
G1 X132.796 Y42.205 E0.26857
G1 X134.143 Y40.378 E0.38181
G1 X134.473 Y39.988 E0.4073
G1 X136.021 Y38.391 E0.51826
G1 X136.393 Y38.055 E0.54327
G1 X138.195 Y36.63 E0.65789
G1 X138.597 Y36.353 E0.68224
G1 X140.527 Y35.195 E0.79453
G1 X141.018 Y34.946 E0.822
G1 X143.018 Y34.111 E0.93013
G1 X143.506 Y33.945 E0.95584
G1 X145.704 Y33.361 E1.06931
G1 X146.158 Y33.27 E1.09241
G1 X148.33 Y32.969 E1.20181
G1 X148.852 Y32.933 E1.22791
G1 X150.987 Y32.933 E1.33443
G1 X151.499 Y32.968 E1.36003
G1 X153.92 Y33.297 E1.48192
G1 X154.409 Y33.396 E1.50682
G1 X156.545 Y33.979 E1.61728
G1 X157.023 Y34.144 E1.64251
G1 X159.071 Y35.009 E1.75342
G1 X159.516 Y35.233 E1.77828
G1 X161.396 Y36.337 E1.88705
G1 X161.831 Y36.635 E1.91335
G1 X163.619 Y38.051 E2.02714
G1 X163.995 Y38.392 E2.05247
G1 X165.563 Y40.018 E2.16516
G1 X165.885 Y40.398 E2.19001
G1 X167.162 Y42.127 E2.29725
G1 X167.448 Y42.578 E2.32389
G1 X168.57 Y44.653 E2.44158
G1 X168.772 Y45.092 E2.46569
G1 X169.545 Y47.096 E2.57285
G1 X169.695 Y47.577 E2.59798
G1 X170.267 Y49.96 E2.72025
G1 X170.354 Y50.477 E2.74641
G1 X170.537 Y52.348 E2.8402
G1 X170.553 Y52.841 E2.8648
G1 X170.48 Y55.104 E2.97777
G1 X170.422 Y55.793 E3.01226
G1 X170.386 Y56.062 E3.0258
G1 X170.078 Y57.894 E3.11848
G1 X169.962 Y58.385 E3.14365
G1 X169.285 Y60.577 E3.25811
G1 X169.104 Y61.05 E3.28338
G1 X168.167 Y63.078 E3.39483
G1 X167.922 Y63.525 E3.42026
G1 X166.694 Y65.453 E3.5343
G1 X166.385 Y65.873 E3.56032
G1 X164.947 Y67.565 E3.6711
G1 X164.6 Y67.922 E3.69594
G1 X162.925 Y69.437 E3.80862
G1 X162.519 Y69.757 E3.83441
G1 X160.695 Y71.003 E3.94461
G1 X160.284 Y71.248 E3.96848
G1 X158.311 Y72.258 E4.07906
G1 X157.833 Y72.462 E4.10499
G1 X155.621 Y73.235 E4.22189
G1 X155.134 Y73.37 E4.24711
G1 X153.068 Y73.796 E4.35235
G1 X152.542 Y73.866 E4.37882
G1 X150.246 Y74.012 E4.4936
G1 X149.763 Y74.012 E4.5177
G1 X147.495 Y73.867 E4.63108
G1 X146.961 Y73.795 E4.65796
G1 X144.68 Y73.319 E4.77421
G1 X144.205 Y73.187 E4.79881
G1 X142.347 Y72.539 E4.89698
G1 X141.877 Y72.339 E4.92246
G1 X139.581 Y71.173 E5.05094
G1 X139.146 Y70.914 E5.07619
G1 X137.447 Y69.743 E5.17914
G1 X137.046 Y69.425 E5.20467
G1 X135.447 Y67.971 E5.3125
G1 X135.104 Y67.616 E5.33713
G1 X133.596 Y65.835 E5.45355
G1 X133.292 Y65.422 E5.47914
G1 X132.095 Y63.545 E5.5902
G1 X131.849 Y63.094 E5.61583
G1 X130.929 Y61.1 E5.72539
G1 X130.746 Y60.624 E5.75083
G1 X130.05 Y58.358 E5.8691
G1 X129.93 Y57.836 E5.89582
G1 X129.625 Y55.908 E5.9932
G1 X129.581 Y55.453 E6.01601
G1 X129.486 Y52.863 E6.14531
G1 X129.498 Y52.386 E6.16912
G1 X129.681 Y50.339 E6.27165
G1 X129.77 Y49.795 E6.29915
G1 X129.803 Y49.692 E6.30455
G1 X130.312 Y47.551 E6.41434
G0 F1350 X130.316 Y47.533
G0 X130.468 Y47.043
G0 F3600 X130.841 Y47.187
G1 F1500 X131.638 Y45.123 E6.52472
G1 X131.835 Y44.701 E6.54796
G1 X132.88 Y42.813 E6.65562
G1 X133.118 Y42.442 E6.67761
G1 X134.465 Y40.615 E6.79085
G1 X134.761 Y40.267 E6.81364
G1 X136.309 Y38.67 E6.92461
G1 X136.641 Y38.369 E6.94696
G1 X138.443 Y36.944 E7.06158
G1 X138.803 Y36.696 E7.08339
G1 X140.733 Y35.538 E7.19568
G1 X141.172 Y35.315 E7.22025
G1 X143.172 Y34.48 E7.32837
G1 X143.609 Y34.332 E7.35139
G1 X145.807 Y33.748 E7.46485
G1 X146.213 Y33.666 E7.48552
G1 X148.385 Y33.365 E7.59492
G1 X148.852 Y33.333 E7.61827
G1 X150.987 Y33.333 E7.72478
G1 X151.445 Y33.364 E7.74769
G1 X153.866 Y33.693 E7.86958
G1 X154.303 Y33.782 E7.89183
G1 X156.439 Y34.365 E8.00229
G1 X156.867 Y34.513 E8.02489
G1 X158.915 Y35.378 E8.1358
G1 X159.314 Y35.578 E8.15807
G1 X161.194 Y36.682 E8.26684
G1 X161.583 Y36.949 E8.29038
G1 X163.371 Y38.365 E8.40417
G1 X163.707 Y38.67 E8.42681
G1 X165.275 Y40.296 E8.5395
G1 X165.563 Y40.636 E8.56173
G1 X166.84 Y42.365 E8.66897
G1 X167.096 Y42.768 E8.69279
G1 X168.218 Y44.843 E8.81048
G1 X168.399 Y45.236 E8.83206
G1 X169.172 Y47.24 E8.93922
G1 X169.306 Y47.67 E8.96169
G1 X169.878 Y50.053 E9.08396
G1 X169.956 Y50.516 E9.10738
G1 X170.139 Y52.387 E9.20117
G1 X170.153 Y52.828 E9.22319
G1 X170.08 Y55.091 E9.33615
G1 X170.024 Y55.755 E9.36939
G1 X169.992 Y55.996 E9.38152
G1 X169.684 Y57.828 E9.4742
G1 X169.58 Y58.267 E9.49671
G1 X168.903 Y60.459 E9.61117
G1 X168.74 Y60.882 E9.63378
G1 X167.803 Y62.91 E9.74524
G1 X167.585 Y63.311 E9.76801
G1 X166.357 Y65.239 E9.88205
G1 X166.08 Y65.614 E9.90531
G1 X164.642 Y67.306 E10.01609
G1 X164.332 Y67.626 E10.03832
G1 X162.657 Y69.141 E10.151
G1 X162.294 Y69.426 E10.17402
G1 X160.47 Y70.672 E10.28423
G1 X160.101 Y70.891 E10.30563
G1 X158.128 Y71.901 E10.41622
G1 X157.701 Y72.085 E10.43941
G1 X155.489 Y72.858 E10.55631
G1 X155.054 Y72.978 E10.57883
G1 X152.988 Y73.404 E10.68407
G1 X152.517 Y73.467 E10.70778
G1 X150.221 Y73.613 E10.82255
G1 X149.788 Y73.613 E10.84416
G1 X147.52 Y73.468 E10.95754
G1 X147.042 Y73.403 E10.98161
G1 X144.761 Y72.927 E11.09786
G1 X144.336 Y72.809 E11.11986
G1 X142.478 Y72.161 E11.21803
G1 X142.058 Y71.982 E11.24081
G1 X139.762 Y70.816 E11.36928
G1 X139.373 Y70.584 E11.39188
G1 X137.674 Y69.413 E11.49483
G1 X137.316 Y69.13 E11.51759
G1 X135.717 Y67.676 E11.62542
G1 X135.409 Y67.357 E11.64754
G1 X133.901 Y65.576 E11.76397
G1 X133.629 Y65.207 E11.78684
G1 X132.432 Y63.33 E11.8979
G1 X132.212 Y62.926 E11.92086
G1 X131.292 Y60.932 E12.03041
G1 X131.129 Y60.506 E12.05317
G1 X130.433 Y58.24 E12.17143
G1 X130.325 Y57.773 E12.19535
G1 X130.02 Y55.845 E12.29273
G1 X129.98 Y55.439 E12.31309
G1 X129.885 Y52.849 E12.44239
G1 X129.897 Y52.421 E12.46375
G1 X130.08 Y50.374 E12.56628
G1 X130.166 Y49.86 E12.59228
G1 X130.187 Y49.802 E12.59536
G1 X130.688 Y47.697 E12.70331
G0 F1350 X130.705 Y47.625
G0 X130.841 Y47.187
G0 F3600 X131.214 Y47.331
G1 F1500 X132.011 Y45.267 E12.8137
G1 X132.185 Y44.895 E12.83418
G1 X133.23 Y43.007 E12.94184
G1 X133.44 Y42.68 E12.96123
G1 X134.787 Y40.853 E13.07448
G1 X135.048 Y40.545 E13.09462
G1 X136.596 Y38.948 E13.20558
G1 X136.889 Y38.683 E13.22529
G1 X138.691 Y37.258 E13.3399
G1 X139.009 Y37.039 E13.35917
G1 X140.939 Y35.881 E13.47146
G1 X141.326 Y35.685 E13.4931
G1 X143.326 Y34.85 E13.60123
G1 X143.712 Y34.719 E13.62156
G1 X145.91 Y34.135 E13.73503
G1 X146.268 Y34.062 E13.75326
G1 X148.44 Y33.761 E13.86265
G1 X148.852 Y33.733 E13.88326
G1 X150.987 Y33.733 E13.98977
G1 X151.391 Y33.76 E14.00997
G1 X153.812 Y34.089 E14.13187
G1 X154.198 Y34.168 E14.15152
G1 X156.334 Y34.751 E14.26199
G1 X156.711 Y34.881 E14.28188
G1 X158.759 Y35.746 E14.3928
G1 X159.111 Y35.923 E14.41245
G1 X160.991 Y37.027 E14.52122
G1 X161.335 Y37.262 E14.54201
G1 X163.123 Y38.678 E14.6558
G1 X163.419 Y38.948 E14.67578
G1 X164.987 Y40.574 E14.78848
G1 X165.241 Y40.874 E14.80809
G1 X166.518 Y42.603 E14.91533
G1 X166.744 Y42.958 E14.93632
G1 X167.866 Y45.033 E15.05401
G1 X168.026 Y45.38 E15.07307
G1 X168.799 Y47.384 E15.18023
G1 X168.917 Y47.764 E15.20009
G1 X169.489 Y50.147 E15.32235
G1 X169.558 Y50.555 E15.343
G1 X169.741 Y52.426 E15.43679
G1 X169.753 Y52.815 E15.4562
G1 X169.68 Y55.078 E15.56916
G1 X169.625 Y55.717 E15.60116
G1 X169.597 Y55.929 E15.61183
G1 X169.289 Y57.761 E15.70451
G1 X169.197 Y58.149 E15.7244
G1 X168.52 Y60.341 E15.83886
G1 X168.377 Y60.714 E15.85879
G1 X167.44 Y62.742 E15.97024
G1 X167.247 Y63.096 E15.99036
G1 X166.019 Y65.024 E16.1044
G1 X165.775 Y65.355 E16.12492
G1 X164.337 Y67.047 E16.2357
G1 X164.063 Y67.329 E16.25532
G1 X162.388 Y68.844 E16.36799
G1 X162.068 Y69.096 E16.38831
G1 X160.244 Y70.342 E16.49852
G1 X159.919 Y70.535 E16.51738
G1 X157.946 Y71.545 E16.62796
G1 X157.569 Y71.707 E16.64843
G1 X155.357 Y72.48 E16.76533
G1 X154.973 Y72.586 E16.78521
G1 X152.907 Y73.012 E16.89045
G1 X152.491 Y73.068 E16.91139
G1 X150.195 Y73.214 E17.02617
G1 X149.814 Y73.214 E17.04518
G1 X147.546 Y73.069 E17.15856
G1 X147.124 Y73.012 E17.1798
G1 X144.843 Y72.536 E17.29605
G1 X144.468 Y72.432 E17.31547
G1 X142.61 Y71.784 E17.41364
G1 X142.24 Y71.626 E17.43371
G1 X139.944 Y70.46 E17.56219
G1 X139.6 Y70.255 E17.58216
G1 X137.901 Y69.084 E17.68511
G1 X137.585 Y68.834 E17.70521
G1 X135.986 Y67.38 E17.81304
G1 X135.714 Y67.099 E17.83255
G1 X134.206 Y65.318 E17.94898
G1 X133.967 Y64.992 E17.96914
G1 X132.77 Y63.115 E18.08021
G1 X132.575 Y62.759 E18.10046
G1 X131.655 Y60.765 E18.21002
G1 X131.511 Y60.389 E18.23011
G1 X130.815 Y58.123 E18.34837
G1 X130.72 Y57.711 E18.36946
G1 X130.415 Y55.783 E18.46685
G1 X130.38 Y55.424 E18.48484
G1 X130.285 Y52.834 E18.61415
G1 X130.295 Y52.457 E18.63296
G1 X130.478 Y50.41 E18.73549
G1 X130.581 Y49.873 E18.76277
G1 X131.065 Y47.841 E18.86699
G0 F1350 X131.094 Y47.718
G0 X131.214 Y47.331
G0 F3600 X131.588 Y47.475
G1 F1500 X132.385 Y45.411 E18.97737
G1 X132.535 Y45.089 E18.99509
G1 X133.58 Y43.201 E19.10275
G1 X133.762 Y42.917 E19.11958
G1 X135.109 Y41.09 E19.23282
G1 X135.335 Y40.823 E19.25028
G1 X136.883 Y39.226 E19.36124
G1 X137.137 Y38.997 E19.3783
G1 X138.939 Y37.572 E19.49291
G1 X139.214 Y37.382 E19.50959
G1 X141.144 Y36.224 E19.62188
G1 X141.48 Y36.054 E19.64067
G1 X143.48 Y35.219 E19.74879
G1 X143.814 Y35.105 E19.7664
G1 X146.012 Y34.521 E19.87987
G1 X146.323 Y34.459 E19.89569
G1 X148.495 Y34.158 E20.00508
G1 X148.852 Y34.133 E20.02294
G1 X150.987 Y34.133 E20.12945
G1 X151.337 Y34.157 E20.14696
G1 X153.758 Y34.486 E20.26885
G1 X154.093 Y34.554 E20.2859
G1 X156.229 Y35.137 E20.39637
G1 X156.556 Y35.25 E20.41363
G1 X158.604 Y36.115 E20.52454
G1 X158.909 Y36.268 E20.54157
G1 X160.789 Y37.372 E20.65034
G1 X161.086 Y37.576 E20.66831
G1 X162.874 Y38.992 E20.7821
G1 X163.132 Y39.225 E20.79945
G1 X164.7 Y40.851 E20.91214
G1 X164.919 Y41.111 E20.9291
G1 X166.196 Y42.84 E21.03634
G1 X166.392 Y43.148 E21.05455
G1 X167.514 Y45.223 E21.17224
G1 X167.653 Y45.524 E21.18878
G1 X168.426 Y47.528 E21.29594
G1 X168.528 Y47.857 E21.31312
G1 X169.1 Y50.24 E21.43539
G1 X169.16 Y50.594 E21.4533
G1 X169.343 Y52.465 E21.54709
G1 X169.354 Y52.802 E21.56392
G1 X169.281 Y55.065 E21.67688
G1 X169.227 Y55.679 E21.70763
G1 X169.203 Y55.863 E21.71688
G1 X168.895 Y57.695 E21.80957
G1 X168.815 Y58.031 E21.8268
G1 X168.138 Y60.223 E21.94125
G1 X168.014 Y60.547 E21.95856
G1 X167.077 Y62.575 E22.07002
G1 X166.91 Y62.881 E22.08741
G1 X165.682 Y64.809 E22.20145
G1 X165.47 Y65.096 E22.21925
G1 X164.032 Y66.788 E22.33003
G1 X163.795 Y67.032 E22.347
G1 X162.12 Y68.547 E22.45968
G1 X161.843 Y68.766 E22.4773
G1 X160.019 Y70.012 E22.5875
G1 X159.737 Y70.179 E22.60385
G1 X157.764 Y71.189 E22.71444
G1 X157.437 Y71.329 E22.73218
G1 X155.225 Y72.102 E22.84908
G1 X154.892 Y72.194 E22.86632
G1 X152.826 Y72.62 E22.97156
G1 X152.466 Y72.669 E22.98969
G1 X150.17 Y72.815 E23.10447
G1 X149.839 Y72.815 E23.12098
G1 X147.571 Y72.67 E23.23436
G1 X147.206 Y72.62 E23.25274
G1 X144.925 Y72.144 E23.36899
G1 X144.6 Y72.054 E23.38582
G1 X142.742 Y71.406 E23.48399
G1 X142.421 Y71.269 E23.5014
G1 X140.125 Y70.103 E23.62987
G1 X139.827 Y69.926 E23.64717
G1 X138.128 Y68.755 E23.75011
G1 X137.854 Y68.538 E23.76755
G1 X136.255 Y67.084 E23.87537
G1 X136.02 Y66.84 E23.89228
G1 X134.512 Y65.059 E24.0087
G1 X134.304 Y64.777 E24.02618
G1 X133.107 Y62.9 E24.13725
G1 X132.938 Y62.591 E24.15482
G1 X132.018 Y60.597 E24.26438
G1 X131.894 Y60.271 E24.28178
G1 X131.198 Y58.005 E24.40004
G1 X131.115 Y57.648 E24.41833
G1 X130.81 Y55.72 E24.51572
G1 X130.78 Y55.409 E24.5313
G1 X130.685 Y52.819 E24.66061
G1 X130.693 Y52.492 E24.67692
G1 X130.876 Y50.445 E24.77946
G1 X130.976 Y49.946 E24.80485
G1 X131.443 Y47.987 E24.90532
G0 F1350 X131.484 Y47.811
G0 X131.588 Y47.475
G0 F3600 X131.961 Y47.62
G1 F1500 X132.758 Y45.556 E25.0157
G1 X132.885 Y45.283 E25.03073
G1 X133.93 Y43.395 E25.13838
G1 X134.084 Y43.154 E25.15265
G1 X135.431 Y41.327 E25.2659
G1 X135.622 Y41.102 E25.28062
G1 X137.17 Y39.505 E25.39158
G1 X137.385 Y39.31 E25.40607
G1 X139.187 Y37.885 E25.52068
G1 X139.42 Y37.725 E25.53478
G1 X141.35 Y36.567 E25.64707
G1 X141.634 Y36.423 E25.66296
G1 X143.634 Y35.588 E25.77109
G1 X143.917 Y35.492 E25.78599
G1 X146.115 Y34.908 E25.89946
G1 X146.378 Y34.855 E25.91284
G1 X148.55 Y34.554 E26.02224
G1 X148.852 Y34.533 E26.03734
G1 X150.987 Y34.533 E26.14386
G1 X151.283 Y34.553 E26.15866
G1 X153.704 Y34.882 E26.28055
G1 X153.987 Y34.94 E26.29497
G1 X156.123 Y35.523 E26.40543
G1 X156.4 Y35.618 E26.42004
G1 X158.448 Y36.483 E26.53096
G1 X158.706 Y36.613 E26.54537
G1 X160.586 Y37.717 E26.65414
G1 X160.838 Y37.889 E26.66936
G1 X162.626 Y39.305 E26.78315
G1 X162.844 Y39.503 E26.79784
G1 X164.412 Y41.129 E26.91054
G1 X164.598 Y41.349 E26.92491
G1 X165.875 Y43.078 E27.03215
G1 X166.04 Y43.339 E27.04755
G1 X167.162 Y45.414 E27.16524
G1 X167.28 Y45.668 E27.17921
G1 X168.053 Y47.672 E27.28637
G1 X168.139 Y47.951 E27.30094
G1 X168.711 Y50.334 E27.4232
G1 X168.762 Y50.633 E27.43834
G1 X168.945 Y52.504 E27.53213
G1 X168.954 Y52.789 E27.54635
G1 X168.881 Y55.052 E27.65931
G1 X168.829 Y55.641 E27.68881
G1 X168.809 Y55.797 E27.69666
G1 X168.501 Y57.629 E27.78934
G1 X168.433 Y57.913 E27.80391
G1 X167.756 Y60.105 E27.91837
G1 X167.651 Y60.379 E27.933
G1 X166.714 Y62.407 E28.04446
G1 X166.573 Y62.666 E28.05917
G1 X165.345 Y64.594 E28.17321
G1 X165.165 Y64.837 E28.1883
G1 X163.727 Y66.529 E28.29908
G1 X163.527 Y66.736 E28.31344
G1 X161.852 Y68.251 E28.42612
G1 X161.617 Y68.436 E28.44104
G1 X159.793 Y69.682 E28.55125
G1 X159.554 Y69.823 E28.56509
G1 X157.581 Y70.833 E28.67567
G1 X157.305 Y70.952 E28.69067
G1 X155.093 Y71.725 E28.80757
G1 X154.811 Y71.803 E28.82217
G1 X152.745 Y72.229 E28.92741
G1 X152.441 Y72.27 E28.94271
G1 X150.145 Y72.416 E29.05749
G1 X149.865 Y72.416 E29.07146
G1 X147.597 Y72.271 E29.18484
G1 X147.288 Y72.229 E29.2004
G1 X145.007 Y71.753 E29.31665
G1 X144.732 Y71.676 E29.3309
G1 X142.874 Y71.028 E29.42907
G1 X142.602 Y70.913 E29.4438
G1 X140.306 Y69.747 E29.57228
G1 X140.054 Y69.596 E29.58693
G1 X138.355 Y68.425 E29.68988
G1 X138.123 Y68.242 E29.70462
G1 X136.524 Y66.788 E29.81244
G1 X136.325 Y66.582 E29.82673
G1 X134.817 Y64.801 E29.94316
G1 X134.641 Y64.562 E29.95797
G1 X133.444 Y62.685 E30.06903
G1 X133.301 Y62.424 E30.08388
G1 X132.381 Y60.43 E30.19344
G1 X132.276 Y60.154 E30.20817
G1 X131.58 Y57.888 E30.32644
G1 X131.51 Y57.586 E30.3419
G1 X131.205 Y55.658 E30.43929
G1 X131.179 Y55.395 E30.45247
G1 X131.084 Y52.805 E30.58178
G1 X131.092 Y52.528 E30.5956
G1 X131.275 Y50.481 E30.69813
G1 X131.367 Y50.03 E30.7211
G1 X131.819 Y48.132 E30.81844
G0 F1350 X131.873 Y47.903
G0 X131.961 Y47.62
G0 F3600 X132.334 Y47.764
G1 F1500 X133.131 Y45.7 E30.92882
G1 X133.235 Y45.476 E30.94114
G1 X134.28 Y43.588 E31.0488
G1 X134.406 Y43.392 E31.06043
G1 X135.753 Y41.565 E31.17367
G1 X135.91 Y41.38 E31.18578
G1 X137.458 Y39.783 E31.29674
G1 X137.633 Y39.624 E31.30853
G1 X139.435 Y38.199 E31.42315
G1 X139.626 Y38.068 E31.4347
G1 X141.556 Y36.91 E31.54699
G1 X141.789 Y36.792 E31.56002
G1 X143.789 Y35.957 E31.66815
G1 X144.02 Y35.878 E31.68033
G1 X146.218 Y35.294 E31.7938
G1 X146.433 Y35.251 E31.80473
G1 X148.605 Y34.95 E31.91413
G1 X148.852 Y34.933 E31.92648
G1 X150.987 Y34.933 E32.033
G1 X151.229 Y34.949 E32.0451
G1 X153.65 Y35.278 E32.16699
G1 X153.882 Y35.326 E32.17881
G1 X156.018 Y35.909 E32.28928
G1 X156.244 Y35.987 E32.3012
G1 X158.292 Y36.852 E32.41212
G1 X158.503 Y36.958 E32.4239
G1 X160.383 Y38.062 E32.53267
G1 X160.59 Y38.203 E32.54516
G1 X162.378 Y39.619 E32.65895
