;FLAVOR:Marlin
;TIME:7542
;Filament used: 0m, 9.5338m
;Layer height: 0.3
;MINX:51.026
;MINY:25.984
;MINZ:0.3
;MAXX:92.128
;MAXY:67.063
;MAXZ:64.2
;Generated with Cura_SteamEngine 4.12.1
T1
M82 ;absolute extrusion mode
G21 ;metric values
G28 ;home all
G90 ;absolute positioning
M107 ;start with the fan off
G1 F2400 Z15.0 ;raise the nozzle 15mm
M109 S220 ;Set Extruder Temperature and Wait
M190 S60; Wait for bed temperature to reach target temp
T0 ;Switch to Extruder 1
G1 F3000 X5 Y10 Z0.2 ;move to prime start position
G92 E0 ;reset extrusion distance
G1 F600 X160 E5 ;prime nozzle in a line
G1 F5000 X180 ;quick wipe
G92 E0 ;reset extrusion distance
G92 E0

T1 ;switch to extruder 2
G92 E0 ;reset extruder distance
G1 F2000 E93 ;load filament
G92 E0 ;reset extruder distance
M104 S220
G92 E0
G1 F3000 E-5
;LAYER_COUNT:215
;LAYER:0
M107
G0 F3600 X54.388 Y35.219 Z0.3
;TYPE:SKIRT
G1 F3000 E0
G1 F1500 X55.729 Y33.417 E0.11206
G1 X56.035 Y33.056 E0.13567
G1 X57.576 Y31.449 E0.24675
G1 X57.96 Y31.1 E0.27264
G1 X59.768 Y29.668 E0.38771
G1 X60.208 Y29.367 E0.4143
G1 X62.043 Y28.293 E0.52038
G1 X62.475 Y28.076 E0.5445
G1 X64.591 Y27.176 E0.65922
G1 X65.106 Y27.01 E0.68621
G1 X65.104 Y27.001 E0.68667
G1 X67.23 Y26.418 E0.79666
G1 X67.727 Y26.317 E0.82196
G1 X69.942 Y26.018 E0.93347
G1 X70.45 Y25.984 E0.95887
G1 X72.553 Y25.984 E1.06379
G1 X73.064 Y26.019 E1.08934
G1 X75.7 Y26.377 E1.22206
G1 X76.191 Y26.476 E1.24705
G1 X77.951 Y26.957 E1.33808
G1 X78.43 Y27.123 E1.36337
G1 X80.572 Y28.029 E1.4794
G1 X80.622 Y28.046 E1.48203
G1 X81.091 Y28.283 E1.50825
G1 X83.003 Y29.422 E1.61928
G1 X83.404 Y29.697 E1.64354
G1 X85.168 Y31.081 E1.7554
G1 X85.553 Y31.428 E1.78126
G1 X87.087 Y33.013 E1.89131
G1 X87.424 Y33.414 E1.91744
G1 X88.757 Y35.238 E2.03015
G1 X89.02 Y35.651 E2.05458
G1 X90.148 Y37.705 E2.17149
G1 X90.361 Y38.164 E2.19673
G1 X91.139 Y40.176 E2.30435
G1 X91.293 Y40.671 E2.33022
G1 X91.802 Y42.822 E2.44049
G1 X91.908 Y43.465 E2.47301
G1 X92.112 Y45.553 E2.57767
G1 X92.128 Y46.041 E2.60203
G1 X92.056 Y48.352 E2.71739
G1 X92.005 Y48.865 E2.74311
G1 X91.782 Y50.19 E2.81014
G1 X91.626 Y51.064 E2.85443
G1 X91.513 Y51.527 E2.87821
G1 X90.837 Y53.696 E2.99156
G1 X90.654 Y54.17 E3.0169
G1 X89.761 Y56.087 E3.12241
G1 X89.529 Y56.51 E3.14648
G1 X88.288 Y58.476 E3.26247
G1 X87.967 Y58.913 E3.28952
G1 X86.504 Y60.629 E3.40203
G1 X86.176 Y60.969 E3.4256
G1 X84.55 Y62.455 E3.53549
G1 X84.14 Y62.781 E3.56162
G1 X82.262 Y64.073 E3.67535
G1 X81.816 Y64.336 E3.70118
G1 X79.807 Y65.347 E3.81339
G1 X79.343 Y65.544 E3.83853
G1 X77.279 Y66.259 E3.94751
G1 X76.811 Y66.388 E3.97173
G1 X74.619 Y66.845 E4.08344
G1 X74.086 Y66.917 E4.11027
G1 X71.804 Y67.063 E4.22436
G1 X71.321 Y67.063 E4.24845
G1 X69.018 Y66.917 E4.36358
G1 X68.485 Y66.846 E4.39041
G1 X66.357 Y66.404 E4.49884
G1 X65.877 Y66.27 E4.5237
G1 X63.716 Y65.515 E4.63791
G1 X63.253 Y65.319 E4.66299
G1 X61.368 Y64.365 E4.76839
G1 X60.926 Y64.102 E4.79405
G1 X59.014 Y62.783 E4.90994
G1 X58.616 Y62.467 E4.93529
G1 X56.979 Y60.979 E5.04566
G1 X56.641 Y60.629 E5.06993
G1 X55.171 Y58.901 E5.18312
G1 X54.857 Y58.476 E5.20948
G1 X53.701 Y56.655 E5.31709
G1 X53.465 Y56.224 E5.34161
G1 X52.473 Y54.096 E5.45874
G1 X52.288 Y53.616 E5.48441
G1 X51.6 Y51.398 E5.60026
G1 X51.479 Y50.889 E5.62637
G1 X51.145 Y48.859 E5.729
G1 X51.097 Y48.363 E5.75387
G1 X51.026 Y46.138 E5.86493
G1 X51.044 Y45.628 E5.89039
G1 X51.301 Y43.132 E6.01557
G1 X51.387 Y42.63 E6.04098
G1 X51.855 Y40.689 E6.14059
G1 X52.002 Y40.217 E6.16526
G1 X52.824 Y38.078 E6.27958
G1 X53.036 Y37.62 E6.30476
G1 X54.102 Y35.667 E6.41576
G0 F1350 X54.388 Y35.219
G0 F3600 X54.709 Y35.458
G1 F1500 X56.05 Y33.656 E6.52783
G1 X56.324 Y33.333 E6.54896
G1 X57.865 Y31.726 E6.66004
G1 X58.208 Y31.414 E6.68317
G1 X60.016 Y29.982 E6.79824
G1 X60.41 Y29.713 E6.82204
G1 X62.245 Y28.639 E6.92812
G1 X62.631 Y28.444 E6.94969
G1 X64.747 Y27.544 E7.06441
G1 X65.21 Y27.387 E7.0888
G1 X67.336 Y26.804 E7.19879
G1 X67.78 Y26.714 E7.22139
G1 X69.995 Y26.415 E7.3329
G1 X70.45 Y26.384 E7.35565
G1 X72.553 Y26.384 E7.46057
G1 X73.011 Y26.415 E7.48347
G1 X75.647 Y26.773 E7.61619
G1 X76.085 Y26.862 E7.63849
G1 X77.845 Y27.343 E7.72951
G1 X78.274 Y27.492 E7.75217
G1 X80.438 Y28.408 E7.86941
G1 X80.886 Y28.627 E7.89428
G1 X82.798 Y29.766 E8.00532
G1 X83.157 Y30.012 E8.02703
G1 X84.921 Y31.396 E8.13889
G1 X85.265 Y31.706 E8.16199
G1 X86.799 Y33.291 E8.27204
G1 X87.101 Y33.65 E8.29544
G1 X88.434 Y35.474 E8.40815
G1 X88.669 Y35.843 E8.42998
G1 X89.797 Y37.897 E8.54689
G1 X89.988 Y38.308 E8.5695
G1 X90.766 Y40.32 E8.67712
G1 X90.904 Y40.763 E8.70027
G1 X91.413 Y42.914 E8.81055
G1 X91.51 Y43.504 E8.84038
G1 X91.714 Y45.592 E8.94505
G1 X91.728 Y46.029 E8.96686
G1 X91.656 Y48.34 E9.08221
G1 X91.611 Y48.799 E9.10522
G1 X91.388 Y50.119 E9.17201
G1 X91.232 Y50.993 E9.2163
G1 X91.131 Y51.408 E9.23761
G1 X90.455 Y53.577 E9.35096
G1 X90.291 Y54.001 E9.37364
G1 X89.398 Y55.918 E9.47915
G1 X89.191 Y56.297 E9.50069
G1 X87.95 Y58.263 E9.61668
G1 X87.662 Y58.654 E9.64091
G1 X86.199 Y60.37 E9.75341
G1 X85.906 Y60.674 E9.77448
G1 X84.28 Y62.16 E9.88437
G1 X83.913 Y62.451 E9.90774
G1 X82.035 Y63.743 E10.02146
G1 X81.636 Y63.979 E10.04459
G1 X79.627 Y64.99 E10.1568
G1 X79.212 Y65.166 E10.17929
G1 X77.148 Y65.881 E10.28826
G1 X76.729 Y65.996 E10.30994
G1 X74.537 Y66.453 E10.42165
G1 X74.06 Y66.518 E10.44567
G1 X71.778 Y66.664 E10.55975
G1 X71.346 Y66.664 E10.5813
G1 X69.043 Y66.518 E10.69643
G1 X68.567 Y66.454 E10.72039
G1 X66.439 Y66.012 E10.82882
G1 X66.009 Y65.893 E10.85108
G1 X63.848 Y65.138 E10.96529
G1 X63.434 Y64.962 E10.98773
G1 X61.549 Y64.008 E11.09313
G1 X61.153 Y63.773 E11.1161
G1 X59.241 Y62.454 E11.23199
G1 X58.885 Y62.171 E11.25468
G1 X57.248 Y60.683 E11.36505
G1 X56.945 Y60.37 E11.38678
G1 X55.475 Y58.642 E11.49997
G1 X55.195 Y58.261 E11.52356
G1 X54.039 Y56.44 E11.63117
G1 X53.827 Y56.055 E11.65309
G1 X52.835 Y53.927 E11.77023
G1 X52.67 Y53.497 E11.79321
G1 X51.982 Y51.279 E11.90906
G1 X51.874 Y50.824 E11.93239
G1 X51.54 Y48.794 E12.03503
G1 X51.497 Y48.35 E12.05729
G1 X51.426 Y46.125 E12.16835
G1 X51.442 Y45.669 E12.19111
G1 X51.699 Y43.173 E12.3163
G1 X51.776 Y42.724 E12.33903
G1 X52.244 Y40.783 E12.43864
G1 X52.375 Y40.36 E12.46073
G1 X53.197 Y38.221 E12.57505
G1 X53.387 Y37.812 E12.59755
G1 X54.426 Y35.909 E12.70572
G0 F1350 X54.453 Y35.859
G0 X54.709 Y35.458
G0 F3600 X55.03 Y35.697
G1 F1500 X56.371 Y33.895 E12.81779
G1 X56.613 Y33.61 E12.83644
G1 X58.154 Y32.003 E12.94752
G1 X58.456 Y31.727 E12.96793
G1 X60.264 Y30.295 E13.083
G1 X60.612 Y30.058 E13.104
G1 X62.447 Y28.984 E13.21008
G1 X62.788 Y28.812 E13.22913
G1 X64.904 Y27.912 E13.34385
G1 X65.316 Y27.773 E13.36555
G1 X67.442 Y27.19 E13.47553
G1 X67.834 Y27.11 E13.49549
G1 X70.049 Y26.811 E13.607
G1 X70.45 Y26.784 E13.62705
G1 X72.553 Y26.784 E13.73197
G1 X72.957 Y26.811 E13.75217
G1 X75.593 Y27.169 E13.88489
G1 X75.98 Y27.248 E13.90459
G1 X77.74 Y27.729 E13.99562
G1 X78.118 Y27.86 E14.01558
G1 X80.287 Y28.779 E14.1331
G1 X80.681 Y28.971 E14.15497
G1 X82.593 Y30.11 E14.266
G1 X82.91 Y30.327 E14.28517
G1 X84.674 Y31.711 E14.39703
G1 X84.978 Y31.985 E14.41745
G1 X86.512 Y33.57 E14.52749
G1 X86.778 Y33.886 E14.5481
G1 X88.111 Y35.71 E14.66081
G1 X88.319 Y36.036 E14.6801
G1 X89.447 Y38.09 E14.79701
G1 X89.615 Y38.452 E14.81692
G1 X90.393 Y40.464 E14.92455
G1 X90.514 Y40.855 E14.94497
G1 X91.023 Y43.006 E15.05524
G1 X91.112 Y43.543 E15.0824
G1 X91.316 Y45.631 E15.18707
G1 X91.329 Y46.016 E15.20628
G1 X91.257 Y48.327 E15.32164
G1 X91.216 Y48.732 E15.34195
G1 X90.994 Y50.049 E15.40858
G1 X90.838 Y50.923 E15.45287
G1 X90.749 Y51.289 E15.47166
G1 X90.073 Y53.458 E15.58501
G1 X89.928 Y53.832 E15.60502
G1 X89.035 Y55.749 E15.71053
G1 X88.853 Y56.083 E15.7295
G1 X87.612 Y58.049 E15.8455
G1 X87.358 Y58.394 E15.86687
G1 X85.895 Y60.11 E15.97937
G1 X85.636 Y60.379 E15.998
G1 X84.01 Y61.865 E16.1079
G1 X83.686 Y62.122 E16.12853
G1 X81.808 Y63.414 E16.24225
G1 X81.457 Y63.622 E16.26261
G1 X79.448 Y64.633 E16.37481
G1 X79.081 Y64.788 E16.39469
G1 X77.017 Y65.503 E16.50367
G1 X76.647 Y65.605 E16.52282
G1 X74.455 Y66.062 E16.63453
G1 X74.035 Y66.119 E16.65567
G1 X71.753 Y66.265 E16.76975
G1 X71.371 Y66.265 E16.78881
G1 X69.068 Y66.119 E16.90394
G1 X68.648 Y66.062 E16.92509
G1 X66.52 Y65.62 E17.03352
G1 X66.141 Y65.515 E17.05314
G1 X63.98 Y64.76 E17.16734
G1 X63.614 Y64.605 E17.18717
G1 X61.729 Y63.651 E17.29257
G1 X61.38 Y63.443 E17.31284
G1 X59.468 Y62.124 E17.42873
G1 X59.154 Y61.875 E17.44872
G1 X57.517 Y60.387 E17.55909
G1 X57.25 Y60.111 E17.57825
G1 X55.78 Y58.383 E17.69143
G1 X55.532 Y58.047 E17.71227
G1 X54.376 Y56.226 E17.81988
G1 X54.19 Y55.886 E17.83921
G1 X53.198 Y53.758 E17.95635
G1 X53.052 Y53.379 E17.97661
G1 X52.364 Y51.161 E18.09247
G1 X52.269 Y50.759 E18.11308
G1 X51.935 Y48.729 E18.21572
G1 X51.897 Y48.338 E18.23531
G1 X51.826 Y46.113 E18.34638
G1 X51.84 Y45.71 E18.36649
G1 X52.097 Y43.214 E18.49168
G1 X52.165 Y42.818 E18.51172
G1 X52.633 Y40.877 E18.61134
G1 X52.749 Y40.504 E18.63082
G1 X53.571 Y38.365 E18.74515
G1 X53.738 Y38.004 E18.76499
G1 X54.75 Y36.15 E18.87037
G0 F1350 X54.804 Y36.051
G0 X55.03 Y35.697
G0 F3600 X55.351 Y35.936
G1 F1500 X56.692 Y34.134 E18.98244
G1 X56.901 Y33.886 E18.99862
G1 X58.442 Y32.279 E19.10969
G1 X58.705 Y32.041 E19.12739
G1 X60.513 Y30.609 E19.24246
G1 X60.814 Y30.403 E19.26065
G1 X62.649 Y29.329 E19.36673
G1 X62.944 Y29.18 E19.38322
G1 X65.06 Y28.28 E19.49794
G1 X65.421 Y28.159 E19.51693
G1 X67.547 Y27.576 E19.62692
G1 X67.887 Y27.506 E19.64424
G1 X70.102 Y27.207 E19.75574
G1 X70.45 Y27.184 E19.77314
G1 X72.553 Y27.184 E19.87806
G1 X72.903 Y27.208 E19.89557
G1 X75.539 Y27.566 E20.02828
G1 X75.874 Y27.634 E20.04534
G1 X77.634 Y28.115 E20.13636
G1 X77.962 Y28.228 E20.15367
G1 X80.132 Y29.146 E20.27122
G1 X80.477 Y29.314 E20.29037
G1 X82.389 Y30.453 E20.4014
G1 X82.663 Y30.641 E20.41798
G1 X84.427 Y32.025 E20.52984
G1 X84.69 Y32.263 E20.54754
G1 X86.224 Y33.848 E20.65758
G1 X86.455 Y34.122 E20.67546
G1 X87.788 Y35.946 E20.78817
G1 X87.968 Y36.228 E20.80486
G1 X89.096 Y38.282 E20.92177
G1 X89.242 Y38.596 E20.93905
G1 X90.02 Y40.608 E21.04667
G1 X90.125 Y40.947 E21.06438
G1 X90.634 Y43.098 E21.17465
G1 X90.714 Y43.582 E21.19913
G1 X90.918 Y45.67 E21.3038
G1 X90.929 Y46.004 E21.32047
G1 X90.857 Y48.315 E21.43582
G1 X90.822 Y48.666 E21.45342
G1 X90.601 Y49.979 E21.51985
G1 X90.445 Y50.853 E21.56414
G1 X90.367 Y51.17 E21.58043
G1 X89.691 Y53.339 E21.69377
G1 X89.566 Y53.663 E21.7111
G1 X88.673 Y55.58 E21.8166
G1 X88.515 Y55.87 E21.83308
G1 X87.274 Y57.836 E21.94907
G1 X87.054 Y58.135 E21.96759
G1 X85.591 Y59.851 E22.08009
G1 X85.366 Y60.083 E22.09622
G1 X83.74 Y61.569 E22.20611
G1 X83.46 Y61.792 E22.22397
G1 X81.582 Y63.084 E22.3377
G1 X81.277 Y63.264 E22.35536
G1 X79.268 Y64.275 E22.46757
G1 X78.95 Y64.41 E22.48481
G1 X76.886 Y65.125 E22.59378
G1 X76.566 Y65.213 E22.61034
G1 X74.374 Y65.67 E22.72205
G1 X74.009 Y65.72 E22.74043
G1 X71.727 Y65.866 E22.85451
G1 X71.397 Y65.866 E22.87098
G1 X69.094 Y65.72 E22.9861
G1 X68.729 Y65.671 E23.00448
G1 X66.601 Y65.229 E23.11291
G1 X66.272 Y65.138 E23.12994
G1 X64.111 Y64.383 E23.24414
G1 X63.795 Y64.248 E23.26129
G1 X61.91 Y63.294 E23.36669
G1 X61.608 Y63.114 E23.38423
G1 X59.696 Y61.795 E23.50011
G1 X59.423 Y61.579 E23.51748
G1 X57.786 Y60.091 E23.62785
G1 X57.555 Y59.852 E23.64443
G1 X56.085 Y58.124 E23.75762
G1 X55.87 Y57.832 E23.77571
G1 X54.714 Y56.011 E23.88332
G1 X54.552 Y55.717 E23.90007
G1 X53.56 Y53.589 E24.0172
G1 X53.434 Y53.26 E24.03478
G1 X52.746 Y51.042 E24.15063
G1 X52.663 Y50.694 E24.16848
G1 X52.329 Y48.664 E24.27112
G1 X52.296 Y48.325 E24.28812
G1 X52.225 Y46.1 E24.39918
G1 X52.238 Y45.751 E24.4166
G1 X52.495 Y43.255 E24.54179
G1 X52.553 Y42.912 E24.55914
G1 X53.021 Y40.971 E24.65875
G1 X53.122 Y40.647 E24.67568
G1 X53.944 Y38.508 E24.79001
G1 X54.089 Y38.195 E24.80722
G1 X55.074 Y36.39 E24.90981
G0 F1350 X55.155 Y36.242
G0 X55.351 Y35.936
G0 F3600 X55.672 Y36.175
G1 F1500 X57.013 Y34.373 E25.02187
G1 X57.19 Y34.163 E25.03557
G1 X58.731 Y32.556 E25.14665
G1 X58.953 Y32.354 E25.16162
G1 X60.761 Y30.922 E25.27669
G1 X61.016 Y30.748 E25.29209
G1 X62.851 Y29.674 E25.39817
G1 X63.101 Y29.549 E25.41211
G1 X65.217 Y28.649 E25.52683
G1 X65.527 Y28.544 E25.54316
G1 X67.653 Y27.961 E25.65315
G1 X67.941 Y27.903 E25.6678
G1 X70.156 Y27.604 E25.77931
G1 X70.45 Y27.584 E25.79401
G1 X72.553 Y27.584 E25.89893
G1 X72.849 Y27.604 E25.91373
G1 X75.485 Y27.962 E26.04645
G1 X75.769 Y28.02 E26.06091
G1 X77.529 Y28.501 E26.15194
G1 X77.806 Y28.597 E26.16657
G1 X79.976 Y29.515 E26.28412
G1 X80.272 Y29.658 E26.30052
G1 X82.184 Y30.797 E26.41155
G1 X82.416 Y30.956 E26.42558
G1 X84.18 Y32.34 E26.53744
G1 X84.403 Y32.541 E26.55242
G1 X85.937 Y34.126 E26.66247
G1 X86.132 Y34.358 E26.67759
G1 X87.465 Y36.182 E26.7903
G1 X87.617 Y36.421 E26.80443
G1 X88.745 Y38.475 E26.92134
G1 X88.869 Y38.741 E26.93598
G1 X89.647 Y40.753 E27.0436
G1 X89.736 Y41.039 E27.05854
G1 X90.245 Y43.19 E27.16882
G1 X90.316 Y43.621 E27.19061
G1 X90.52 Y45.709 E27.29528
G1 X90.529 Y45.992 E27.30941
G1 X90.457 Y48.303 E27.42476
G1 X90.427 Y48.6 E27.43965
G1 X90.207 Y49.909 E27.50587
G1 X90.051 Y50.783 E27.55017
G1 X89.985 Y51.051 E27.56394
G1 X89.309 Y53.22 E27.67728
G1 X89.203 Y53.494 E27.69194
G1 X88.31 Y55.411 E27.79745
G1 X88.176 Y55.656 E27.81138
G1 X86.935 Y57.622 E27.92737
G1 X86.749 Y57.875 E27.94304
G1 X85.286 Y59.591 E28.05554
G1 X85.096 Y59.788 E28.06919
G1 X83.47 Y61.274 E28.17909
G1 X83.233 Y61.462 E28.19418
G1 X81.355 Y62.754 E28.30791
G1 X81.097 Y62.907 E28.32287
G1 X79.088 Y63.918 E28.43508
G1 X78.819 Y64.032 E28.44965
G1 X76.755 Y64.747 E28.55863
G1 X76.484 Y64.822 E28.57266
G1 X74.292 Y65.279 E28.68437
G1 X73.983 Y65.321 E28.69993
G1 X71.701 Y65.467 E28.81401
G1 X71.422 Y65.467 E28.82793
G1 X69.119 Y65.321 E28.94306
G1 X68.811 Y65.279 E28.95856
G1 X66.683 Y64.837 E29.067
G1 X66.404 Y64.76 E29.08144
G1 X64.243 Y64.005 E29.19564
G1 X63.976 Y63.891 E29.21012
G1 X62.091 Y62.937 E29.31552
G1 X61.835 Y62.785 E29.33038
G1 X59.923 Y61.466 E29.44626
G1 X59.692 Y61.283 E29.46097
G1 X58.055 Y59.795 E29.57134
G1 X57.859 Y59.593 E29.58538
G1 X56.389 Y57.865 E29.69856
G1 X56.208 Y57.618 E29.71384
G1 X55.052 Y55.797 E29.82145
G1 X54.915 Y55.548 E29.83563
G1 X53.923 Y53.42 E29.95276
G1 X53.816 Y53.142 E29.96762
G1 X53.128 Y50.924 E30.08348
G1 X53.058 Y50.629 E30.09861
G1 X52.724 Y48.599 E30.20125
G1 X52.696 Y48.312 E30.21563
G1 X52.625 Y46.087 E30.3267
G1 X52.636 Y45.792 E30.34142
G1 X52.893 Y43.296 E30.46661
G1 X52.942 Y43.005 E30.48133
G1 X53.41 Y41.064 E30.58094
G1 X53.495 Y40.791 E30.59521
G1 X54.317 Y38.652 E30.70953
G1 X54.44 Y38.387 E30.72411
G1 X55.399 Y36.631 E30.82393
G0 F1350 X55.506 Y36.434
G0 X55.672 Y36.175
G0 F3600 X55.993 Y36.413
G1 F1500 X57.334 Y34.611 E30.93599
G1 X57.479 Y34.44 E30.94718
G1 X59.02 Y32.833 E31.05826
G1 X59.201 Y32.668 E31.07048
G1 X61.009 Y31.236 E31.18554
G1 X61.218 Y31.094 E31.19815
G1 X63.053 Y30.02 E31.30422
G1 X63.257 Y29.917 E31.31563
G1 X65.373 Y29.017 E31.43035
G1 X65.633 Y28.93 E31.44402
G1 X67.759 Y28.347 E31.55401
G1 X67.994 Y28.299 E31.56597
G1 X70.209 Y28 E31.67748
G1 X70.45 Y27.984 E31.68953
G1 X72.553 Y27.984 E31.79445
G1 X72.795 Y28 E31.80655
G1 X75.431 Y28.358 E31.93927
G1 X75.664 Y28.406 E31.95114
G1 X77.424 Y28.887 E32.04216
G1 X77.65 Y28.965 E32.05409
G1 X79.82 Y29.883 E32.17164
G1 X80.067 Y30.002 E32.18532
G1 X81.979 Y31.141 E32.29635
G1 X82.169 Y31.271 E32.30784
G1 X83.933 Y32.655 E32.4197
G1 X84.115 Y32.819 E32.43192
G1 X85.649 Y34.404 E32.54197
G1 X85.809 Y34.594 E32.55436
G1 X87.142 Y36.418 E32.66707
G1 X87.267 Y36.614 E32.67867
G1 X88.395 Y38.668 E32.79558
G1 X88.496 Y38.885 E32.80752
G1 X89.274 Y40.897 E32.91514
G1 X89.347 Y41.132 E32.92742
G1 X89.856 Y43.283 E33.0377
G1 X89.917 Y43.66 E33.05675
G1 X90.121 Y45.748 E33.16142
G1 X90.129 Y45.979 E33.17295
G1 X90.057 Y48.29 E33.2883
G1 X90.033 Y48.533 E33.30048
G1 X89.813 Y49.838 E33.36651
G1 X89.657 Y50.712 E33.4108
G1 X89.603 Y50.932 E33.4221
G1 X88.927 Y53.101 E33.53545
G1 X88.841 Y53.325 E33.54742
G1 X87.948 Y55.242 E33.65293
G1 X87.838 Y55.443 E33.66436
