;FLAVOR:Marlin
;TIME:7270
;Filament used: 0m, 8.92215m
;Layer height: 0.3
;MINX:52.697
;MINY:38.198
;MINZ:0.3
;MAXX:93.756
;MAXY:79.274
;MAXZ:65.7
;Generated with Cura_SteamEngine 4.12.1
T1
M82 ;absolute extrusion mode
G21 ;metric values
G28 ;home all
G90 ;absolute positioning
M107 ;start with the fan off
G1 F2400 Z15.0 ;raise the nozzle 15mm
M109 S220 ;Set Extruder Temperature and Wait
M190 S60; Wait for bed temperature to reach target temp
T0 ;Switch to Extruder 1
G1 F3000 X5 Y10 Z0.2 ;move to prime start position
G92 E0 ;reset extrusion distance
G1 F600 X160 E5 ;prime nozzle in a line
G1 F5000 X180 ;quick wipe
G92 E0 ;reset extrusion distance
G92 E0

T1 ;switch to extruder 2
G92 E0 ;reset extruder distance
G1 F2000 E93 ;load filament
G92 E0 ;reset extruder distance
M104 S220
G92 E0
G1 F3000 E-5
;LAYER_COUNT:219
;LAYER:0
M107
G0 F3600 X57.317 Y45.672 Z0.3
;TYPE:SKIRT
G1 F3000 E0
G1 F1500 X57.64 Y45.291 E0.02492
G1 X59.188 Y43.691 E0.13599
G1 X59.562 Y43.352 E0.16117
G1 X61.392 Y41.905 E0.27756
G1 X61.816 Y41.614 E0.30322
G1 X63.747 Y40.473 E0.41512
G1 X64.201 Y40.245 E0.44047
G1 X66.236 Y39.385 E0.55069
G1 X66.715 Y39.219 E0.57598
G1 X68.705 Y38.676 E0.67889
G1 X69.193 Y38.577 E0.70373
G1 X71.724 Y38.233 E0.83116
G1 X72.236 Y38.198 E0.85677
G1 X74.152 Y38.198 E0.95236
G1 X74.665 Y38.233 E0.97801
G1 X77.224 Y38.582 E1.10686
G1 X77.706 Y38.68 E1.1314
G1 X79.637 Y39.204 E1.23122
G1 X80.108 Y39.365 E1.25606
G1 X82.224 Y40.25 E1.37048
G1 X82.697 Y40.488 E1.3969
G1 X84.637 Y41.639 E1.50944
G1 X85.061 Y41.931 E1.53513
G1 X86.837 Y43.341 E1.64826
G1 X87.205 Y43.675 E1.67305
G1 X88.728 Y45.249 E1.78232
G1 X89.057 Y45.638 E1.80774
G1 X90.293 Y47.317 E1.91176
G1 X90.741 Y48.003 E1.95263
G1 X91.702 Y49.739 E2.05163
G1 X91.93 Y50.23 E2.07864
G1 X92.791 Y52.498 E2.19967
G1 X92.934 Y52.965 E2.22403
G1 X93.458 Y55.16 E2.33662
G1 X93.543 Y55.665 E2.36217
G1 X93.739 Y57.63 E2.46069
G1 X93.756 Y58.128 E2.48555
G1 X93.682 Y60.453 E2.6016
G1 X93.632 Y60.956 E2.62682
G1 X93.253 Y63.234 E2.74203
G1 X93.131 Y63.746 E2.76829
G1 X92.444 Y65.939 E2.88294
G1 X92.27 Y66.391 E2.90711
G1 X91.387 Y68.31 E3.0125
G1 X91.139 Y68.764 E3.0383
G1 X89.877 Y70.744 E3.15545
G1 X89.573 Y71.158 E3.18107
G1 X88.157 Y72.83 E3.29038
G1 X87.815 Y73.184 E3.31494
G1 X86.139 Y74.71 E3.42802
G1 X85.719 Y75.041 E3.4547
G1 X83.909 Y76.273 E3.56394
G1 X83.481 Y76.526 E3.58874
G1 X81.405 Y77.572 E3.70472
G1 X80.941 Y77.768 E3.72985
G1 X78.824 Y78.503 E3.84165
G1 X78.345 Y78.635 E3.86644
G1 X76.341 Y79.048 E3.96852
G1 X75.815 Y79.118 E3.99499
G1 X73.364 Y79.274 E4.11752
G1 X72.881 Y79.274 E4.14162
G1 X70.655 Y79.132 E4.2529
G1 X70.128 Y79.061 E4.27943
G1 X68.027 Y78.627 E4.38646
G1 X67.544 Y78.494 E4.41145
G1 X65.449 Y77.763 E4.52215
G1 X64.972 Y77.559 E4.54804
G1 X62.807 Y76.453 E4.66933
G1 X62.378 Y76.197 E4.69425
G1 X60.644 Y75.001 E4.79934
G1 X60.246 Y74.685 E4.8247
G1 X58.578 Y73.169 E4.93715
G1 X58.233 Y72.812 E4.96192
G1 X56.797 Y71.115 E5.07282
G1 X56.497 Y70.708 E5.09805
G1 X55.3 Y68.837 E5.20886
G1 X55.043 Y68.365 E5.23568
G1 X54.086 Y66.265 E5.35081
G1 X53.914 Y65.812 E5.37499
G1 X53.276 Y63.749 E5.48272
G1 X53.149 Y63.195 E5.51107
G1 X52.835 Y61.123 E5.61563
G1 X52.795 Y60.697 E5.63697
G1 X52.697 Y58.097 E5.76678
G1 X52.708 Y57.627 E5.79024
G1 X52.882 Y55.611 E5.89119
G1 X52.97 Y55.063 E5.91888
G1 X53.477 Y52.92 E6.02874
G1 X53.638 Y52.407 E6.05557
G1 X54.5 Y50.211 E6.17327
G1 X54.702 Y49.777 E6.19715
G1 X55.772 Y47.818 E6.30851
G1 X56.053 Y47.379 E6.33452
G1 X57.001 Y46.099 E6.41398
G0 F1350 X57.317 Y45.672
G0 F3600 X57.639 Y45.91
G1 F1500 X57.927 Y45.569 E6.43625
G1 X59.475 Y43.969 E6.54732
G1 X59.81 Y43.666 E6.56986
G1 X61.64 Y42.219 E6.68625
G1 X62.019 Y41.959 E6.70918
G1 X63.95 Y40.818 E6.82108
G1 X64.356 Y40.613 E6.84377
G1 X66.391 Y39.753 E6.95399
G1 X66.82 Y39.605 E6.97663
G1 X68.81 Y39.062 E7.07954
G1 X69.247 Y38.973 E7.10179
G1 X71.778 Y38.629 E7.22922
G1 X72.236 Y38.598 E7.25213
G1 X74.152 Y38.598 E7.34771
G1 X74.611 Y38.629 E7.37067
G1 X77.17 Y38.978 E7.49952
G1 X77.601 Y39.066 E7.52146
G1 X79.532 Y39.59 E7.62129
G1 X79.954 Y39.734 E7.64353
G1 X82.07 Y40.619 E7.75796
G1 X82.493 Y40.832 E7.78159
G1 X84.433 Y41.983 E7.89413
G1 X84.812 Y42.244 E7.91709
G1 X86.588 Y43.654 E8.03022
G1 X86.917 Y43.953 E8.0524
G1 X88.44 Y45.527 E8.16167
G1 X88.735 Y45.875 E8.18443
G1 X89.971 Y47.554 E8.28845
G1 X90.391 Y48.196 E8.32672
G1 X91.352 Y49.932 E8.42571
G1 X91.556 Y50.372 E8.44991
G1 X92.417 Y52.64 E8.57094
G1 X92.545 Y53.058 E8.59275
G1 X93.069 Y55.253 E8.70534
G1 X93.145 Y55.705 E8.7282
G1 X93.341 Y57.67 E8.82672
G1 X93.356 Y58.115 E8.84894
G1 X93.282 Y60.44 E8.96499
G1 X93.238 Y60.89 E8.98755
G1 X92.859 Y63.168 E9.10276
G1 X92.75 Y63.626 E9.12625
G1 X92.063 Y65.819 E9.2409
G1 X91.907 Y66.224 E9.26255
G1 X91.024 Y68.143 E9.36794
G1 X90.802 Y68.549 E9.39103
G1 X89.54 Y70.529 E9.50817
G1 X89.268 Y70.899 E9.53108
G1 X87.852 Y72.571 E9.64039
G1 X87.546 Y72.888 E9.66237
G1 X85.87 Y74.414 E9.77546
G1 X85.494 Y74.711 E9.79936
G1 X83.684 Y75.943 E9.9086
G1 X83.301 Y76.168 E9.93076
G1 X81.225 Y77.214 E10.04673
G1 X80.81 Y77.39 E10.06922
G1 X78.693 Y78.125 E10.18103
G1 X78.264 Y78.243 E10.20322
G1 X76.26 Y78.656 E10.3053
G1 X75.79 Y78.719 E10.32896
G1 X73.339 Y78.875 E10.45149
G1 X72.907 Y78.875 E10.47304
G1 X70.681 Y78.733 E10.58432
G1 X70.209 Y78.67 E10.60808
G1 X68.108 Y78.236 E10.71511
G1 X67.676 Y78.116 E10.73748
G1 X65.581 Y77.385 E10.84818
G1 X65.154 Y77.203 E10.87134
G1 X62.989 Y76.097 E10.99263
G1 X62.606 Y75.868 E11.01489
G1 X60.872 Y74.672 E11.11998
G1 X60.515 Y74.389 E11.14271
G1 X58.847 Y72.873 E11.25516
G1 X58.539 Y72.553 E11.27732
G1 X57.103 Y70.856 E11.38823
G1 X56.834 Y70.492 E11.41081
G1 X55.637 Y68.621 E11.52162
G1 X55.407 Y68.199 E11.5456
G1 X54.45 Y66.099 E11.66074
G1 X54.296 Y65.694 E11.68236
G1 X53.658 Y63.631 E11.79009
G1 X53.544 Y63.135 E11.81548
G1 X53.23 Y61.063 E11.92003
G1 X53.194 Y60.682 E11.93912
G1 X53.096 Y58.082 E12.06893
G1 X53.107 Y57.662 E12.08989
G1 X53.281 Y55.646 E12.19084
G1 X53.359 Y55.155 E12.21565
G1 X53.866 Y53.012 E12.32551
G1 X54.01 Y52.553 E12.34951
G1 X54.872 Y50.357 E12.46721
G1 X55.053 Y49.969 E12.48857
G1 X56.123 Y48.01 E12.59993
G1 X56.375 Y47.617 E12.62323
G1 X57.323 Y46.337 E12.70269
G0 F1350 X57.639 Y45.91
G0 F3600 X57.96 Y46.148
G1 F1500 X58.215 Y45.847 E12.72237
G1 X59.763 Y44.247 E12.83344
G1 X60.058 Y43.98 E12.85329
G1 X61.888 Y42.533 E12.96969
G1 X62.223 Y42.303 E12.98996
G1 X64.154 Y41.162 E13.10186
G1 X64.512 Y40.982 E13.12185
G1 X66.547 Y40.122 E13.23207
G1 X66.925 Y39.991 E13.25203
G1 X68.915 Y39.448 E13.35494
G1 X69.301 Y39.369 E13.3746
G1 X71.832 Y39.025 E13.50203
G1 X72.236 Y38.998 E13.52223
G1 X74.152 Y38.998 E13.61782
G1 X74.557 Y39.026 E13.63807
G1 X77.116 Y39.375 E13.76692
G1 X77.497 Y39.452 E13.78632
G1 X79.428 Y39.976 E13.88614
G1 X79.8 Y40.103 E13.90575
G1 X81.916 Y40.988 E14.02018
G1 X82.289 Y41.176 E14.04102
G1 X84.229 Y42.327 E14.15356
G1 X84.563 Y42.557 E14.17379
G1 X86.339 Y43.967 E14.28692
G1 X86.63 Y44.231 E14.30653
G1 X88.153 Y45.805 E14.4158
G1 X88.413 Y46.112 E14.43587
G1 X89.649 Y47.791 E14.53988
G1 X90.041 Y48.39 E14.5756
G1 X91.002 Y50.126 E14.67459
G1 X91.182 Y50.514 E14.69593
G1 X92.043 Y52.782 E14.81696
G1 X92.156 Y53.15 E14.83617
G1 X92.68 Y55.345 E14.94875
G1 X92.747 Y55.744 E14.96894
G1 X92.943 Y57.709 E15.06746
G1 X92.956 Y58.102 E15.08708
G1 X92.882 Y60.427 E15.20313
G1 X92.843 Y60.824 E15.22303
G1 X92.464 Y63.102 E15.33824
G1 X92.368 Y63.507 E15.35901
G1 X91.681 Y65.7 E15.47366
G1 X91.543 Y66.057 E15.49276
G1 X90.66 Y67.976 E15.59814
G1 X90.465 Y68.334 E15.61848
G1 X89.203 Y70.314 E15.73562
G1 X88.962 Y70.641 E15.75589
G1 X87.546 Y72.313 E15.8652
G1 X87.277 Y72.592 E15.88454
G1 X85.601 Y74.118 E15.99762
G1 X85.269 Y74.38 E16.01872
G1 X83.459 Y75.612 E16.12795
G1 X83.121 Y75.811 E16.14752
G1 X81.045 Y76.857 E16.2635
G1 X80.679 Y77.012 E16.28333
G1 X78.562 Y77.747 E16.39513
G1 X78.184 Y77.851 E16.41469
G1 X76.18 Y78.264 E16.51677
G1 X75.765 Y78.32 E16.53766
G1 X73.314 Y78.476 E16.66019
G1 X72.932 Y78.476 E16.67925
G1 X70.706 Y78.334 E16.79053
G1 X70.29 Y78.278 E16.81147
G1 X68.189 Y77.844 E16.9185
G1 X67.808 Y77.739 E16.93822
G1 X65.713 Y77.008 E17.04892
G1 X65.336 Y76.847 E17.06937
G1 X63.171 Y75.741 E17.19066
G1 X62.833 Y75.539 E17.21031
G1 X61.099 Y74.343 E17.3154
G1 X60.784 Y74.093 E17.33546
G1 X59.116 Y72.577 E17.44792
G1 X58.844 Y72.295 E17.46746
G1 X57.408 Y70.598 E17.57837
G1 X57.171 Y70.277 E17.59828
G1 X55.974 Y68.406 E17.70909
G1 X55.771 Y68.033 E17.73028
G1 X54.814 Y65.933 E17.84541
G1 X54.678 Y65.575 E17.86452
G1 X54.04 Y63.512 E17.97225
G1 X53.94 Y63.076 E17.99457
G1 X53.626 Y61.004 E18.09912
G1 X53.594 Y60.667 E18.11601
G1 X53.496 Y58.067 E18.24582
G1 X53.505 Y57.696 E18.26433
G1 X53.679 Y55.68 E18.36528
G1 X53.749 Y55.247 E18.38717
G1 X54.256 Y53.104 E18.49703
G1 X54.382 Y52.699 E18.51819
G1 X55.244 Y50.503 E18.63589
G1 X55.404 Y50.161 E18.65473
G1 X56.474 Y48.202 E18.76609
G1 X56.696 Y47.855 E18.78664
G1 X57.644 Y46.575 E18.86611
G0 F1350 X57.96 Y46.148
G0 F3600 X58.281 Y46.386
G1 F1500 X58.502 Y46.125 E18.88317
G1 X60.05 Y44.525 E18.99424
G1 X60.306 Y44.294 E19.01144
G1 X62.136 Y42.847 E19.12784
G1 X62.426 Y42.648 E19.14538
G1 X64.357 Y41.507 E19.25728
G1 X64.668 Y41.35 E19.27466
G1 X66.703 Y40.49 E19.38488
G1 X67.031 Y40.377 E19.40219
G1 X69.021 Y39.834 E19.5051
G1 X69.355 Y39.766 E19.52211
G1 X71.886 Y39.422 E19.64954
G1 X72.236 Y39.398 E19.66704
G1 X74.152 Y39.398 E19.76263
G1 X74.503 Y39.422 E19.78019
G1 X77.062 Y39.771 E19.90904
G1 X77.392 Y39.838 E19.92584
G1 X79.323 Y40.362 E20.02566
G1 X79.645 Y40.472 E20.04263
G1 X81.761 Y41.357 E20.15706
G1 X82.085 Y41.52 E20.17516
G1 X84.025 Y42.671 E20.2877
G1 X84.315 Y42.871 E20.30527
G1 X86.091 Y44.281 E20.41841
G1 X86.342 Y44.509 E20.43532
G1 X87.865 Y46.083 E20.54459
G1 X88.091 Y46.35 E20.56205
G1 X89.327 Y48.029 E20.66606
G1 X89.691 Y48.584 E20.69917
G1 X90.652 Y50.32 E20.79817
G1 X90.808 Y50.656 E20.81665
G1 X91.669 Y52.924 E20.93768
G1 X91.767 Y53.243 E20.95433
G1 X92.291 Y55.438 E21.06692
G1 X92.349 Y55.784 E21.08442
G1 X92.545 Y57.749 E21.18294
G1 X92.557 Y58.09 E21.19996
G1 X92.483 Y60.415 E21.31602
G1 X92.449 Y60.759 E21.33326
G1 X92.07 Y63.037 E21.44847
G1 X91.986 Y63.387 E21.46643
G1 X91.299 Y65.58 E21.58108
G1 X91.18 Y65.89 E21.59765
G1 X90.297 Y67.809 E21.70304
G1 X90.128 Y68.119 E21.72065
G1 X88.866 Y70.099 E21.83779
G1 X88.657 Y70.382 E21.85535
G1 X87.241 Y72.054 E21.96466
G1 X87.007 Y72.296 E21.98145
G1 X85.331 Y73.822 E22.09454
G1 X85.044 Y74.049 E22.11279
G1 X83.234 Y75.281 E22.22203
G1 X82.941 Y75.454 E22.239
G1 X80.865 Y76.5 E22.35498
G1 X80.548 Y76.634 E22.37215
G1 X78.431 Y77.369 E22.48395
G1 X78.103 Y77.459 E22.50092
G1 X76.099 Y77.872 E22.603
G1 X75.739 Y77.921 E22.62113
G1 X73.288 Y78.077 E22.74365
G1 X72.957 Y78.077 E22.76017
G1 X70.731 Y77.935 E22.87145
G1 X70.371 Y77.886 E22.88958
G1 X68.27 Y77.452 E22.99661
G1 X67.939 Y77.361 E23.01373
G1 X65.844 Y76.63 E23.12443
G1 X65.518 Y76.49 E23.14213
G1 X63.353 Y75.384 E23.26342
G1 X63.06 Y75.209 E23.28045
G1 X61.326 Y74.013 E23.38554
G1 X61.053 Y73.797 E23.40291
G1 X59.385 Y72.281 E23.51536
G1 X59.149 Y72.037 E23.5323
G1 X57.713 Y70.34 E23.64321
G1 X57.508 Y70.061 E23.66048
G1 X56.311 Y68.19 E23.77129
G1 X56.135 Y67.867 E23.78964
G1 X55.178 Y65.767 E23.90478
G1 X55.06 Y65.457 E23.92133
G1 X54.422 Y63.394 E24.02906
G1 X54.335 Y63.016 E24.04841
G1 X54.021 Y60.944 E24.15297
G1 X53.994 Y60.652 E24.1676
G1 X53.896 Y58.052 E24.2974
G1 X53.904 Y57.73 E24.31347
G1 X54.078 Y55.714 E24.41442
G1 X54.138 Y55.339 E24.43337
G1 X54.645 Y53.196 E24.54324
G1 X54.755 Y52.845 E24.56159
G1 X55.617 Y50.649 E24.67929
G1 X55.755 Y50.353 E24.69558
G1 X56.825 Y48.394 E24.80694
G1 X57.017 Y48.093 E24.82475
G1 X57.965 Y46.813 E24.90422
G0 F1350 X58.281 Y46.386
G0 F3600 X58.603 Y46.624
G1 F1500 X58.79 Y46.403 E24.91866
G1 X60.338 Y44.803 E25.02973
G1 X60.554 Y44.607 E25.04428
G1 X62.384 Y43.16 E25.16068
G1 X62.63 Y42.992 E25.17554
G1 X64.561 Y41.851 E25.28744
G1 X64.824 Y41.719 E25.30212
G1 X66.859 Y40.859 E25.41234
G1 X67.136 Y40.763 E25.42697
G1 X69.126 Y40.22 E25.52988
G1 X69.409 Y40.162 E25.54429
G1 X71.94 Y39.818 E25.67172
G1 X72.236 Y39.798 E25.68652
G1 X74.152 Y39.798 E25.78211
G1 X74.449 Y39.818 E25.79696
G1 X77.008 Y40.167 E25.92581
G1 X77.287 Y40.224 E25.94002
G1 X79.218 Y40.748 E26.03984
G1 X79.491 Y40.841 E26.05423
G1 X81.607 Y41.726 E26.16866
G1 X81.881 Y41.864 E26.18397
G1 X83.821 Y43.015 E26.29651
G1 X84.066 Y43.184 E26.31136
G1 X85.842 Y44.594 E26.42449
G1 X86.055 Y44.787 E26.43883
G1 X87.578 Y46.361 E26.5481
G1 X87.769 Y46.587 E26.56286
G1 X89.005 Y48.266 E26.66688
G1 X89.341 Y48.778 E26.69743
G1 X90.302 Y50.514 E26.79642
G1 X90.434 Y50.798 E26.81205
G1 X91.295 Y53.066 E26.93308
G1 X91.378 Y53.336 E26.94717
G1 X91.902 Y55.531 E27.05976
G1 X91.951 Y55.824 E27.07458
G1 X92.147 Y57.789 E27.1731
G1 X92.157 Y58.077 E27.18748
G1 X92.083 Y60.402 E27.30353
G1 X92.054 Y60.693 E27.31812
G1 X91.675 Y62.971 E27.43333
G1 X91.604 Y63.268 E27.44857
G1 X90.917 Y65.461 E27.56322
G1 X90.817 Y65.723 E27.57721
G1 X89.934 Y67.642 E27.6826
G1 X89.79 Y67.904 E27.69751
G1 X88.528 Y69.884 E27.81466
G1 X88.352 Y70.124 E27.8295
G1 X86.936 Y71.796 E27.93881
G1 X86.738 Y72.001 E27.95303
G1 X85.062 Y73.527 E28.06612
G1 X84.819 Y73.719 E28.08157
G1 X83.009 Y74.951 E28.1908
G1 X82.761 Y75.097 E28.20516
G1 X80.685 Y76.143 E28.32114
G1 X80.417 Y76.256 E28.33565
G1 X78.3 Y76.991 E28.44745
G1 X78.022 Y77.068 E28.46184
G1 X76.018 Y77.481 E28.56392
G1 X75.714 Y77.522 E28.57923
G1 X73.263 Y77.678 E28.70175
G1 X72.983 Y77.678 E28.71572
G1 X70.757 Y77.536 E28.827
G1 X70.452 Y77.495 E28.84236
G1 X68.351 Y77.061 E28.94939
G1 X68.071 Y76.983 E28.96389
G1 X65.976 Y76.252 E29.07459
G1 X65.7 Y76.134 E29.08957
G1 X63.535 Y75.028 E29.21086
G1 X63.287 Y74.88 E29.22527
G1 X61.553 Y73.684 E29.33036
G1 X61.322 Y73.501 E29.34506
G1 X59.654 Y71.985 E29.45751
G1 X59.455 Y71.778 E29.47184
G1 X58.019 Y70.081 E29.58275
G1 X57.845 Y69.846 E29.59733
G1 X56.648 Y67.975 E29.70815
G1 X56.499 Y67.701 E29.72371
G1 X55.542 Y65.601 E29.83884
G1 X55.442 Y65.339 E29.85283
G1 X54.804 Y63.276 E29.96057
G1 X54.731 Y62.956 E29.97694
G1 X54.417 Y60.884 E30.08149
G1 X54.394 Y60.637 E30.09387
G1 X54.296 Y58.037 E30.22368
G1 X54.302 Y57.765 E30.23725
G1 X54.476 Y55.749 E30.3382
G1 X54.527 Y55.431 E30.35427
G1 X55.034 Y53.288 E30.46414
G1 X55.127 Y52.991 E30.47966
G1 X55.989 Y50.795 E30.59736
G1 X56.106 Y50.544 E30.61118
G1 X57.176 Y48.585 E30.72254
G1 X57.339 Y48.331 E30.7376
G1 X58.287 Y47.051 E30.81706
G0 F1350 X58.603 Y46.624
G0 F3600 X58.924 Y46.862
G1 F1500 X59.077 Y46.681 E30.82889
G1 X60.625 Y45.081 E30.93996
G1 X60.803 Y44.921 E30.9519
G1 X62.633 Y43.474 E31.06829
G1 X62.833 Y43.336 E31.08041
G1 X64.764 Y42.195 E31.19231
G1 X64.979 Y42.087 E31.20432
G1 X67.014 Y41.227 E31.31454
G1 X67.241 Y41.148 E31.32653
G1 X69.231 Y40.605 E31.42944
G1 X69.463 Y40.558 E31.44125
G1 X71.994 Y40.214 E31.56868
G1 X72.236 Y40.198 E31.58078
G1 X74.152 Y40.198 E31.67637
G1 X74.395 Y40.215 E31.68852
G1 X76.954 Y40.564 E31.81737
G1 X77.182 Y40.61 E31.82898
G1 X79.113 Y41.134 E31.9288
G1 X79.337 Y41.21 E31.9406
G1 X81.453 Y42.095 E32.05503
G1 X81.676 Y42.208 E32.0675
G1 X83.616 Y43.359 E32.18004
G1 X83.817 Y43.497 E32.19221
G1 X85.593 Y44.907 E32.30534
G1 X85.768 Y45.065 E32.3171
G1 X87.291 Y46.639 E32.42637
G1 X87.447 Y46.824 E32.43845
G1 X88.683 Y48.503 E32.54246
G1 X88.991 Y48.971 E32.57041
G1 X89.952 Y50.707 E32.66941
G1 X90.06 Y50.94 E32.68222
G1 X90.921 Y53.208 E32.80325
G1 X90.989 Y53.429 E32.81479
G1 X91.513 Y55.624 E32.92737
G1 X91.553 Y55.863 E32.93946
G1 X91.749 Y57.828 E33.03798
G1 X91.757 Y58.064 E33.04976
G1 X91.683 Y60.389 E33.16582
G1 X91.66 Y60.627 E33.17775
G1 X91.281 Y62.905 E33.29296
G1 X91.223 Y63.148 E33.30542
G1 X90.536 Y65.341 E33.42007
G1 X90.453 Y65.555 E33.43153
G1 X89.57 Y67.474 E33.53691
G1 X89.453 Y67.689 E33.54913
G1 X88.191 Y69.669 E33.66627
G1 X88.047 Y69.865 E33.6784
G1 X86.631 Y71.537 E33.78771
G1 X86.469 Y71.705 E33.79936
G1 X84.793 Y73.231 E33.91244
G1 X84.594 Y73.388 E33.92508
