;FLAVOR:Marlin
;TIME:7754
;Filament used: 0m, 9.5666m
;Layer height: 0.3
;MINX:51.475
;MINY:28.632
;MINZ:0.3
;MAXX:92.56
;MAXY:69.711
;MAXZ:65.7
;Generated with Cura_SteamEngine 4.12.1
T1
M82 ;absolute extrusion mode
G21 ;metric values
G28 ;home all
G90 ;absolute positioning
M107 ;start with the fan off
G1 F2400 Z15.0 ;raise the nozzle 15mm
M109 S220 ;Set Extruder Temperature and Wait
M190 S60; Wait for bed temperature to reach target temp
T0 ;Switch to Extruder 1
G1 F3000 X5 Y10 Z0.2 ;move to prime start position
G92 E0 ;reset extrusion distance
G1 F600 X160 E5 ;prime nozzle in a line
G1 F5000 X180 ;quick wipe
G92 E0 ;reset extrusion distance
G92 E0

T1 ;switch to extruder 2
G92 E0 ;reset extruder distance
G1 F2000 E93 ;load filament
G92 E0 ;reset extruder distance
M104 S220
G92 E0
G1 F3000 E-5
;LAYER_COUNT:219
;LAYER:0
M107
G0 F3600 X54.821 Y37.881 Z0.3
;TYPE:SKIRT
G1 F3000 E0
G1 F1500 X56.136 Y36.087 E0.11097
G1 X56.477 Y35.684 E0.13731
G1 X58.057 Y34.06 E0.25035
G1 X58.424 Y33.73 E0.27497
G1 X60.098 Y32.406 E0.38145
G1 X60.661 Y32.022 E0.41545
G1 X60.791 Y31.942 E0.42307
G1 X62.554 Y30.907 E0.52506
G1 X62.999 Y30.684 E0.5499
G1 X65.053 Y29.816 E0.66114
G1 X65.531 Y29.65 E0.68639
G1 X67.501 Y29.112 E0.78827
G1 X67.991 Y29.013 E0.81321
G1 X70.539 Y28.667 E0.9415
G1 X71.05 Y28.632 E0.96705
G1 X72.96 Y28.632 E1.06234
G1 X73.471 Y28.667 E1.0879
G1 X76.05 Y29.017 E1.21774
G1 X76.54 Y29.116 E1.24268
G1 X78.407 Y29.626 E1.33924
G1 X78.888 Y29.793 E1.36464
G1 X81.109 Y30.734 E1.48498
G1 X81.549 Y30.955 E1.50955
G1 X83.412 Y32.047 E1.61728
G1 X83.855 Y32.351 E1.64409
G1 X85.637 Y33.768 E1.75768
G1 X86.003 Y34.1 E1.78233
G1 X87.557 Y35.706 E1.89382
G1 X87.887 Y36.096 E1.91931
G1 X89.191 Y37.868 E2.02907
G1 X89.466 Y38.3 E2.05462
G1 X90.528 Y40.246 E2.16522
G1 X90.739 Y40.703 E2.19034
G1 X91.572 Y42.871 E2.30621
G1 X91.717 Y43.335 E2.33046
G1 X92.255 Y45.545 E2.44394
G1 X92.345 Y46.073 E2.47066
G1 X92.544 Y48.103 E2.57242
G1 X92.56 Y48.596 E2.59703
G1 X92.484 Y50.964 E2.71523
G1 X92.424 Y51.576 E2.74591
G1 X92.079 Y53.615 E2.84908
G1 X91.963 Y54.101 E2.87401
G1 X91.294 Y56.27 E2.98725
G1 X91.109 Y56.751 E3.01296
G1 X90.144 Y58.828 E3.12722
G1 X89.904 Y59.267 E3.15219
G1 X88.716 Y61.134 E3.26259
G1 X88.418 Y61.541 E3.28775
G1 X86.991 Y63.237 E3.39834
G1 X86.627 Y63.613 E3.42444
G1 X84.954 Y65.121 E3.53681
G1 X84.569 Y65.425 E3.56129
G1 X82.705 Y66.712 E3.6743
G1 X82.265 Y66.974 E3.69984
G1 X80.27 Y67.986 E3.81145
G1 X79.787 Y68.19 E3.83761
G1 X77.61 Y68.939 E3.95247
G1 X77.142 Y69.068 E3.97669
G1 X75.072 Y69.495 E4.08213
G1 X74.544 Y69.565 E4.1087
G1 X72.241 Y69.711 E4.22383
G1 X71.762 Y69.711 E4.24773
G1 X69.445 Y69.565 E4.36355
G1 X68.918 Y69.495 E4.39008
G1 X66.735 Y69.046 E4.50127
G1 X66.242 Y68.909 E4.5268
G1 X64.274 Y68.218 E4.63086
G1 X63.817 Y68.023 E4.65564
G1 X61.727 Y66.965 E4.77251
G1 X61.284 Y66.702 E4.79822
G1 X59.436 Y65.426 E4.91026
G1 X59.048 Y65.119 E4.93494
G1 X57.415 Y63.644 E5.04473
G1 X57.057 Y63.273 E5.07045
G1 X55.597 Y61.541 E5.18346
G1 X55.297 Y61.133 E5.20873
G1 X54.077 Y59.217 E5.32205
G1 X53.835 Y58.776 E5.34715
G1 X52.902 Y56.766 E5.4577
G1 X52.718 Y56.286 E5.48335
G1 X52.046 Y54.107 E5.59711
G1 X51.924 Y53.585 E5.62386
G1 X51.599 Y51.544 E5.72697
G1 X51.554 Y51.066 E5.75092
G1 X51.475 Y48.574 E5.87531
G1 X51.492 Y48.078 E5.90007
G1 X51.692 Y46.064 E6.00104
G1 X51.777 Y45.557 E6.02669
G1 X52.332 Y43.235 E6.1458
G1 X52.493 Y42.704 E6.17348
G1 X52.556 Y42.531 E6.18266
G1 X53.24 Y40.762 E6.27729
G1 X53.454 Y40.301 E6.30264
G1 X54.538 Y38.331 E6.41482
G0 F1350 X54.556 Y38.297
G0 X54.821 Y37.881
G0 F3600 X55.144 Y38.118
G1 F1500 X56.459 Y36.324 E6.5258
G1 X56.764 Y35.963 E6.54937
G1 X58.344 Y34.339 E6.66241
G1 X58.672 Y34.043 E6.68446
G1 X60.346 Y32.719 E6.79094
G1 X60.878 Y32.358 E6.82301
G1 X60.994 Y32.287 E6.8298
G1 X62.757 Y31.252 E6.93179
G1 X63.155 Y31.052 E6.95401
G1 X65.209 Y30.184 E7.06526
G1 X65.636 Y30.036 E7.08781
G1 X67.606 Y29.498 E7.18969
G1 X68.045 Y29.409 E7.21204
G1 X70.593 Y29.063 E7.34033
G1 X71.05 Y29.032 E7.36318
G1 X72.96 Y29.032 E7.45847
G1 X73.417 Y29.063 E7.48132
G1 X75.996 Y29.413 E7.61117
G1 X76.435 Y29.502 E7.63352
G1 X78.302 Y30.012 E7.73007
G1 X78.732 Y30.161 E7.75278
G1 X80.953 Y31.102 E7.87312
G1 X81.346 Y31.3 E7.89507
G1 X83.209 Y32.392 E8.00281
G1 X83.606 Y32.664 E8.02682
G1 X85.388 Y34.081 E8.1404
G1 X85.715 Y34.378 E8.16244
G1 X87.269 Y35.984 E8.27393
G1 X87.564 Y36.333 E8.29673
G1 X88.868 Y38.105 E8.4065
G1 X89.114 Y38.491 E8.42933
G1 X90.176 Y40.437 E8.53994
G1 X90.366 Y40.847 E8.56248
G1 X91.199 Y43.015 E8.67835
G1 X91.329 Y43.43 E8.70005
G1 X91.867 Y45.64 E8.81352
G1 X91.947 Y46.112 E8.83741
G1 X92.146 Y48.142 E8.93917
G1 X92.16 Y48.583 E8.96118
G1 X92.084 Y50.951 E9.07938
G1 X92.029 Y51.509 E9.10736
G1 X91.684 Y53.548 E9.21053
G1 X91.581 Y53.983 E9.23283
G1 X90.912 Y56.152 E9.34607
G1 X90.746 Y56.583 E9.36912
G1 X89.781 Y58.66 E9.48338
G1 X89.567 Y59.052 E9.50566
G1 X88.379 Y60.919 E9.61606
G1 X88.112 Y61.283 E9.63858
G1 X86.685 Y62.979 E9.74916
G1 X86.359 Y63.315 E9.77252
G1 X84.686 Y64.823 E9.88489
G1 X84.342 Y65.096 E9.9068
G1 X82.478 Y66.383 E10.01981
G1 X82.084 Y66.617 E10.04267
G1 X80.089 Y67.629 E10.15427
G1 X79.657 Y67.812 E10.17768
G1 X77.48 Y68.561 E10.29254
G1 X77.061 Y68.676 E10.31422
G1 X74.991 Y69.103 E10.41966
G1 X74.519 Y69.166 E10.44342
G1 X72.216 Y69.312 E10.55855
G1 X71.787 Y69.312 E10.57995
G1 X69.47 Y69.166 E10.69578
G1 X68.999 Y69.103 E10.71948
G1 X66.816 Y68.654 E10.83067
G1 X66.375 Y68.532 E10.8535
G1 X64.407 Y67.841 E10.95756
G1 X63.997 Y67.666 E10.9798
G1 X61.907 Y66.608 E11.09667
G1 X61.511 Y66.373 E11.11965
G1 X59.663 Y65.097 E11.23169
G1 X59.316 Y64.822 E11.25378
G1 X57.683 Y63.347 E11.36356
G1 X57.362 Y63.015 E11.3866
G1 X55.902 Y61.283 E11.49961
G1 X55.634 Y60.918 E11.52221
G1 X54.414 Y59.002 E11.63553
G1 X54.198 Y58.608 E11.65795
G1 X53.265 Y56.598 E11.7685
G1 X53.1 Y56.168 E11.79148
G1 X52.428 Y53.989 E11.90524
G1 X52.319 Y53.522 E11.92917
G1 X51.994 Y51.481 E12.03228
G1 X51.954 Y51.054 E12.05367
G1 X51.875 Y48.562 E12.17806
G1 X51.89 Y48.118 E12.20022
G1 X52.09 Y46.104 E12.3012
G1 X52.166 Y45.65 E12.32416
G1 X52.721 Y43.328 E12.44327
G1 X52.873 Y42.83 E12.46925
G1 X52.929 Y42.675 E12.47747
G1 X53.613 Y40.906 E12.57209
G1 X53.805 Y40.494 E12.59477
G1 X54.864 Y38.569 E12.70438
G0 F1350 X54.907 Y38.49
G0 X55.144 Y38.118
G0 F3600 X55.466 Y38.354
G1 F1500 X56.781 Y36.56 E12.81536
G1 X57.051 Y36.242 E12.83617
G1 X58.631 Y34.618 E12.94921
G1 X58.92 Y34.357 E12.96864
G1 X60.594 Y33.033 E13.07512
G1 X61.094 Y32.695 E13.10523
G1 X61.196 Y32.632 E13.11121
G1 X62.959 Y31.597 E13.2132
G1 X63.31 Y31.421 E13.23279
G1 X65.364 Y30.553 E13.34404
G1 X65.742 Y30.422 E13.364
G1 X67.712 Y29.884 E13.46588
G1 X68.098 Y29.805 E13.48554
G1 X70.646 Y29.459 E13.61383
G1 X71.05 Y29.432 E13.63403
G1 X72.96 Y29.432 E13.72932
G1 X73.363 Y29.459 E13.74947
G1 X75.942 Y29.809 E13.87931
G1 X76.33 Y29.888 E13.89907
G1 X78.197 Y30.398 E13.99563
G1 X78.576 Y30.53 E14.01565
G1 X80.797 Y31.471 E14.13599
G1 X81.144 Y31.645 E14.15536
G1 X83.007 Y32.737 E14.26309
G1 X83.357 Y32.977 E14.28426
G1 X85.139 Y34.394 E14.39785
G1 X85.428 Y34.656 E14.41731
G1 X86.982 Y36.262 E14.5288
G1 X87.242 Y36.57 E14.54891
G1 X88.546 Y38.342 E14.65868
G1 X88.763 Y38.683 E14.67884
G1 X89.825 Y40.629 E14.78944
G1 X89.992 Y40.99 E14.80929
G1 X90.825 Y43.158 E14.92516
G1 X90.94 Y43.524 E14.9443
G1 X91.478 Y45.734 E15.05778
G1 X91.549 Y46.151 E15.07888
G1 X91.748 Y48.181 E15.18064
G1 X91.76 Y48.57 E15.20006
G1 X91.684 Y50.938 E15.31826
G1 X91.635 Y51.442 E15.34352
G1 X91.29 Y53.481 E15.4467
G1 X91.199 Y53.865 E15.46638
G1 X90.53 Y56.034 E15.57963
G1 X90.384 Y56.414 E15.59994
G1 X89.419 Y58.491 E15.7142
G1 X89.229 Y58.838 E15.73393
G1 X88.041 Y60.705 E15.84434
G1 X87.806 Y61.025 E15.86414
G1 X86.379 Y62.721 E15.97472
G1 X86.092 Y63.018 E15.99533
G1 X84.419 Y64.526 E16.1077
G1 X84.115 Y64.767 E16.12705
G1 X82.251 Y66.054 E16.24006
G1 X81.903 Y66.26 E16.26024
G1 X79.908 Y67.272 E16.37184
G1 X79.527 Y67.434 E16.3925
G1 X77.35 Y68.183 E16.50735
G1 X76.98 Y68.284 E16.52649
G1 X74.91 Y68.711 E16.63194
G1 X74.494 Y68.767 E16.65288
G1 X72.191 Y68.913 E16.76801
G1 X71.812 Y68.913 E16.78691
G1 X69.495 Y68.767 E16.90274
G1 X69.08 Y68.711 E16.92363
G1 X66.897 Y68.262 E17.03482
G1 X66.507 Y68.155 E17.055
G1 X64.539 Y67.464 E17.15906
G1 X64.178 Y67.31 E17.17864
G1 X62.088 Y66.252 E17.29551
G1 X61.738 Y66.044 E17.31582
G1 X59.89 Y64.768 E17.42786
G1 X59.584 Y64.525 E17.44735
G1 X57.951 Y63.05 E17.55714
G1 X57.668 Y62.758 E17.57743
G1 X56.208 Y61.026 E17.69044
G1 X55.971 Y60.703 E17.71043
G1 X54.751 Y58.787 E17.82375
G1 X54.561 Y58.439 E17.84353
G1 X53.628 Y56.429 E17.95409
G1 X53.482 Y56.05 E17.97435
G1 X52.81 Y53.871 E18.08811
G1 X52.714 Y53.459 E18.10922
G1 X52.389 Y51.418 E18.21233
G1 X52.354 Y51.041 E18.23122
G1 X52.275 Y48.549 E18.35561
G1 X52.288 Y48.158 E18.37512
G1 X52.488 Y46.144 E18.4761
G1 X52.555 Y45.743 E18.49638
G1 X53.11 Y43.421 E18.61549
G1 X53.302 Y42.819 E18.64701
G1 X53.986 Y41.05 E18.74164
G1 X54.155 Y40.686 E18.76166
G1 X55.188 Y38.808 E18.86859
G0 F1350 X55.257 Y38.682
G0 X55.466 Y38.354
G0 F3600 X55.789 Y38.591
G1 F1500 X57.104 Y36.797 E18.97956
G1 X57.337 Y36.521 E18.99758
G1 X58.917 Y34.897 E19.11062
G1 X59.168 Y34.671 E19.12747
G1 X60.842 Y33.347 E19.23396
G1 X61.31 Y33.031 E19.26213
G1 X61.399 Y32.977 E19.26732
G1 X63.162 Y31.942 E19.36932
G1 X63.466 Y31.789 E19.38629
G1 X65.52 Y30.921 E19.49754
G1 X65.847 Y30.808 E19.5148
G1 X67.817 Y30.27 E19.61669
G1 X68.152 Y30.202 E19.63374
G1 X70.7 Y29.856 E19.76203
G1 X71.05 Y29.832 E19.77953
G1 X72.96 Y29.832 E19.87482
G1 X73.31 Y29.856 E19.89232
G1 X75.889 Y30.206 E20.02217
G1 X76.224 Y30.274 E20.03922
G1 X78.091 Y30.784 E20.13578
G1 X78.42 Y30.898 E20.15315
G1 X80.641 Y31.839 E20.27349
G1 X80.942 Y31.99 E20.29029
G1 X82.805 Y33.082 E20.39803
G1 X83.108 Y33.29 E20.41637
G1 X84.89 Y34.707 E20.52995
G1 X85.14 Y34.934 E20.5468
G1 X86.694 Y36.54 E20.65829
G1 X86.92 Y36.807 E20.67574
G1 X88.224 Y38.579 E20.78551
G1 X88.412 Y38.874 E20.80296
G1 X89.474 Y40.82 E20.91356
G1 X89.619 Y41.133 E20.93077
G1 X90.452 Y43.301 E21.04664
G1 X90.551 Y43.619 E21.06326
G1 X91.089 Y45.829 E21.17674
G1 X91.151 Y46.19 E21.19501
G1 X91.35 Y48.22 E21.29677
G1 X91.361 Y48.557 E21.31359
G1 X91.285 Y50.925 E21.43179
G1 X91.241 Y51.376 E21.4544
G1 X90.896 Y53.415 E21.55757
G1 X90.817 Y53.747 E21.5746
G1 X90.148 Y55.916 E21.68784
G1 X90.021 Y56.246 E21.70548
G1 X89.056 Y58.323 E21.81974
G1 X88.892 Y58.623 E21.8368
G1 X87.704 Y60.49 E21.9472
G1 X87.499 Y60.768 E21.96444
G1 X86.072 Y62.464 E22.07502
G1 X85.824 Y62.721 E22.09284
G1 X84.151 Y64.229 E22.2052
G1 X83.887 Y64.438 E22.222
G1 X82.023 Y65.725 E22.33501
G1 X81.722 Y65.904 E22.35248
G1 X79.727 Y66.916 E22.46409
G1 X79.397 Y67.056 E22.48197
G1 X77.22 Y67.805 E22.59683
G1 X76.899 Y67.892 E22.61342
G1 X74.829 Y68.319 E22.71887
G1 X74.468 Y68.368 E22.73705
G1 X72.165 Y68.514 E22.85217
G1 X71.837 Y68.514 E22.86854
G1 X69.52 Y68.368 E22.98436
G1 X69.16 Y68.32 E23.00248
G1 X66.977 Y67.871 E23.11367
G1 X66.64 Y67.777 E23.13113
G1 X64.672 Y67.086 E23.23519
G1 X64.359 Y66.953 E23.25215
G1 X62.269 Y65.895 E23.36902
G1 X61.966 Y65.715 E23.38661
G1 X60.118 Y64.439 E23.49865
G1 X59.852 Y64.228 E23.51559
G1 X58.219 Y62.753 E23.62537
G1 X57.974 Y62.5 E23.64294
G1 X56.514 Y60.768 E23.75596
G1 X56.309 Y60.488 E23.77327
G1 X55.089 Y58.572 E23.88659
G1 X54.924 Y58.271 E23.90372
G1 X53.991 Y56.261 E24.01427
G1 X53.864 Y55.932 E24.03187
G1 X53.192 Y53.753 E24.14563
G1 X53.109 Y53.396 E24.16392
G1 X52.784 Y51.355 E24.26702
G1 X52.753 Y51.028 E24.28341
G1 X52.674 Y48.536 E24.4078
G1 X52.686 Y48.197 E24.42472
G1 X52.886 Y46.183 E24.5257
G1 X52.944 Y45.836 E24.54325
G1 X53.499 Y43.514 E24.66236
G1 X53.675 Y42.963 E24.69121
G1 X54.359 Y41.194 E24.78584
G1 X54.506 Y40.879 E24.80318
G1 X55.514 Y39.046 E24.90754
G0 F1350 X55.608 Y38.875
G0 X55.789 Y38.591
G0 F3600 X56.112 Y38.827
G1 F1500 X57.427 Y37.033 E25.01852
G1 X57.624 Y36.8 E25.03374
G1 X59.204 Y35.176 E25.14678
G1 X59.416 Y34.984 E25.16105
G1 X61.09 Y33.66 E25.26753
G1 X61.526 Y33.368 E25.29371
G1 X61.601 Y33.322 E25.2981
G1 X63.364 Y32.287 E25.40009
G1 X63.622 Y32.158 E25.41448
G1 X65.676 Y31.29 E25.52573
G1 X65.952 Y31.194 E25.54031
G1 X67.922 Y30.656 E25.64219
G1 X68.206 Y30.598 E25.65666
G1 X70.754 Y30.252 E25.78494
G1 X71.05 Y30.232 E25.79974
G1 X72.96 Y30.232 E25.89503
G1 X73.256 Y30.252 E25.90984
G1 X75.835 Y30.602 E26.03968
G1 X76.119 Y30.66 E26.05414
G1 X77.986 Y31.17 E26.1507
G1 X78.264 Y31.266 E26.16537
G1 X80.485 Y32.207 E26.28572
G1 X80.74 Y32.335 E26.29995
G1 X82.603 Y33.427 E26.40769
G1 X82.859 Y33.603 E26.42318
G1 X84.641 Y35.02 E26.53677
G1 X84.853 Y35.212 E26.55104
G1 X86.407 Y36.818 E26.66253
G1 X86.598 Y37.044 E26.67729
G1 X87.902 Y38.816 E26.78706
G1 X88.061 Y39.066 E26.80184
G1 X89.123 Y41.012 E26.91244
G1 X89.246 Y41.277 E26.92702
G1 X90.079 Y43.445 E27.04289
G1 X90.163 Y43.714 E27.05695
G1 X90.701 Y45.924 E27.17043
G1 X90.753 Y46.229 E27.18586
G1 X90.952 Y48.259 E27.28762
G1 X90.961 Y48.545 E27.3019
G1 X90.885 Y50.913 E27.4201
G1 X90.846 Y51.309 E27.43995
G1 X90.501 Y53.348 E27.54313
G1 X90.434 Y53.629 E27.55754
G1 X89.765 Y55.798 E27.67078
G1 X89.658 Y56.077 E27.68569
G1 X88.693 Y58.154 E27.79995
G1 X88.554 Y58.408 E27.81439
G1 X87.366 Y60.275 E27.9248
G1 X87.193 Y60.51 E27.93935
G1 X85.766 Y62.206 E28.04994
G1 X85.556 Y62.424 E28.06504
G1 X83.883 Y63.932 E28.17741
G1 X83.66 Y64.108 E28.19158
G1 X81.796 Y65.395 E28.30459
G1 X81.541 Y65.547 E28.3194
G1 X79.546 Y66.559 E28.431
G1 X79.267 Y66.677 E28.44612
G1 X77.09 Y67.426 E28.56097
G1 X76.818 Y67.501 E28.57505
G1 X74.748 Y67.928 E28.6805
G1 X74.443 Y67.969 E28.69585
G1 X72.14 Y68.115 E28.81098
G1 X71.863 Y68.115 E28.8248
G1 X69.546 Y67.969 E28.94062
G1 X69.241 Y67.928 E28.95598
G1 X67.058 Y67.479 E29.06717
G1 X66.772 Y67.4 E29.08197
G1 X64.804 Y66.709 E29.18603
G1 X64.539 Y66.596 E29.2004
G1 X62.449 Y65.538 E29.31727
G1 X62.193 Y65.385 E29.33215
G1 X60.345 Y64.109 E29.44419
G1 X60.12 Y63.932 E29.45847
G1 X58.487 Y62.457 E29.56826
G1 X58.28 Y62.242 E29.58315
G1 X56.82 Y60.51 E29.69616
G1 X56.646 Y60.274 E29.71079
G1 X55.426 Y58.358 E29.82411
G1 X55.286 Y58.102 E29.83867
G1 X54.353 Y56.092 E29.94923
G1 X54.247 Y55.814 E29.96407
G1 X53.575 Y53.635 E30.07783
G1 X53.504 Y53.333 E30.09331
G1 X53.179 Y51.292 E30.19642
G1 X53.153 Y51.016 E30.21025
G1 X53.074 Y48.524 E30.33464
G1 X53.084 Y48.237 E30.34897
G1 X53.284 Y46.223 E30.44994
G1 X53.333 Y45.929 E30.46481
G1 X53.888 Y43.607 E30.58392
G1 X54.048 Y43.108 E30.61006
G1 X54.732 Y41.339 E30.70469
G1 X54.856 Y41.072 E30.71937
G1 X55.84 Y39.283 E30.82124
G0 F1350 X55.958 Y39.068
G0 X56.112 Y38.827
G0 F3600 X56.434 Y39.064
G1 F1500 X57.749 Y37.27 E30.93221
G1 X57.911 Y37.079 E30.9447
G1 X59.491 Y35.455 E31.05774
G1 X59.664 Y35.298 E31.0694
G1 X61.338 Y33.974 E31.17588
G1 X61.804 Y33.667 E31.20372
G1 X63.567 Y32.632 E31.30571
G1 X63.777 Y32.526 E31.31745
G1 X65.831 Y31.658 E31.4287
G1 X66.058 Y31.58 E31.44067
G1 X68.028 Y31.042 E31.54256
G1 X68.26 Y30.994 E31.55438
G1 X70.808 Y30.648 E31.68266
G1 X71.05 Y30.632 E31.69476
G1 X72.96 Y30.632 E31.79005
G1 X73.202 Y30.648 E31.80215
G1 X75.781 Y30.998 E31.932
G1 X76.013 Y31.046 E31.94382
G1 X77.88 Y31.556 E32.04038
G1 X78.108 Y31.635 E32.05242
G1 X80.329 Y32.576 E32.17276
G1 X80.537 Y32.68 E32.18436
G1 X82.4 Y33.772 E32.29209
G1 X82.61 Y33.916 E32.3048
G1 X84.392 Y35.333 E32.41838
G1 X84.566 Y35.49 E32.43008
G1 X86.12 Y37.096 E32.54157
G1 X86.276 Y37.281 E32.55364
G1 X87.58 Y39.053 E32.6634
G1 X87.71 Y39.258 E32.67551
G1 X88.772 Y41.204 E32.78612
G1 X88.872 Y41.42 E32.79799
G1 X89.705 Y43.588 E32.91386
G1 X89.774 Y43.808 E32.92537
G1 X90.312 Y46.018 E33.03884
G1 X90.354 Y46.268 E33.05149
G1 X90.553 Y48.298 E33.15325
G1 X90.561 Y48.532 E33.16494
G1 X90.485 Y50.9 E33.28314
G1 X90.452 Y51.242 E33.30028
G1 X90.107 Y53.281 E33.40345
G1 X90.052 Y53.512 E33.4153
G1 X89.383 Y55.681 E33.52854
G1 X89.295 Y55.908 E33.54069
G1 X88.33 Y57.985 E33.65495
G1 X88.217 Y58.193 E33.66675
G1 X87.029 Y60.06 E33.77716
