;FLAVOR:Marlin
;TIME:13438
;Filament used: 0m, 15.1056m
;Layer height: 0.3
;MINX:120.219
;MINY:23.821
;MINZ:0.3
;MAXX:179.72
;MAXY:128.334
;MAXZ:50.7
;Generated with Cura_SteamEngine 4.12.1
T1
M82 ;absolute extrusion mode
G21 ;metric values
G28 ;home all
G90 ;absolute positioning
M107 ;start with the fan off
G1 F2400 Z15.0 ;raise the nozzle 15mm
M109 S220 ;Set Extruder Temperature and Wait
M190 S60; Wait for bed temperature to reach target temp
T0 ;Switch to Extruder 1
G1 F3000 X5 Y10 Z0.2 ;move to prime start position
G92 E0 ;reset extrusion distance
G1 F600 X160 E5 ;prime nozzle in a line
G1 F5000 X180 ;quick wipe
G92 E0 ;reset extrusion distance
G92 E0

T1 ;switch to extruder 2
G92 E0 ;reset extruder distance
G1 F2000 E93 ;load filament
G92 E0 ;reset extruder distance
M104 S220
G92 E0
G1 F3000 E-5
;LAYER_COUNT:169
;LAYER:0
M107
G0 F3600 X134.482 Y37.676 Z0.3
;TYPE:SKIRT
G1 F3000 E0
G1 F1500 X134.683 Y37.23 E0.02441
G1 X134.954 Y36.822 E0.04884
G1 X135.309 Y36.439 E0.0749
G1 X135.684 Y36.124 E0.09933
G1 X136.105 Y35.874 E0.12376
G1 X136.561 Y35.696 E0.14818
G1 X137.32 Y35.572 E0.18655
G1 X137.942 Y35.56 E0.21759
G1 X161.739 Y35.559 E1.40482
G1 X162.442 Y35.569 E1.4399
G1 X162.929 Y35.616 E1.46431
G1 X163.402 Y35.742 E1.48873
G1 X163.848 Y35.942 E1.51312
G1 X164.256 Y36.213 E1.53755
G1 X164.654 Y36.59 E1.5649
G1 X165.06 Y37.114 E1.59797
G1 X165.284 Y37.549 E1.62238
G1 X165.435 Y38.015 E1.64682
G1 X165.504 Y38.45 E1.6688
G1 X165.581 Y39.376 E1.71515
G1 X165.638 Y40.193 E1.75601
G1 X165.908 Y42.954 E1.89442
G1 X166.25 Y45.653 E2.03015
G1 X166.665 Y48.327 E2.16515
G1 X166.753 Y48.817 E2.18999
G1 X166.868 Y49.525 E2.22577
G1 X166.91 Y50.126 E2.25583
G1 X166.909 Y50.549 E2.27693
G1 X166.886 Y52.185 E2.35856
G1 X166.886 Y54.921 E2.49506
G1 X166.964 Y57.685 E2.63301
G1 X167.119 Y60.41 E2.76918
G1 X167.35 Y63.127 E2.90523
G1 X167.664 Y65.881 E3.04351
G1 X168.048 Y68.58 E3.17952
G1 X168.516 Y71.309 E3.31766
G1 X169.047 Y73.959 E3.4525
G1 X169.664 Y76.643 E3.5899
G1 X170.353 Y79.286 E3.72616
G1 X171.127 Y81.949 E3.86452
G1 X171.965 Y84.554 E4.00104
G1 X172.882 Y87.149 E4.13835
G1 X173.848 Y89.661 E4.27262
G1 X174.187 Y90.507 E4.31809
G1 X174.396 Y91.049 E4.34707
G1 X174.457 Y91.222 E4.35623
G1 X174.782 Y92.25 E4.41001
G1 X174.96 Y92.848 E4.44114
G1 X175.137 Y93.489 E4.47432
G1 X175.263 Y94.04 E4.50252
G1 X175.466 Y95.06 E4.5544
G1 X175.621 Y95.897 E4.59687
G1 X176.067 Y98.52 E4.72961
G1 X176.601 Y101.201 E4.866
G1 X177.203 Y103.828 E5.00045
G1 X177.899 Y106.525 E5.13942
G1 X178.661 Y109.158 E5.27617
G1 X179.412 Y111.484 E5.39811
G1 X179.585 Y112.039 E5.42711
G1 X179.692 Y112.517 E5.45155
G1 X179.72 Y113.006 E5.47599
G1 X179.668 Y113.492 E5.50037
G1 X179.538 Y113.964 E5.5248
G1 X179.312 Y114.456 E5.55181
G1 X179.003 Y115.034 E5.58451
G1 X178.325 Y116.225 E5.65288
G1 X178.267 Y116.323 E5.65856
G1 X177.639 Y117.331 E5.71781
G1 X177.35 Y117.778 E5.74437
G1 X176.955 Y118.373 E5.78
G1 X176.652 Y118.758 E5.80444
G1 X176.291 Y119.088 E5.82884
G1 X175.88 Y119.354 E5.85327
G1 X175.432 Y119.551 E5.87768
G1 X175.026 Y119.659 E5.89864
G1 X174.204 Y119.818 E5.94041
G1 X171.502 Y120.379 E6.07809
G1 X168.865 Y121.003 E6.21329
G1 X166.164 Y121.727 E6.3528
G1 X163.559 Y122.504 E6.48842
G1 X160.94 Y123.366 E6.62598
G1 X159.676 Y123.826 E6.69308
G1 X158.693 Y124.172 E6.74508
G1 X158.6 Y124.203 E6.74997
G1 X157.529 Y124.541 E6.806
G1 X156.834 Y124.746 E6.84215
G1 X156.244 Y124.907 E6.87266
G1 X155.722 Y125.027 E6.89938
G1 X154.604 Y125.25 E6.95626
G1 X154.1 Y125.344 E6.98183
G1 X153.419 Y125.441 E7.01615
G1 X152.248 Y125.564 E7.0749
G1 X151.669 Y125.615 E7.10389
G1 X151.491 Y125.626 E7.11279
G1 X150.456 Y125.655 E7.16445
G1 X149.836 Y125.661 E7.19538
G1 X149.29 Y125.659 E7.22262
G1 X149.107 Y125.653 E7.23176
G1 X148.008 Y125.581 E7.2867
G1 X147.452 Y125.536 E7.31453
G1 X146.884 Y125.481 E7.343
G1 X146.703 Y125.458 E7.35211
G1 X145.683 Y125.296 E7.40363
G1 X145.129 Y125.198 E7.4317
G1 X144.514 Y125.081 E7.46293
G1 X144.334 Y125.041 E7.47213
G1 X143.337 Y124.786 E7.52347
G1 X142.805 Y124.641 E7.55098
G1 X142.196 Y124.465 E7.58261
G1 X142.024 Y124.41 E7.59162
G1 X141.054 Y124.064 E7.643
G1 X139.988 Y123.664 E7.6998
G1 X139.889 Y123.634 E7.70496
G1 X138.478 Y123.101 E7.78021
G1 X135.932 Y122.222 E7.91459
G1 X133.28 Y121.388 E8.05329
G1 X130.656 Y120.645 E8.18935
G1 X128.02 Y119.977 E8.32501
G1 X125.295 Y119.367 E8.46433
G1 X124.797 Y119.268 E8.48966
G1 X124.097 Y119.068 E8.52598
G1 X123.66 Y118.847 E8.55041
G1 X123.265 Y118.558 E8.57483
G1 X122.922 Y118.208 E8.59928
G1 X122.574 Y117.714 E8.62943
G1 X122.325 Y117.319 E8.65272
G1 X121.629 Y116.156 E8.72034
G1 X121.343 Y115.644 E8.7496
G1 X121.146 Y115.267 E8.77082
G1 X120.866 Y114.719 E8.80152
G1 X120.531 Y114.044 E8.83912
G1 X120.35 Y113.589 E8.86355
G1 X120.245 Y113.111 E8.88797
G1 X120.219 Y112.622 E8.9124
G1 X120.274 Y112.135 E8.93685
G1 X120.396 Y111.684 E8.96016
G1 X121.199 Y109.257 E9.0877
G1 X121.994 Y106.604 E9.22587
G1 X122.702 Y103.969 E9.36199
G1 X123.344 Y101.282 E9.49982
G1 X123.905 Y98.608 E9.63613
G1 X124.315 Y96.271 E9.75451
G1 X124.58 Y94.799 E9.82912
G1 X124.683 Y94.261 E9.85645
G1 X124.723 Y94.08 E9.8657
G1 X124.988 Y93.049 E9.91881
G1 X125.14 Y92.497 E9.94737
G1 X125.307 Y91.925 E9.9771
G1 X125.361 Y91.759 E9.98581
G1 X125.703 Y90.801 E10.03656
G1 X125.914 Y90.24 E10.06646
G1 X126.203 Y89.511 E10.10559
G1 X126.534 Y88.734 E10.14772
G1 X127.578 Y86.185 E10.28515
G1 X128.55 Y83.611 E10.42241
G1 X129.439 Y81.025 E10.55884
G1 X130.249 Y78.446 E10.6937
G1 X131.001 Y75.787 E10.83157
G1 X131.683 Y73.087 E10.9705
G1 X132.268 Y70.446 E11.10545
G1 X132.798 Y67.703 E11.24483
G1 X133.233 Y65.047 E11.37911
G1 X133.602 Y62.313 E11.51674
G1 X133.891 Y59.597 E11.65301
G1 X134.105 Y56.842 E11.79087
G1 X134.237 Y54.147 E11.92549
G1 X134.299 Y50.654 E12.09978
G1 X134.299 Y47.494 E12.25743
G1 X134.307 Y45.258 E12.36899
G1 X134.299 Y44.238 E12.41988
G1 X134.299 Y39.315 E12.66549
G1 X134.309 Y38.637 E12.69932
G1 X134.352 Y38.191 E12.72167
G0 F1350 X134.356 Y38.15
G0 X134.482 Y37.676
G0 F3600 X134.881 Y37.751
G1 F1500 X135.08 Y37.342 E12.74436
G1 X135.479 Y36.834 E12.77659
G1 X135.941 Y36.432 E12.80715
G1 X136.337 Y36.207 E12.82987
G1 X136.766 Y36.054 E12.85259
G1 X137.333 Y35.971 E12.88118
G1 X137.947 Y35.96 E12.91182
G1 X161.733 Y35.959 E14.09851
G1 X162.436 Y35.969 E14.13358
G1 X162.889 Y36.016 E14.1563
G1 X163.327 Y36.14 E14.17901
G1 X163.737 Y36.34 E14.20177
G1 X164.106 Y36.608 E14.22453
G1 X164.468 Y36.985 E14.2506
G1 X164.737 Y37.352 E14.2733
G1 X164.939 Y37.761 E14.29606
G1 X165.105 Y38.483 E14.33302
G1 X165.182 Y39.404 E14.37913
G1 X165.239 Y40.224 E14.42014
G1 X165.512 Y43.006 E14.5596
G1 X165.852 Y45.699 E14.69502
G1 X166.275 Y48.42 E14.8324
G1 X166.358 Y48.881 E14.85577
G1 X166.473 Y49.589 E14.89156
G1 X166.51 Y50.133 E14.91876
G1 X166.509 Y50.544 E14.93927
G1 X166.486 Y52.18 E15.02089
G1 X166.486 Y54.932 E15.15819
G1 X166.564 Y57.685 E15.2956
G1 X166.719 Y60.43 E15.43276
G1 X166.956 Y63.209 E15.57191
G1 X167.263 Y65.907 E15.70738
G1 X167.652 Y68.632 E15.84471
G1 X168.125 Y71.39 E15.98432
G1 X168.659 Y74.056 E16.11997
G1 X169.273 Y76.729 E16.2568
G1 X169.968 Y79.396 E16.3943
G1 X170.748 Y82.078 E16.53365
G1 X171.574 Y84.647 E16.66828
G1 X172.503 Y87.277 E16.80743
G1 X173.49 Y89.842 E16.94455
G1 X173.814 Y90.651 E16.98803
G1 X174.023 Y91.193 E17.01701
G1 X174.076 Y91.343 E17.02494
G1 X174.399 Y92.364 E17.07837
G1 X174.576 Y92.959 E17.10934
G1 X174.749 Y93.589 E17.14193
G1 X174.871 Y94.119 E17.16907
G1 X175.073 Y95.132 E17.2206
G1 X175.226 Y95.964 E17.26281
G1 X175.668 Y98.566 E17.39448
G1 X176.211 Y101.29 E17.53306
G1 X176.82 Y103.946 E17.669
G1 X177.503 Y106.594 E17.80544
G1 X178.284 Y109.295 E17.94571
G1 X179.03 Y111.603 E18.06672
G1 X179.203 Y112.158 E18.09572
G1 X179.3 Y112.603 E18.11845
G1 X179.318 Y113.059 E18.14121
G1 X179.256 Y113.51 E18.16393
G1 X179.047 Y114.095 E18.19492
G1 X178.779 Y114.609 E18.22384
G1 X178.625 Y114.892 E18.23991
G1 X177.978 Y116.027 E18.30509
G1 X177.927 Y116.112 E18.31004
G1 X177.303 Y117.114 E18.36893
G1 X177.017 Y117.557 E18.39524
G1 X176.622 Y118.152 E18.43087
G1 X176.338 Y118.508 E18.45359
G1 X175.996 Y118.809 E18.47632
G1 X175.606 Y119.046 E18.49908
G1 X174.95 Y119.267 E18.53362
G1 X174.107 Y119.43 E18.57646
G1 X171.399 Y119.992 E18.71444
G1 X168.742 Y120.622 E18.85067
G1 X166.094 Y121.331 E18.98743
G1 X163.425 Y122.127 E19.12639
G1 X160.805 Y122.989 E19.26399
G1 X159.543 Y123.449 E19.33101
G1 X158.56 Y123.795 E19.383
G1 X157.415 Y124.157 E19.44291
G1 X156.723 Y124.362 E19.47892
G1 X156.144 Y124.519 E19.50884
G1 X155.634 Y124.636 E19.53495
G1 X154.506 Y124.861 E19.59233
G1 X153.817 Y124.984 E19.62725
G1 X153.294 Y125.053 E19.65357
G1 X152.166 Y125.17 E19.71015
G1 X151.633 Y125.217 E19.73684
G1 X151.479 Y125.226 E19.74454
G1 X150.452 Y125.255 E19.7958
G1 X149.837 Y125.261 E19.82648
G1 X149.291 Y125.259 E19.85372
G1 X149.133 Y125.254 E19.86161
G1 X148.04 Y125.183 E19.91625
G1 X147.49 Y125.138 E19.94378
G1 X146.922 Y125.083 E19.97225
G1 X146.766 Y125.063 E19.9801
G1 X145.752 Y124.902 E20.03132
G1 X145.204 Y124.805 E20.05909
G1 X144.589 Y124.688 E20.09032
G1 X144.433 Y124.653 E20.0983
G1 X143.442 Y124.401 E20.14931
G1 X142.916 Y124.257 E20.17652
G1 X142.307 Y124.081 E20.20815
G1 X142.158 Y124.033 E20.21596
G1 X141.195 Y123.69 E20.26696
G1 X140.09 Y123.275 E20.32585
G1 X140.03 Y123.259 E20.32894
G1 X138.633 Y122.732 E20.40343
G1 X136.046 Y121.838 E20.53999
G1 X133.436 Y121.017 E20.67649
G1 X130.724 Y120.249 E20.81712
G1 X128.099 Y119.584 E20.95222
G1 X125.387 Y118.977 E21.09086
G1 X124.885 Y118.878 E21.11639
G1 X124.219 Y118.686 E21.15097
G1 X123.816 Y118.472 E21.17374
G1 X123.457 Y118.192 E21.19645
G1 X123.063 Y117.728 E21.22682
G1 X122.697 Y117.161 E21.26049
G1 X121.972 Y115.95 E21.33091
G1 X121.698 Y115.459 E21.35896
G1 X121.502 Y115.085 E21.38002
G1 X121.224 Y114.541 E21.4105
G1 X120.889 Y113.866 E21.4481
G1 X120.723 Y113.442 E21.47081
G1 X120.634 Y112.995 E21.49355
G1 X120.624 Y112.539 E21.51631
G1 X120.734 Y111.941 E21.54664
G1 X120.775 Y111.81 E21.55349
G1 X121.582 Y109.37 E21.68171
G1 X122.38 Y106.708 E21.82036
G1 X123.092 Y104.061 E21.95711
G1 X123.731 Y101.385 E22.09437
G1 X124.301 Y98.664 E22.23307
G1 X124.709 Y96.342 E22.35069
G1 X124.972 Y94.874 E22.42509
G1 X125.075 Y94.336 E22.45242
G1 X125.11 Y94.179 E22.46044
G1 X125.373 Y93.155 E22.51319
G1 X125.524 Y92.609 E22.54145
G1 X125.691 Y92.037 E22.57118
G1 X125.738 Y91.893 E22.57874
G1 X126.077 Y90.942 E22.62911
G1 X126.286 Y90.387 E22.6587
G1 X126.571 Y89.668 E22.69728
G1 X126.902 Y88.891 E22.73942
G1 X127.951 Y86.329 E22.87754
G1 X128.927 Y83.746 E23.01529
G1 X129.812 Y81.17 E23.15118
G1 X130.642 Y78.528 E23.28935
G1 X131.388 Y75.889 E23.42617
G1 X132.075 Y73.167 E23.56623
G1 X132.659 Y70.538 E23.70058
G1 X133.183 Y67.82 E23.83868
G1 X133.63 Y65.094 E23.9765
G1 X134.003 Y62.33 E24.11565
G1 X134.289 Y59.634 E24.2509
G1 X134.502 Y56.893 E24.38807
G1 X134.638 Y54.141 E24.52553
G1 X134.699 Y50.661 E24.69918
G1 X134.699 Y47.496 E24.85708
G1 X134.707 Y45.26 E24.96863
G1 X134.699 Y44.235 E25.01977
G1 X134.699 Y39.321 E25.26493
G1 X134.709 Y38.643 E25.29876
G1 X134.749 Y38.265 E25.31773
G0 F1350 X134.756 Y38.189
G0 X134.881 Y37.751
G0 F3600 X135.279 Y37.832
G1 F1500 X135.477 Y37.462 E25.33866
G1 X135.872 Y37.007 E25.36872
G1 X136.197 Y36.742 E25.38964
G1 X136.566 Y36.543 E25.41056
G1 X136.965 Y36.418 E25.43142
G1 X137.495 Y36.366 E25.45799
G1 X137.979 Y36.36 E25.48214
G1 X161.727 Y36.359 E26.66693
G1 X162.43 Y36.369 E26.70201
G1 X162.847 Y36.415 E26.72294
G1 X163.247 Y36.539 E26.74383
G1 X163.617 Y36.737 E26.76477
G1 X164.052 Y37.118 E26.79362
G1 X164.413 Y37.588 E26.82318
G1 X164.589 Y37.969 E26.84412
G1 X164.706 Y38.516 E26.87203
G1 X164.783 Y39.432 E26.91789
G1 X164.84 Y40.255 E26.95905
G1 X165.112 Y43.024 E27.09786
G1 X165.459 Y45.773 E27.23609
G1 X165.886 Y48.519 E27.37474
G1 X165.964 Y48.945 E27.39635
G1 X166.079 Y49.653 E27.43213
G1 X166.11 Y50.185 E27.45872
G1 X166.109 Y50.538 E27.47633
G1 X166.086 Y52.174 E27.55796
G1 X166.086 Y54.944 E27.69615
G1 X166.164 Y57.719 E27.83465
G1 X166.318 Y60.436 E27.97042
G1 X166.555 Y63.217 E28.10967
G1 X166.869 Y65.977 E28.24826
G1 X167.26 Y68.719 E28.38644
G1 X167.725 Y71.431 E28.52371
G1 X168.269 Y74.145 E28.66181
G1 X168.884 Y76.822 E28.79885
G1 X169.591 Y79.536 E28.93877
G1 X170.356 Y82.165 E29.07537
G1 X171.207 Y84.812 E29.21408
G1 X172.128 Y87.417 E29.35193
G1 X173.106 Y89.959 E29.48781
G1 X173.441 Y90.794 E29.5327
G1 X173.65 Y91.336 E29.56168
G1 X173.694 Y91.464 E29.56843
G1 X174.015 Y92.478 E29.6215
G1 X174.191 Y93.069 E29.65226
G1 X174.362 Y93.689 E29.68435
G1 X174.479 Y94.197 E29.71036
G1 X174.679 Y95.205 E29.76163
G1 X174.832 Y96.031 E29.80354
G1 X175.275 Y98.64 E29.93556
G1 X175.824 Y101.392 E30.07557
G1 X176.422 Y104.005 E30.2093
G1 X177.13 Y106.746 E30.35054
G1 X177.895 Y109.393 E30.488
G1 X178.648 Y111.722 E30.61012
G1 X178.821 Y112.277 E30.63912
G1 X178.907 Y112.687 E30.66002
G1 X178.914 Y113.106 E30.68093
G1 X178.841 Y113.519 E30.70185
G1 X178.629 Y114.036 E30.72973
G1 X178.3 Y114.653 E30.76461
G1 X177.63 Y115.829 E30.83214
G1 X176.987 Y116.866 E30.89301
G1 X176.684 Y117.336 E30.92091
G1 X176.289 Y117.931 E30.95654
G1 X176.025 Y118.256 E30.97743
G1 X175.704 Y118.526 E30.99836
G1 X175.338 Y118.73 E31.01926
G1 X174.874 Y118.874 E31.0435
G1 X174.031 Y119.037 E31.08634
G1 X171.331 Y119.597 E31.22391
G1 X168.651 Y120.232 E31.36132
G1 X165.949 Y120.957 E31.50089
G1 X163.324 Y121.739 E31.63754
G1 X160.669 Y122.613 E31.77699
G1 X159.41 Y123.071 E31.84383
G1 X158.359 Y123.44 E31.8994
G1 X157.302 Y123.773 E31.95469
G1 X156.613 Y123.977 E31.99054
G1 X156.044 Y124.132 E32.01996
G1 X155.486 Y124.259 E32.04851
G1 X154.431 Y124.468 E32.10217
G1 X153.754 Y124.589 E32.13648
G1 X153.252 Y124.655 E32.16174
G1 X152.131 Y124.771 E32.21796
G1 X151.598 Y124.818 E32.24466
G1 X151.468 Y124.826 E32.25116
G1 X150.448 Y124.855 E32.30207
G1 X149.839 Y124.861 E32.33245
G1 X149.293 Y124.859 E32.35969
G1 X149.159 Y124.854 E32.36638
G1 X148.072 Y124.784 E32.42072
G1 X147.529 Y124.74 E32.4479
G1 X146.961 Y124.685 E32.47637
G1 X146.828 Y124.668 E32.48306
G1 X145.821 Y124.508 E32.53393
G1 X145.279 Y124.412 E32.56139
G1 X144.664 Y124.295 E32.59263
G1 X144.531 Y124.266 E32.59942
G1 X143.548 Y124.015 E32.65003
G1 X143.027 Y123.873 E32.67697
G1 X142.418 Y123.697 E32.7086
G1 X142.292 Y123.656 E32.71521
G1 X141.335 Y123.315 E32.7659
G1 X140.219 Y122.896 E32.82537
G1 X140.172 Y122.885 E32.82778
G1 X138.78 Y122.359 E32.90202
G1 X136.181 Y121.461 E33.0392
G1 X133.527 Y120.627 E33.178
G1 X130.86 Y119.872 E33.31628
G1 X128.171 Y119.191 E33.45467
G1 X125.445 Y118.581 E33.59404
G1 X124.741 Y118.435 E33.62991
G1 X124.343 Y118.304 E33.65081
G1 X123.977 Y118.099 E33.67174
G1 X123.657 Y117.829 E33.69263
G1 X123.24 Y117.272 E33.72734
G1 X123.011 Y116.908 E33.7488
G1 X122.282 Y115.687 E33.81974
G1 X121.867 Y114.92 E33.86325
G1 X121.582 Y114.363 E33.89447
G1 X121.247 Y113.688 E33.93206
G1 X121.098 Y113.297 E33.95294
G1 X121.025 Y112.884 E33.97386
G1 X121.032 Y112.465 E33.99477
G1 X121.142 Y111.975 E34.01982
G1 X121.976 Y109.452 E34.15239
G1 X122.754 Y106.854 E34.2877
G1 X123.481 Y104.152 E34.42729
G1 X124.129 Y101.44 E34.5664
G1 X124.692 Y98.754 E34.70332
G1 X125.103 Y96.412 E34.82195
G1 X125.365 Y94.949 E34.8961
G1 X125.468 Y94.411 E34.92343
G1 X125.498 Y94.279 E34.93018
G1 X125.759 Y93.261 E34.98261
G1 X125.908 Y92.721 E35.01056
G1 X126.075 Y92.149 E35.04029
G1 X126.115 Y92.027 E35.04669
G1 X126.452 Y91.083 E35.0967
G1 X126.658 Y90.534 E35.12596
G1 X126.939 Y89.825 E35.16401
G1 X127.258 Y89.076 E35.20462
G1 X128.33 Y86.459 E35.34571
G1 X129.31 Y83.862 E35.4842
G1 X130.19 Y81.305 E35.61911
G1 X131.02 Y78.66 E35.75741
G1 X131.777 Y75.981 E35.8963
G1 X132.46 Y73.279 E36.03535
G1 X133.055 Y70.594 E36.17255
G1 X133.577 Y67.889 E36.30999
G1 X134.027 Y65.146 E36.44867
G1 X134.393 Y62.436 E36.5851
G1 X134.691 Y59.632 E36.72578
G1 X134.902 Y56.908 E36.86209
G1 X135.037 Y54.168 E36.99895
G1 X135.099 Y50.668 E37.1736
G1 X135.099 Y47.497 E37.3318
G1 X135.107 Y45.261 E37.44335
